P2
480 320
255
110 110 110 110 110 110 109 109 109 109 109 109 109 109 109 109 109 109 109 109 109 109 108 108 108 108 108 108 108 108 108 108 108 108 108 108 107 107 107 107 107 107 107 107 107 107 107 107 106 106 106 106 106 106 106 106 106 106 106 106 106 106 106 106 106 106 105 105 105 105 105 105 105 105 105 105 105 105 105 105 105 105 105 105 105 105 105 104 104 104 104 104 104 104 104 104 104 104 104 104 104 104 104 104 104 104 104 104 104 104 104 104 102 102 102 103 103 103 103 103 103 103 103 103 103 103 103 103 103 103 103 102 102 102 101 101 102 102 102 102 102 102 102 102 102 102 102 102 102 102 102 102 102 102 102 102 102 102 102 102 102 101 101 101 101 101 101 101 101 101 101 101 101 101 101 101 101 101 101 101 101 101 101 101 101 101 101 101 101 101 101 101 101 101 101 101 101 101 101 101 101 101 101 101 101 101 101 101 101 101 101 101 101 101 101 101 101 101 101 101 101 101 101 101 101 101 101 101 101 101 101 101 101 101 101 101 101 101 101 101 101 101 101 101 101 101 101 101 101 101 101 101 101 101 101 101 101 101 101 101 101 101 101 101 101 101 101 101 101 101 101 101 101 101 101 101 102 102 102 102 102 102 102 102 102 102 102 102 102 102 102 102 102 102 102 102 103 104 103 103 103 103 103 103 103 103 103 103 103 103 103 104 104 104 104 104 104 104 104 104 104 104 104 104 104 104 104 104 105 105 105 105 105 105 105 105 105 105 105 105 105 106 106 106 106 106 106 106 106 106 107 107 107 107 107 107 107 107 107 107 107 107 108 108 108 108 107 108 108 108 108 108 109 109 109 108 108 108 108 109 109 109 110 109 110 109 109 109 109 109 109 110 111 110 110 110 110 110 110 110 110 110 111 111 111 111 111 111 111 111 111 112 112 112 112 112 112 112 112 112 112 113 113 113 113 113 113 113 113 113 114 114 114 114 114 114 114 114 115 115 115 115 115 115 115 115 115 116 116 116 116 116 117 116 116 117 117 117 117 117 117 117 118 118 118 118 118 119 119 119 119 119 120 120 120 120 120 120 120 121
110 110 110 110 110 110 110 110 110 109 109 109 109 109 109 109 109 109 109 109 109 109 109 109 109 108 108 108 108 108 108 108 108 108 108 108 108 108 107 107 107 107 107 107 107 107 107 107 107 107 106 106 106 106 106 106 106 106 106 106 106 106 106 106 106 106 106 106 105 105 105 105 105 105 105 105 105 105 105 105 105 105 105 105 105 105 105 105 105 105 105 104 104 104 104 104 104 104 104 104 104 104 104 104 104 104 104 104 104 104 104 104 104 104 102 103 103 103 103 103 103 103 103 103 103 103 103 103 103 103 103 103 103 102 102 102 102 102 102 102 102 102 102 102 102 102 102 102 102 102 102 102 102 102 102 102 102 102 102 102 102 102 102 102 101 101 101 101 101 101 101 101 101 101 101 101 101 101 101 101 101 101 101 101 101 101 101 101 101 101 101 101 101 101 101 101 101 101 101 101 101 101 101 101 101 101 101 101 101 101 101 101 101 101 101 101 101 101 101 101 101 101 101 101 101 101 101 101 101 101 101 101 101 101 101 101 101 101 101 101 101 101 101 101 101 101 101 101 101 101 101 101 101 101 101 101 101 101 101 101 101 101 101 101 101 101 101 101 101 101 100 101 100 101 102 102 102 102 102 102 102 102 102 102 102 102 102 102 102 102 102 102 102 102 102 103 103 103 103 103 103 103 103 103 103 103 103 103 103 104 104 104 104 104 104 104 104 104 104 104 104 104 104 105 105 105 105 105 105 105 105 105 105 105 105 105 105 106 106 106 106 106 106 106 106 106 106 106 107 107 107 107 107 107 107 107 107 107 107 108 108 108 108 108 108 108 108 108 108 109 109 109 109 108 108 108 108 109 109 110 110 110 110 110 109 109 109 109 109 109 110 111 111 110 110 110 110 110 110 110 111 111 111 111 111 111 111 111 111 112 112 112 112 112 112 112 112 112 112 113 113 113 113 113 113 113 113 113 113 114 114 114 114 114 114 114 114 115 115 115 115 115 115 115 115 116 116 116 116 116 116 116 116 117 117 117 117 117 117 118 118 118 118 118 118 119 119 119 119 119 120 120 120 120 120 120 121 121 121 121
110 110 110 110 110 110 110 110 110 111 110 110 109 109 109 109 109 109 109 109 109 109 109 109 109 109 109 108 108 108 108 108 108 108 108 108 109 108 108 108 107 107 107 107 107 107 107 107 107 107 107 107 106 106 106 106 106 106 106 106 106 106 106 106 106 106 106 106 106 106 105 105 105 105 105 105 105 105 105 105 105 105 105 105 105 105 105 105 105 105 105 105 105 104 104 104 104 104 104 104 104 104 104 104 104 104 104 104 104 104 104 104 104 104 104 102 102 102 103 102 103 103 103 103 103 103 103 103 103 103 103 103 103 103 103 103 102 102 102 102 102 102 102 102 102 102 102 102 102 102 102 102 102 102 102 102 102 102 102 102 102 102 102 102 102 102 102 100 101 101 101 101 101 101 101 101 101 101 101 101 101 101 101 101 101 101 101 101 101 101 101 101 101 101 101 101 101 101 101 101 101 101 101 101 101 101 101 101 101 101 101 101 101 101 101 101 101 101 101 101 101 101 101 101 101 101 101 101 101 101 101 101 101 101 101 101 101 101 101 101 101 101 101 101 101 101 101 101 101 101 101 101 101 101 101 101 101 101 101 101 101 101 101 101 101 101 101 101 100 100 100 102 102 102 102 102 102 102 102 102 102 102 102 102 102 102 102 102 102 102 102 102 102 103 103 103 103 103 103 103 103 103 103 103 103 103 103 104 104 104 104 104 104 104 104 104 104 104 104 104 104 104 105 105 105 105 105 105 105 105 105 105 105 105 106 106 106 106 106 106 106 106 106 106 106 106 107 107 107 106 107 107 107 107 107 107 107 108 108 108 108 108 108 108 108 108 109 109 109 109 109 109 109 108 108 109 108 109 110 110 110 110 110 109 109 109 109 109 111 111 111 111 110 110 110 110 110 110 110 111 111 111 111 111 111 111 111 111 112 112 112 112 112 112 112 112 112 113 113 113 113 113 113 113 113 113 113 114 114 114 114 114 114 114 114 115 115 115 115 115 115 115 115 115 116 116 116 116 116 116 116 117 117 117 117 117 117 118 118 118 118 118 119 119 119 119 119 119 120 120 120 120 120 120 121 121 121 121 121 121
110 110 110 110 110 110 110 110 110 110 110 110 110 110 109 109 109 109 109 109 109 109 109 109 109 109 109 109 109 109 108 108 108 108 108 108 108 108 108 108 108 108 108 107 107 107 107 107 107 107 107 107 107 107 107 106 106 106 106 106 106 106 106 106 106 106 106 106 106 106 106 106 106 105 105 105 105 105 105 105 105 105 105 105 105 105 105 105 105 105 105 105 105 105 105 105 104 104 104 104 104 104 104 104 104 104 104 104 104 104 104 104 104 104 104 104 104 103 103 102 103 103 103 103 103 103 103 103 103 103 103 103 103 103 103 103 103 103 103 102 102 102 102 102 102 102 102 102 102 102 102 102 102 102 102 102 102 102 102 102 102 102 102 102 102 102 102 102 102 101 101 101 101 101 101 101 101 101 101 101 101 101 101 101 101 101 101 101 101 101 101 101 101 101 101 101 101 101 101 101 101 101 101 101 101 101 101 101 101 101 101 101 101 101 101 101 101 101 101 101 101 101 101 101 101 101 101 101 101 101 101 101 101 101 101 101 101 101 101 101 101 101 101 101 101 101 101 101 101 101 101 101 101 100 100 100 100 100 100 100 100 100 100 100 100 101 101 102 102 102 102 102 102 102 102 102 102 102 102 102 102 102 102 102 102 102 102 102 102 102 103 103 103 103 103 103 103 103 103 103 103 103 103 104 104 104 104 104 104 104 104 104 104 104 104 104 104 105 105 105 105 105 105 105 105 105 105 105 105 106 106 106 106 106 106 106 106 106 106 106 106 106 107 107 107 107 107 107 107 107 107 107 106 107 107 108 108 108 108 108 108 108 108 108 108 109 109 109 109 109 109 109 109 108 109 109 110 110 110 110 109 109 109 109 109 110 110 111 111 111 110 110 110 110 110 110 110 111 111 111 111 111 111 111 111 111 111 112 112 112 112 112 112 112 112 113 113 113 113 113 113 113 113 113 114 114 114 114 114 114 114 114 114 115 115 115 115 115 115 115 115 116 116 116 116 116 116 116 116 117 117 117 117 117 118 118 118 118 118 118 119 119 119 119 120 120 120 120 120 120 120 120 121 121 121 121 121 122 122 122
110 110 110 110 110 110 110 110 110 110 110 110 110 110 110 110 109 109 109 109 109 109 109 109 109 109 109 109 109 109 109 108 108 108 108 108 108 108 108 108 108 108 108 108 108 107 107 107 107 107 107 107 107 107 107 107 107 106 106 106 106 106 106 106 106 106 106 106 106 106 106 106 106 106 106 106 105 105 105 105 105 105 105 105 105 105 105 105 105 105 105 105 105 105 105 105 105 105 104 104 104 104 104 104 104 104 104 104 104 104 104 104 104 104 104 104 104 104 104 104 101 102 103 103 102 103 103 103 103 103 103 103 103 103 103 103 103 103 103 103 102 102 102 102 102 102 102 102 102 102 102 102 102 102 102 102 102 102 102 102 102 102 102 102 102 102 102 102 102 102 102 102 101 101 101 101 101 101 101 101 101 101 101 101 101 101 101 101 101 101 101 101 101 101 101 101 101 101 101 101 101 101 101 101 101 101 101 101 101 101 101 101 101 101 101 101 101 101 101 101 101 101 101 101 101 101 101 101 101 101 101 101 101 101 101 101 101 101 101 101 101 101 101 101 101 101 101 101 101 101 100 100 100 100 101 101 100 100 100 100 100 100 102 102 102 102 102 102 102 102 102 102 102 102 102 102 102 102 102 102 102 102 102 102 102 102 103 103 103 103 103 103 103 103 103 103 103 103 103 103 103 103 104 104 104 104 104 104 104 104 104 104 104 104 104 104 105 105 105 105 105 105 105 105 105 105 105 106 106 106 106 106 106 106 106 106 106 106 106 107 107 107 107 107 107 107 107 107 107 107 107 107 107 108 108 108 108 108 108 108 108 108 108 109 109 109 109 109 109 109 109 109 109 109 110 110 110 110 109 109 109 109 109 109 111 111 111 110 110 110 110 110 110 110 110 110 111 111 111 111 111 111 111 111 111 112 112 112 112 112 112 112 112 112 113 113 113 113 113 113 113 113 113 114 114 114 114 114 114 114 114 114 115 115 115 115 115 115 115 115 116 116 116 116 116 116 117 117 117 117 117 117 117 118 118 118 118 118 119 119 119 119 119 120 120 120 120 120 120 120 121 121 121 121 122 122 122 122 122 122
111 110 110 110 110 110 110 110 110 110 110 110 110 110 110 110 110 110 110 110 109 109 109 109 109 109 109 109 109 109 109 109 109 109 108 108 108 108 108 108 108 108 108 108 108 108 108 107 107 107 107 107 107 107 107 107 107 107 107 106 106 106 106 106 106 106 106 106 106 106 106 106 106 106 106 106 106 106 105 105 105 105 105 105 105 105 105 105 105 105 105 105 105 105 105 105 105 105 105 105 105 104 104 104 104 104 104 104 104 104 104 104 104 104 104 104 104 104 104 104 104 103 103 103 103 103 103 103 103 103 103 103 103 103 103 103 103 103 103 103 103 102 102 102 102 102 102 102 102 102 102 102 102 102 102 102 102 102 102 102 102 102 102 102 102 102 102 102 102 102 102 102 102 102 102 101 101 101 101 101 101 101 101 101 101 101 101 101 101 101 101 101 101 101 101 101 101 101 101 101 101 101 101 101 101 101 101 101 101 101 101 101 101 101 101 101 101 101 101 101 101 101 101 101 101 101 101 101 101 101 101 101 101 101 101 101 101 101 101 101 101 101 101 101 101 101 100 100 100 100 100 100 100 100 101 101 100 102 102 102 102 102 102 102 102 102 102 102 102 102 102 102 102 102 102 102 102 102 102 102 102 102 103 103 103 103 103 103 103 103 103 103 103 103 103 103 103 103 104 104 104 104 104 104 104 104 104 104 104 104 104 104 104 105 105 105 105 105 105 105 105 105 105 105 105 106 106 106 106 106 106 106 106 106 106 106 106 107 107 107 107 107 107 107 107 107 107 107 107 107 107 108 108 108 108 108 108 108 108 108 109 109 109 109 109 109 108 109 109 109 109 109 110 110 110 110 110 110 109 109 109 110 110 110 111 111 111 110 110 110 110 110 110 110 111 111 111 111 111 111 111 111 111 111 112 112 112 112 112 112 112 112 113 113 113 113 113 113 113 113 113 114 114 114 114 114 114 114 114 115 115 115 115 115 115 115 115 116 116 116 116 116 116 116 117 117 117 117 117 117 118 118 118 118 118 119 119 119 119 119 119 120 120 120 120 120 120 121 121 121 121 121 122 122 122 122 122 122 123 123
111 111 111 110 110 110 110 110 110 110 110 110 110 110 110 110 110 110 110 110 110 110 109 109 109 109 109 109 109 110 109 109 109 109 109 109 108 108 108 108 108 108 108 108 108 108 108 108 107 107 107 107 107 107 107 107 107 107 107 107 107 106 106 106 106 106 106 106 106 106 106 106 106 106 106 106 106 106 106 106 106 105 105 105 105 105 105 105 105 105 105 105 105 105 105 105 105 105 105 105 105 105 105 104 104 104 104 104 104 104 104 104 104 104 104 104 104 104 104 104 104 104 104 104 102 103 103 103 103 103 103 103 103 103 103 103 103 103 103 103 103 103 103 102 102 102 102 102 102 102 102 102 102 102 102 102 102 102 102 102 102 102 102 102 102 102 102 102 102 102 102 102 102 101 102 102 102 102 101 101 101 101 101 101 101 101 101 101 101 101 101 101 101 101 101 101 101 101 101 101 101 101 101 101 101 101 101 101 101 101 101 101 101 101 101 101 101 101 101 101 101 101 101 101 101 101 101 101 101 101 101 101 101 101 101 101 101 101 101 101 101 101 101 101 101 100 100 100 100 100 100 100 102 102 102 102 102 102 102 102 102 102 102 102 102 102 102 102 103 102 102 102 102 102 102 101 101 101 102 102 103 103 103 103 103 103 103 103 103 103 103 103 103 103 103 104 104 104 104 104 104 104 104 104 104 104 104 104 104 104 105 105 105 105 105 104 105 105 105 105 105 105 105 106 106 106 106 106 106 106 106 106 106 106 106 107 107 107 107 107 107 107 107 107 107 108 107 107 107 108 108 108 108 108 107 108 108 108 109 109 109 109 109 109 109 109 109 108 109 109 110 110 110 110 110 109 109 109 110 110 110 110 111 112 111 110 110 110 110 110 110 110 110 111 111 111 111 111 111 111 111 111 111 112 112 112 112 112 112 112 112 113 114 113 113 113 113 113 113 113 114 114 114 114 114 114 114 115 115 115 115 115 115 115 115 116 116 116 116 116 116 116 117 117 117 117 117 118 118 118 118 118 118 119 119 119 119 119 120 120 120 120 120 120 121 121 121 121 121 121 122 122 122 122 123 122 123 123 123 123
111 111 111 111 111 111 110 110 110 110 110 110 110 110 110 110 110 110 110 110 110 110 110 110 110 109 109 109 109 109 109 109 109 109 109 109 109 109 109 108 108 108 108 108 108 108 108 108 108 108 108 107 107 107 107 107 107 107 107 107 107 107 107 106 106 106 106 106 106 106 106 106 106 106 106 106 106 106 106 106 106 106 106 106 105 105 105 105 105 105 105 105 105 105 105 105 105 105 105 105 105 105 105 105 105 104 104 104 104 104 104 104 104 104 104 104 104 104 104 104 104 104 104 104 104 104 103 103 103 103 103 103 103 103 103 103 103 103 103 103 103 103 103 103 103 103 103 102 102 102 102 102 102 102 102 102 102 102 102 102 102 102 102 102 102 102 102 102 102 102 102 102 102 102 102 102 102 102 102 102 102 102 102 102 102 101 101 101 101 101 101 101 101 101 101 101 101 101 101 101 101 101 101 101 101 101 101 101 101 101 101 101 101 101 101 101 101 101 101 101 101 101 101 101 101 101 101 101 101 101 101 101 101 101 101 101 101 101 101 101 100 100 101 101 100 101 101 101 102 102 102 102 102 102 102 102 102 102 102 102 102 102 102 101 102 101 101 101 101 101 101 101 101 101 102 102 103 103 103 103 103 103 103 103 103 103 103 103 103 103 103 104 104 104 104 104 104 104 104 104 104 104 104 104 105 105 105 105 105 105 105 105 105 105 105 105 105 105 105 106 106 106 106 106 106 106 106 106 106 106 106 107 107 107 107 107 107 107 107 107 107 107 107 108 108 108 108 108 108 108 108 108 108 108 108 109 109 109 109 109 109 109 109 109 109 109 109 109 110 110 110 110 110 109 109 109 110 110 110 110 111 111 111 111 110 110 110 110 110 110 110 111 111 111 111 111 111 111 111 111 111 112 112 112 112 112 112 112 112 113 113 113 113 113 113 113 113 114 114 114 114 114 114 114 115 115 115 115 115 115 115 115 116 116 116 116 116 116 117 117 117 117 117 117 117 118 118 118 118 118 119 119 119 119 119 120 120 120 120 120 120 121 121 121 121 121 121 122 122 122 122 122 122 123 123 123 123 123 124 124
111 111 111 111 111 111 111 111 111 110 110 110 110 110 110 110 110 110 110 110 110 110 110 110 110 110 110 109 109 109 109 109 109 109 109 109 109 109 109 109 108 108 108 108 108 108 108 108 108 108 108 108 108 107 107 107 107 107 107 107 107 107 107 107 107 107 106 106 106 106 106 106 106 106 106 106 106 106 106 106 106 106 106 106 106 106 105 105 105 105 105 105 105 105 105 105 105 105 105 105 105 105 105 105 105 105 105 105 104 104 104 104 104 104 104 104 104 104 104 104 104 104 104 104 104 104 104 103 103 103 103 103 103 103 103 103 103 103 103 103 103 103 103 103 103 103 103 103 103 102 102 102 102 102 102 102 102 102 102 102 102 102 102 102 102 102 102 102 102 102 102 102 102 102 102 102 102 102 102 102 102 102 102 102 102 102 102 102 102 102 102 102 101 101 101 101 101 101 101 101 101 101 101 101 101 101 101 101 101 101 101 101 101 101 101 101 101 101 101 101 101 101 101 101 101 101 101 101 101 101 101 101 101 101 101 101 101 101 101 101 102 102 102 102 102 102 102 102 102 102 102 102 102 102 102 102 102 102 102 102 101 101 101 102 101 101 101 101 101 101 101 103 103 103 103 103 103 103 103 103 103 103 103 103 102 102 103 103 104 104 104 104 104 104 104 104 104 104 104 104 103 104 104 105 105 105 105 105 105 105 105 105 105 105 104 104 105 106 106 106 106 106 106 106 106 106 106 106 106 107 107 107 107 107 107 107 107 107 107 107 107 108 108 108 108 108 108 108 108 108 108 108 108 109 109 109 109 109 109 109 109 109 109 109 109 109 110 110 110 110 110 110 109 109 109 110 110 110 111 111 111 111 111 110 110 110 110 110 110 112 111 111 111 111 111 111 111 111 111 112 112 112 112 112 112 112 112 113 113 113 113 113 113 113 114 114 114 114 114 114 114 114 114 115 115 115 115 115 115 116 116 116 116 116 116 116 116 117 117 117 117 117 117 118 118 118 118 119 119 119 119 119 119 120 120 120 120 120 120 121 121 121 121 121 121 122 121 122 122 122 122 123 123 123 123 123 124 124 124 124
111 111 111 111 111 111 111 111 111 111 111 110 110 110 110 110 110 110 110 110 110 110 110 110 110 110 110 110 110 110 110 109 109 109 109 109 109 109 109 109 109 109 108 108 108 108 108 108 108 108 108 108 108 108 108 107 107 107 107 107 107 107 107 107 107 107 107 106 106 106 106 106 106 106 106 106 106 106 106 106 106 106 106 106 106 106 106 105 105 105 105 105 105 105 105 105 105 105 105 105 105 105 105 105 105 105 105 105 105 105 104 104 104 104 104 104 104 104 104 104 104 104 104 104 104 104 104 104 104 104 103 103 103 103 103 103 103 103 103 103 103 103 103 103 103 103 103 103 103 103 103 102 102 102 102 102 102 102 102 102 102 102 102 102 102 102 102 102 102 102 102 102 102 102 102 102 102 102 102 102 102 102 102 102 102 102 102 102 102 102 102 102 102 102 102 102 102 102 102 102 102 101 101 101 101 101 101 101 101 101 101 101 101 101 101 101 101 101 101 101 101 101 101 101 101 101 102 102 102 102 102 102 102 102 102 102 102 102 102 102 102 102 102 102 102 102 102 102 102 102 102 102 102 102 102 102 102 102 101 101 101 101 101 101 101 101 102 103 103 103 103 103 103 103 103 103 103 103 103 103 102 102 102 104 104 104 104 104 104 104 104 104 104 104 104 104 104 104 104 105 105 105 105 105 105 105 105 105 105 105 105 105 105 105 105 106 106 106 106 106 106 106 106 106 106 106 106 106 107 107 107 107 107 107 107 107 107 107 107 108 108 108 108 108 108 108 108 108 108 108 108 108 109 109 109 109 109 109 109 109 109 109 109 109 109 110 110 110 110 110 110 109 110 110 110 110 110 111 111 111 111 110 110 110 110 110 110 110 110 111 111 111 111 111 111 111 111 111 112 112 112 112 112 112 112 113 113 113 113 113 113 113 113 114 114 114 114 114 114 114 115 115 115 115 115 116 116 116 116 116 116 116 116 117 117 117 117 117 117 118 118 118 118 118 118 119 119 119 119 120 120 120 120 120 120 120 121 121 121 121 121 122 122 122 122 122 122 122 123 123 123 123 123 124 124 124 124 124 124 124
111 111 111 111 111 111 111 111 111 111 111 111 111 110 110 110 110 110 110 110 110 110 110 110 110 110 110 110 110 110 110 110 110 109 109 109 109 109 109 109 109 109 109 109 109 108 108 108 108 108 108 108 108 108 108 108 107 107 107 107 107 107 107 107 107 107 107 107 107 107 106 106 106 106 106 106 106 106 106 106 106 106 106 106 106 106 106 106 106 106 105 105 105 105 105 105 105 105 105 105 105 105 105 105 105 105 105 105 105 105 105 105 104 104 104 104 104 104 104 104 104 104 104 104 104 104 104 104 104 104 104 104 103 103 103 103 103 103 103 103 103 103 103 103 103 103 103 103 103 103 103 103 102 102 102 102 102 102 102 102 102 102 102 102 102 102 102 102 102 102 102 102 102 102 102 102 102 102 102 102 102 102 102 102 102 102 102 102 102 102 102 102 102 102 102 102 102 102 102 102 102 102 102 102 102 102 102 102 102 102 102 102 102 102 102 102 102 102 102 102 102 102 102 102 102 102 102 102 102 102 102 102 102 102 102 102 102 102 102 102 102 102 102 102 102 102 102 102 102 102 102 102 102 102 101 101 101 101 101 101 101 101 103 103 103 103 103 103 103 103 103 103 102 102 103 103 102 102 102 102 104 104 104 105 104 104 104 104 104 104 104 104 104 104 104 104 105 105 105 105 105 105 105 105 105 105 105 105 105 105 105 105 106 106 106 106 106 106 106 106 106 106 106 106 106 106 107 107 107 106 106 107 107 107 107 107 107 107 108 108 108 108 108 108 108 108 108 108 108 108 109 109 109 109 109 109 109 109 109 109 109 108 110 110 110 110 110 110 110 110 109 110 110 110 110 111 111 111 111 111 110 110 110 110 110 110 112 111 111 111 111 111 111 111 111 112 112 112 112 112 112 112 113 113 113 113 113 113 113 113 114 114 113 114 114 114 114 115 115 115 115 115 115 115 116 116 116 116 116 116 116 117 117 117 117 117 117 118 118 118 118 118 119 119 119 119 119 120 120 120 120 120 120 121 121 121 121 121 121 122 122 122 122 122 122 122 123 123 123 123 123 124 124 124 124 124 124 125 125 125
112 112 112 111 111 111 111 111 111 111 111 111 111 111 111 111 110 110 110 110 110 110 110 110 110 110 110 110 110 110 110 110 110 110 110 109 109 109 109 109 109 109 109 109 109 109 109 108 108 108 108 108 108 108 108 108 108 108 108 107 107 107 107 107 107 107 107 107 107 107 107 107 106 106 106 106 106 106 106 106 106 106 106 106 106 106 106 106 106 106 106 106 106 105 105 105 105 105 105 105 105 105 105 105 105 105 105 105 105 105 105 105 105 105 105 104 104 104 104 104 104 104 104 104 104 104 104 104 104 104 104 104 104 104 103 103 103 103 103 103 103 103 103 103 103 103 103 103 103 103 103 103 103 103 103 103 103 103 102 102 102 102 102 102 102 102 102 102 102 102 102 102 102 102 102 102 102 102 102 102 102 102 102 102 102 102 102 102 102 102 102 102 102 102 102 102 102 102 102 102 102 102 102 102 102 102 102 102 102 102 102 102 102 102 102 102 102 102 102 102 102 102 102 102 102 102 102 102 102 102 102 102 102 102 102 102 102 102 102 102 102 101 102 102 102 102 102 102 102 101 101 101 101 101 101 102 102 102 103 103 103 103 103 103 103 103 103 102 103 102 102 102 102 102 103 104 104 104 104 104 104 104 104 104 104 104 104 103 104 104 104 105 105 105 105 105 105 105 105 105 105 105 105 105 105 105 105 106 106 106 106 106 106 106 106 106 106 106 106 106 106 106 106 107 107 107 107 107 107 107 107 107 107 107 107 107 108 108 108 108 108 108 108 108 108 108 108 108 109 109 109 109 109 109 109 109 109 109 109 109 109 110 110 110 110 110 109 110 110 110 110 110 110 111 111 111 111 111 110 110 110 110 111 111 112 111 111 111 111 111 111 111 111 112 112 112 112 112 112 112 113 113 113 113 113 113 113 113 114 114 114 114 114 114 114 115 115 115 115 115 115 116 116 116 116 116 116 116 117 117 117 117 117 117 118 118 118 118 118 119 119 119 119 119 119 120 120 120 120 120 120 121 121 121 121 121 121 122 122 122 122 122 122 123 123 123 123 123 123 124 124 124 124 124 124 125 125 125 125 125
112 112 112 112 112 111 111 111 111 111 111 111 111 111 111 111 111 111 110 110 110 110 110 110 110 110 110 110 110 110 110 110 110 110 110 110 110 109 109 109 109 109 109 109 109 109 109 109 108 108 108 108 108 108 108 108 108 108 108 108 108 107 107 107 107 107 107 107 107 107 107 107 107 107 107 106 106 106 106 106 106 106 106 106 106 106 106 106 106 106 106 106 106 106 105 105 105 105 105 105 105 105 105 105 105 105 105 105 105 105 105 105 105 105 105 105 105 104 104 104 104 104 104 104 104 104 104 104 104 104 104 104 104 104 104 104 103 103 103 103 103 103 103 103 103 103 103 103 103 103 103 103 103 103 103 103 103 103 103 103 103 102 102 102 102 102 102 102 102 102 102 102 102 102 102 102 102 102 102 102 102 102 102 102 102 102 102 102 102 102 102 102 102 102 102 102 102 102 102 102 102 102 102 102 102 102 102 102 102 102 102 102 102 102 102 102 102 102 102 102 102 102 102 102 102 102 102 102 102 102 102 102 102 102 102 102 102 102 102 102 102 102 102 102 101 102 101 101 101 101 102 103 103 103 103 103 103 103 103 103 103 103 103 103 102 102 102 102 102 102 102 104 104 104 104 104 104 104 104 104 104 104 103 103 103 103 105 105 105 105 105 105 105 105 105 105 105 105 105 105 105 105 105 105 105 106 106 106 106 106 106 106 106 106 106 106 106 106 106 106 106 106 106 107 107 107 107 107 107 107 107 107 107 107 108 108 108 108 108 108 108 108 108 108 108 108 109 109 109 109 109 109 109 109 109 109 109 109 110 110 110 110 110 110 110 110 110 110 110 110 110 111 111 111 111 110 110 110 110 111 111 112 112 111 111 111 111 111 111 111 111 112 112 112 112 112 112 112 113 113 113 113 113 113 113 114 114 114 114 114 114 114 115 115 115 115 115 115 115 116 116 116 116 116 116 117 117 117 117 117 117 118 118 118 118 118 118 119 119 119 119 119 120 120 120 120 120 120 121 122 121 121 121 122 122 122 122 122 122 122 122 123 123 123 123 123 124 124 124 124 124 124 124 125 125 125 125 125 125 125
112 112 112 112 112 112 112 111 111 111 111 111 111 111 111 111 111 111 111 111 111 110 110 110 110 110 110 110 110 110 110 110 110 110 110 110 110 110 110 110 109 109 109 109 109 109 109 109 109 109 108 108 108 108 108 108 108 108 108 108 108 108 108 107 107 107 107 107 107 107 107 107 107 107 107 107 107 106 106 106 106 106 106 106 106 106 106 106 106 106 106 106 106 106 106 106 105 105 105 105 105 105 105 105 105 105 105 105 105 105 105 105 105 105 105 105 105 105 105 105 104 104 104 104 104 104 104 104 104 104 104 104 104 104 104 104 104 104 104 104 103 103 103 103 103 103 103 103 103 103 103 103 103 103 103 103 103 103 103 103 103 103 103 103 103 102 103 102 102 102 102 102 102 102 102 102 102 102 102 102 102 102 102 102 102 102 102 102 102 102 102 102 102 102 102 102 102 102 102 102 102 102 102 102 102 102 102 102 102 102 102 102 102 102 102 102 102 102 102 102 102 102 102 102 102 102 102 102 102 102 102 102 102 102 102 102 102 102 102 102 102 102 102 103 103 103 103 103 103 103 103 103 103 103 103 103 103 103 103 103 103 103 102 103 102 102 103 104 104 104 104 104 104 104 104 103 104 103 103 103 103 103 104 104 105 105 105 105 105 105 105 105 105 105 105 105 105 105 105 104 104 106 106 106 106 106 106 106 105 105 106 106 106 106 106 106 106 106 106 106 106 106 107 106 107 107 106 106 107 107 107 108 108 108 108 107 108 107 108 108 108 108 108 108 109 109 109 109 109 109 109 109 109 109 108 109 109 110 110 110 110 110 110 110 110 110 110 110 110 111 111 111 111 111 110 110 110 110 111 112 112 112 112 112 111 111 111 111 112 112 112 112 112 112 112 113 113 113 113 113 113 113 114 114 114 114 114 114 114 115 115 115 115 115 115 116 116 116 116 116 116 116 117 117 117 117 117 118 118 118 118 118 118 119 119 119 119 119 119 120 120 120 120 120 120 121 121 121 121 121 121 122 122 122 122 122 122 123 123 123 123 123 123 124 124 124 124 124 124 124 125 125 125 125 125 125 125 125 126 126
112 112 112 112 111 112 112 112 112 112 111 111 111 111 111 111 111 111 111 111 111 111 111 111 110 110 110 110 110 110 110 110 110 110 110 110 110 110 110 110 110 110 109 109 109 109 109 109 109 109 109 109 109 108 108 108 108 108 108 108 108 108 108 108 107 107 107 107 107 107 107 107 107 107 107 107 107 107 107 106 106 106 106 106 106 106 106 106 106 106 106 106 106 106 106 106 106 106 106 105 105 105 105 105 105 105 105 105 105 105 105 105 105 105 105 105 105 105 105 105 105 105 104 104 104 104 104 104 104 104 104 104 104 104 104 104 104 104 104 104 104 104 103 103 103 103 103 103 103 103 103 103 103 103 103 103 103 103 103 103 103 103 103 103 103 103 103 103 103 103 103 102 102 102 102 102 102 102 102 102 102 102 102 102 102 102 102 102 102 102 102 102 102 102 102 102 102 102 102 102 102 102 102 102 102 102 102 102 102 102 102 102 102 102 102 102 102 102 102 102 102 102 102 102 102 102 102 102 102 102 102 102 102 102 102 103 103 103 103 103 103 103 103 103 103 103 103 103 103 103 103 103 103 103 103 103 103 103 103 103 103 103 103 103 104 104 104 104 104 104 104 104 104 104 103 103 103 103 104 104 105 105 105 106 105 105 105 105 105 105 105 105 104 104 104 104 104 105 104 106 106 106 106 106 106 106 106 106 106 106 106 106 106 106 106 106 106 106 106 106 107 107 107 107 107 107 107 107 107 108 108 108 108 108 108 108 108 108 108 108 108 108 108 109 109 109 109 109 109 109 109 109 109 109 109 109 110 110 110 110 110 110 110 110 110 110 110 111 110 111 111 111 111 111 111 111 111 112 112 112 111 111 111 111 111 111 112 112 112 112 112 112 112 113 113 113 113 113 113 114 114 114 114 114 114 114 115 115 115 114 115 115 115 116 116 116 116 116 116 117 117 117 117 117 117 118 118 118 118 118 118 119 119 119 119 120 120 120 120 120 120 120 120 121 121 121 121 121 121 123 122 122 122 122 122 122 123 123 123 123 123 123 124 124 124 124 124 124 125 125 125 125 125 125 125 125 126 126 126 126
113 113 112 112 112 112 112 112 112 112 112 111 111 111 111 111 111 111 111 111 111 111 111 111 111 110 110 110 110 110 110 110 110 110 110 110 110 110 110 110 110 110 110 110 110 109 109 109 109 109 109 109 109 109 109 108 108 108 108 108 108 108 108 108 108 108 108 107 107 107 107 107 107 107 107 107 107 107 107 107 107 107 107 106 106 106 106 106 106 106 106 106 106 106 106 106 106 106 106 106 106 106 105 105 105 105 105 105 105 105 105 105 105 105 105 105 105 105 105 105 105 105 105 105 105 104 103 103 104 104 104 104 104 104 104 104 104 104 104 104 104 104 104 104 104 104 103 103 103 103 103 103 103 103 103 103 103 103 103 103 103 103 103 103 103 103 103 103 103 103 103 103 103 103 103 103 103 103 103 103 102 102 102 102 102 102 102 103 102 102 102 102 102 102 102 102 102 102 102 102 102 102 102 102 102 102 102 102 102 102 102 102 102 102 102 102 102 102 102 102 102 102 102 103 103 103 103 103 103 103 103 103 103 103 103 103 103 103 103 103 103 103 103 103 103 103 103 103 103 103 103 103 103 103 103 104 104 104 104 104 104 104 104 104 104 104 104 104 103 103 103 104 103 103 104 104 105 105 105 105 105 105 105 105 105 105 105 104 105 104 104 104 104 105 105 106 106 106 106 106 106 106 106 106 106 106 106 106 106 106 106 106 106 106 106 106 107 107 107 107 107 107 107 107 107 107 107 107 108 108 108 108 108 108 108 108 108 108 108 108 109 109 109 109 109 109 109 109 109 109 109 109 109 110 110 110 110 110 110 110 110 110 110 110 111 111 111 111 111 111 111 111 111 111 111 112 112 112 111 112 112 112 112 112 112 112 112 112 112 112 113 113 113 113 113 113 114 114 114 114 114 114 114 115 115 115 115 115 115 115 116 116 116 116 116 116 116 117 117 117 117 117 118 118 118 118 118 119 119 119 119 119 119 120 120 120 120 120 120 121 121 121 121 121 121 122 122 122 122 122 122 122 123 123 123 123 123 123 123 124 124 124 124 124 124 124 125 125 125 125 125 125 125 126 126 126 126 126 126 126
113 113 113 113 113 112 112 112 112 112 112 112 112 112 111 111 111 111 111 111 111 111 111 111 111 111 111 110 110 110 110 110 110 110 110 110 110 110 110 110 110 110 110 110 110 110 109 109 109 109 109 109 109 109 109 109 108 108 108 108 108 108 108 108 108 108 108 108 108 107 107 107 107 107 107 107 107 107 107 107 107 107 107 106 106 106 106 106 106 106 106 106 106 106 106 106 106 106 106 106 106 106 106 106 106 105 105 105 105 105 105 105 105 105 105 105 105 105 105 105 105 105 105 105 105 105 105 104 103 103 103 104 104 104 104 104 104 104 104 104 104 104 104 104 104 104 104 104 104 103 103 103 103 103 103 103 103 103 103 103 103 103 103 103 103 103 103 103 103 103 103 103 103 103 103 103 103 103 103 103 103 103 103 103 103 103 103 103 103 103 103 103 103 103 103 103 103 103 103 103 103 103 103 103 103 103 103 103 103 103 103 103 103 103 103 103 103 103 103 103 103 103 103 103 103 103 103 103 103 103 103 103 103 103 103 103 103 103 103 103 103 103 103 103 103 103 103 103 103 103 104 104 104 104 104 104 104 104 104 104 104 104 104 104 103 103 103 103 103 105 105 105 105 105 105 105 105 105 105 105 104 105 105 105 104 104 104 104 104 104 105 106 106 106 106 106 106 106 106 106 106 106 105 106 106 106 106 106 106 106 106 106 106 106 107 107 107 107 107 107 107 107 107 106 107 108 107 107 108 108 108 108 108 108 108 108 108 108 108 108 109 109 108 109 109 109 109 109 109 109 110 110 110 110 110 110 110 110 110 109 109 110 111 111 111 111 111 111 111 111 111 111 112 112 112 112 112 112 112 112 113 112 112 112 112 112 112 113 113 113 113 113 113 114 114 114 114 114 114 114 114 115 115 115 115 115 115 116 116 116 116 116 116 117 117 117 117 117 117 117 118 118 118 118 118 119 119 119 119 119 119 120 120 120 120 119 119 121 121 121 121 121 121 122 122 122 122 122 122 122 123 123 123 123 123 123 124 124 124 124 124 124 124 125 125 125 125 125 125 125 125 126 126 126 126 126 126 127 127 127
113 113 113 113 113 113 112 112 112 112 112 112 112 112 112 112 112 111 111 111 111 111 111 111 111 111 111 111 111 111 111 110 110 110 110 110 110 110 110 110 110 110 110 110 110 110 110 110 109 109 109 109 109 109 109 109 109 109 108 108 108 108 108 108 108 108 108 108 108 108 107 107 107 107 107 107 107 107 107 107 107 107 107 107 107 107 106 106 106 106 106 106 106 106 106 106 106 106 106 106 106 106 106 106 106 106 106 106 105 105 105 105 105 105 105 105 105 105 105 105 105 105 105 105 105 105 105 105 105 105 105 103 103 104 104 104 104 104 104 104 104 104 104 104 104 104 104 104 104 104 104 104 104 104 104 103 103 103 103 103 103 103 103 103 103 103 103 103 103 103 103 103 103 103 103 103 103 103 103 103 103 103 103 103 103 103 103 103 103 103 103 103 103 103 103 103 103 103 103 103 103 103 103 103 103 103 103 103 103 103 103 103 103 103 103 103 103 103 103 103 103 103 103 103 103 103 103 103 103 103 103 103 103 103 103 102 103 103 103 103 104 104 104 104 104 104 104 104 104 104 104 104 104 104 104 104 104 104 104 104 104 104 104 105 105 105 105 105 105 105 105 105 105 105 105 105 105 105 105 105 105 105 104 104 104 105 106 106 106 106 106 106 106 106 106 106 106 106 106 106 106 106 106 106 106 106 106 106 106 106 106 106 106 107 107 107 107 107 107 107 107 107 107 107 108 108 108 108 108 108 108 108 108 108 108 109 108 109 109 109 109 109 109 109 109 109 109 109 109 110 110 110 110 110 110 110 110 110 110 110 111 111 111 111 111 111 111 111 111 112 112 112 112 112 112 112 112 112 112 112 112 112 112 114 113 113 114 114 114 113 113 114 114 114 114 114 114 115 115 115 115 115 115 115 116 116 116 117 116 116 117 117 117 118 117 117 117 118 118 118 118 118 119 119 119 119 119 119 120 120 120 120 120 120 121 121 121 121 121 121 122 122 122 122 122 122 122 122 123 123 123 123 123 123 124 124 124 124 124 124 124 125 125 125 125 125 125 125 125 126 126 126 126 126 126 127 127 127 127 127
113 113 113 113 113 113 113 113 113 112 112 112 112 112 112 112 112 112 111 111 111 111 111 111 111 111 111 111 111 111 111 111 111 110 110 110 110 110 110 110 110 110 110 110 110 110 110 110 110 110 109 109 109 109 109 109 109 109 109 109 108 108 108 108 108 108 108 108 108 108 108 108 107 107 107 107 107 107 107 107 107 107 107 107 107 107 107 107 106 106 106 106 106 106 106 106 106 106 106 106 106 106 106 106 106 106 106 106 106 106 106 105 105 105 105 105 105 105 105 105 105 105 105 105 105 105 105 105 105 105 105 105 105 105 104 104 104 104 104 104 104 104 104 104 104 104 104 104 104 104 104 104 104 104 104 104 104 104 104 104 103 103 103 103 103 103 103 103 103 103 103 103 103 103 103 103 103 103 103 103 103 103 103 103 103 103 103 103 103 103 103 103 103 103 103 103 103 103 103 103 103 103 103 103 103 103 103 103 103 103 103 103 103 103 103 103 103 103 103 103 103 103 103 103 103 103 103 103 103 103 103 103 103 104 104 104 104 104 104 104 104 104 104 104 104 104 104 104 104 104 104 104 104 104 104 104 104 104 104 105 105 105 105 105 105 105 105 105 105 105 105 105 105 105 105 105 105 105 105 105 104 106 105 106 106 106 106 106 106 106 106 106 106 106 106 106 106 106 106 105 106 106 106 106 106 106 106 107 106 106 106 107 107 107 107 107 107 107 107 107 107 107 107 108 108 108 108 108 108 108 108 108 107 108 108 109 108 109 109 109 109 109 109 108 109 109 109 110 110 110 110 110 110 110 110 110 110 111 111 111 111 111 111 111 111 111 112 112 112 112 112 112 112 112 112 112 112 112 112 112 113 113 113 113 114 113 113 114 115 114 114 115 114 115 114 115 114 115 115 115 115 116 116 116 116 116 116 116 117 117 117 117 117 117 118 118 118 118 119 119 119 119 119 119 119 120 120 120 120 120 120 120 121 121 121 121 120 121 122 122 122 122 122 122 122 122 123 123 123 123 123 123 124 124 124 124 124 124 124 124 125 125 125 125 125 125 125 126 126 126 126 126 126 127 127 127 127 127 127 127
113 113 113 113 113 113 113 113 113 113 112 112 112 112 112 112 112 112 112 112 112 111 111 111 111 111 111 111 111 111 111 111 111 111 111 110 110 110 110 110 110 110 110 110 110 110 110 110 110 110 110 110 110 109 109 109 109 109 109 109 109 109 108 108 108 108 108 108 108 108 108 108 108 108 107 107 107 107 107 107 107 107 107 107 107 107 107 107 107 107 107 106 106 106 106 106 106 106 106 106 106 106 106 106 106 106 106 106 106 106 106 106 106 105 105 105 105 105 105 105 105 105 105 105 105 105 105 105 105 105 105 105 105 105 105 105 105 105 105 104 104 104 104 104 104 104 104 104 104 104 104 104 104 104 104 104 104 104 104 104 104 104 104 104 104 104 104 104 104 104 104 104 104 103 103 103 103 103 103 103 103 103 103 103 103 103 103 103 103 103 103 103 103 103 103 103 103 103 103 103 103 103 103 103 103 103 103 103 103 103 103 103 103 103 103 103 103 103 103 103 103 104 104 104 104 104 104 104 104 104 104 104 104 104 104 104 104 104 104 104 104 104 104 104 104 104 104 104 104 104 105 105 105 105 105 105 105 105 105 105 105 105 105 105 105 105 105 105 105 105 105 105 105 105 105 105 105 105 105 106 106 106 106 106 106 106 106 106 106 105 105 105 105 105 106 106 106 106 106 106 106 106 106 106 106 106 106 107 107 107 107 107 107 107 107 107 107 107 107 107 107 108 108 108 108 108 108 108 108 107 108 108 108 109 109 109 109 109 109 109 109 109 110 110 110 110 110 110 110 110 110 110 110 110 111 111 111 111 111 111 111 111 111 112 112 112 112 112 112 112 112 112 112 113 113 113 113 112 113 113 114 114 114 114 114 114 114 114 114 114 115 115 115 115 115 115 115 116 116 116 116 116 117 116 117 117 117 117 118 117 118 118 118 118 118 118 119 119 119 118 119 119 120 120 120 120 120 120 120 121 121 121 121 121 121 121 122 122 122 122 122 122 123 123 123 123 123 123 123 124 124 124 124 124 124 124 124 125 125 125 125 125 125 125 126 126 126 126 126 126 126 127 127 127 127 127 127 127 128 128
114 114 113 113 113 113 113 113 113 114 113 113 112 112 112 112 112 112 112 112 112 112 111 111 111 111 111 111 111 111 111 111 111 111 111 111 111 110 110 110 110 110 110 110 110 110 110 110 110 110 110 110 110 109 109 109 109 109 109 109 109 109 109 109 108 108 108 108 108 108 108 108 108 108 108 108 108 107 107 107 107 107 107 107 107 107 107 107 107 107 107 107 107 106 106 106 106 106 106 106 106 106 106 106 106 106 106 106 106 106 106 106 106 106 106 106 106 106 105 105 105 105 105 105 105 105 105 105 105 105 105 105 105 105 105 105 105 105 105 105 105 105 105 105 104 104 104 104 104 104 104 104 104 104 104 104 104 104 104 104 104 104 104 104 104 104 104 104 104 104 104 104 104 104 104 104 104 104 104 104 104 104 104 104 104 104 104 104 104 104 104 104 104 104 104 104 104 104 104 104 104 104 104 104 104 104 104 104 104 104 104 104 104 104 104 104 104 104 104 104 104 104 104 104 104 104 104 104 104 104 104 104 104 104 104 104 104 104 104 104 104 104 104 104 104 105 105 105 105 105 105 105 105 105 105 105 105 105 105 105 105 105 105 105 105 105 105 105 105 105 105 105 105 105 106 106 106 106 106 106 106 106 106 106 106 106 106 106 105 105 105 105 105 106 106 106 106 106 106 106 106 106 106 106 106 106 106 107 107 107 107 107 107 106 107 107 107 107 108 108 108 108 108 108 108 108 107 108 108 108 108 108 109 109 108 108 108 109 109 109 109 110 110 110 110 110 110 110 110 110 110 111 110 110 111 111 111 111 111 111 112 112 112 112 112 112 112 112 112 112 112 113 113 113 112 113 113 113 114 114 114 114 114 115 114 115 115 115 116 115 115 115 116 116 115 116 116 116 117 117 115 117 117 117 118 118 118 118 118 118 118 118 118 119 119 119 119 119 119 120 120 120 120 120 120 120 120 121 121 121 121 121 122 122 122 122 122 122 122 122 122 123 123 123 123 123 123 124 124 124 124 124 124 124 124 125 125 125 125 125 125 125 126 126 126 126 126 126 126 127 127 128 127 127 127 127 128 128 128 128
114 114 114 114 113 113 113 113 113 113 113 113 113 113 113 112 112 112 112 112 112 112 112 112 112 112 111 111 111 111 111 111 111 111 111 111 111 111 111 111 110 110 110 110 110 110 110 110 110 110 110 110 110 110 110 110 109 109 109 109 109 109 109 109 109 109 108 108 108 108 108 108 108 108 108 108 108 108 108 107 107 107 107 107 107 107 107 107 107 107 107 107 107 107 107 107 107 107 106 106 106 106 106 106 106 106 106 106 106 106 106 106 106 106 106 106 106 106 106 106 106 106 106 105 105 104 105 105 105 105 105 105 105 105 105 105 105 105 105 105 105 105 105 105 105 105 105 105 105 105 105 104 104 104 104 104 104 104 104 104 104 104 104 104 104 104 104 104 104 104 104 104 104 104 104 104 104 104 104 104 104 104 104 104 104 104 104 104 104 104 104 104 104 104 104 104 104 104 104 104 104 104 104 104 104 104 104 104 104 104 104 104 104 104 104 104 104 104 104 104 104 104 104 104 104 104 104 104 104 104 104 104 104 104 104 104 104 105 105 105 105 105 105 105 105 105 105 105 105 105 105 105 105 105 105 105 105 105 105 105 105 105 105 105 105 105 105 105 106 106 106 106 106 106 106 106 106 106 106 106 106 106 106 106 106 106 106 105 105 106 106 106 106 106 106 106 106 106 107 106 106 106 106 106 107 107 107 107 107 107 108 107 107 107 107 107 107 108 108 108 108 108 108 108 108 109 108 108 108 108 109 109 109 109 109 109 109 109 110 109 109 110 110 110 110 110 110 110 111 111 111 111 111 111 111 111 111 112 112 112 112 112 112 112 112 112 113 113 113 113 113 114 113 114 113 113 113 114 115 114 114 114 115 115 115 115 115 116 116 115 116 116 116 116 116 117 117 118 118 118 118 117 118 118 118 118 118 118 118 119 119 119 119 119 119 119 120 120 120 120 120 120 119 120 121 121 121 121 121 121 121 122 122 122 122 122 122 123 123 123 123 123 123 123 124 124 124 124 124 124 124 124 125 125 125 125 125 125 125 125 126 126 126 126 126 126 126 127 127 127 127 127 127 128 128 128 128 128 128 128
114 114 114 114 114 114 114 113 113 113 113 113 113 113 113 113 113 113 112 112 112 112 112 112 112 112 112 112 111 111 111 111 111 111 111 111 111 111 111 111 111 111 110 110 110 110 110 110 110 110 110 110 110 110 110 110 110 110 109 109 109 109 109 109 109 109 109 108 108 108 108 108 108 107 107 108 108 108 108 108 108 107 107 107 107 107 107 107 107 107 107 107 107 107 107 107 107 107 107 107 107 106 106 106 106 106 106 106 106 106 106 106 106 106 106 106 106 106 106 106 106 106 106 106 106 106 106 105 105 105 105 105 105 105 105 105 105 105 105 105 105 105 105 105 105 105 105 105 105 105 105 105 105 105 105 105 105 104 104 104 104 104 104 104 104 104 104 104 104 104 104 104 103 104 104 104 104 104 104 104 104 104 104 104 104 104 104 104 104 104 104 104 104 104 104 104 104 104 104 104 104 104 104 104 104 104 104 104 104 104 104 104 104 104 104 104 104 104 104 104 104 104 104 104 104 104 104 104 104 104 105 105 105 105 105 105 105 105 105 105 105 105 105 105 105 105 105 105 105 105 105 105 105 105 105 105 105 105 105 105 105 105 105 105 106 106 106 106 106 106 106 106 106 106 106 106 106 106 106 106 106 106 106 106 105 105 106 106 106 106 106 106 106 106 106 106 106 106 106 106 106 106 107 107 107 107 107 107 108 108 107 107 107 107 108 108 108 108 108 107 108 108 108 108 108 108 108 109 109 109 108 109 109 109 110 110 110 110 110 110 110 110 110 110 111 110 110 111 111 111 111 111 111 111 111 112 112 112 112 112 112 112 112 113 113 113 113 113 113 113 113 114 114 114 114 115 115 114 115 115 115 115 116 116 115 116 116 116 116 116 116 116 117 117 117 118 117 117 117 118 118 118 118 118 118 118 118 120 119 119 119 119 119 120 120 120 120 120 120 120 120 121 122 121 121 121 121 121 122 122 122 122 122 122 122 123 123 123 123 123 123 123 124 124 124 124 125 124 124 124 125 125 125 125 125 125 125 125 126 126 126 126 126 126 126 127 127 127 127 127 127 128 128 128 128 128 128 128 129 129
114 114 114 114 114 114 114 114 113 113 113 113 113 113 113 113 113 113 113 113 112 112 112 112 112 112 112 112 112 112 111 111 111 111 111 111 111 111 111 111 111 111 111 111 110 110 110 110 110 110 110 110 110 110 110 110 110 110 110 110 110 109 109 109 109 109 109 109 109 109 109 108 108 108 108 108 108 108 108 108 108 108 108 107 107 107 107 107 107 107 107 107 107 107 107 107 107 107 107 107 107 107 107 107 107 106 106 106 106 106 106 106 106 106 106 106 106 106 106 106 106 106 106 106 106 106 106 106 106 106 106 105 105 104 104 104 104 105 105 105 105 105 105 105 105 105 105 105 105 105 105 105 105 105 105 105 105 105 105 105 105 105 105 105 105 105 105 105 105 105 105 105 105 104 104 104 104 104 104 104 104 104 104 104 104 104 104 104 104 104 104 104 104 104 104 104 104 104 104 104 104 104 104 104 104 104 104 104 104 104 104 104 104 105 105 104 105 105 105 105 105 105 105 105 105 105 105 105 105 105 105 105 105 105 105 105 105 105 105 105 105 105 105 105 105 105 105 105 105 105 105 105 105 105 106 105 106 105 105 106 106 106 106 106 106 106 106 106 106 106 106 106 106 106 106 106 106 106 106 106 106 106 106 106 106 106 106 107 106 106 106 106 106 106 106 106 106 106 106 107 106 106 106 106 107 107 108 107 107 107 107 108 108 108 108 108 108 108 108 108 108 108 108 109 109 109 109 109 109 109 109 108 109 109 110 110 110 110 110 110 110 109 111 111 111 111 111 111 111 111 110 111 112 112 112 112 112 112 112 113 113 113 113 113 113 114 114 114 113 114 114 115 114 115 115 115 115 114 115 115 116 115 115 116 116 116 116 116 117 117 117 117 118 117 117 118 118 118 118 119 119 119 119 119 119 120 120 120 120 119 120 120 120 120 120 120 121 120 120 121 121 121 121 121 121 122 122 122 122 122 122 122 122 123 123 123 123 123 123 124 124 124 124 124 124 124 124 125 125 126 125 125 125 125 125 126 126 126 126 126 126 127 127 127 127 127 127 127 128 128 128 128 128 128 128 129 129 129 129 130
114 114 114 114 114 114 114 114 114 114 114 113 113 113 113 113 113 113 113 113 113 113 112 112 112 112 112 112 112 112 112 112 111 111 111 111 111 111 111 111 111 111 111 111 111 111 110 110 109 110 110 110 110 110 110 110 110 110 110 110 110 110 110 109 109 109 109 109 109 109 109 109 108 108 108 108 108 108 108 108 108 108 108 108 108 108 107 107 107 107 107 107 107 107 107 107 107 107 107 107 107 107 107 107 107 107 107 107 106 106 106 106 106 106 106 106 106 106 106 106 106 106 106 106 106 106 106 106 106 106 106 106 106 106 106 106 106 106 105 104 104 104 105 104 105 105 105 105 105 105 105 105 105 105 105 105 105 105 105 105 105 105 105 105 105 105 105 105 105 105 105 105 105 105 105 105 105 105 105 105 105 105 105 105 105 105 105 105 105 105 105 105 105 105 105 105 105 105 105 105 105 105 105 105 105 105 105 105 105 105 105 105 105 105 105 105 105 105 105 105 105 105 105 105 105 105 105 105 105 105 105 105 105 105 105 105 105 105 105 105 105 105 105 105 105 105 105 105 105 105 105 106 106 106 106 106 106 106 106 106 106 106 106 106 106 106 106 106 106 106 106 106 106 105 106 106 106 106 106 106 106 106 106 106 106 106 106 106 106 106 106 106 106 106 107 107 106 106 106 106 106 106 107 107 107 107 107 107 108 108 108 108 108 108 108 108 107 108 108 108 108 108 109 109 109 109 109 109 109 109 109 109 110 110 110 110 110 110 109 110 110 110 111 111 111 111 110 111 111 112 112 112 111 112 112 111 114 113 113 113 113 113 113 114 114 114 114 113 115 114 115 114 115 114 115 116 116 115 116 116 116 117 117 116 116 117 117 117 117 118 117 117 118 118 118 119 119 119 119 119 119 118 119 119 120 120 120 119 120 120 120 120 120 120 121 120 121 121 121 121 121 121 121 122 122 122 122 123 122 122 122 123 123 123 123 123 123 124 124 124 124 124 124 124 124 124 125 125 125 125 125 125 125 126 126 126 126 126 126 127 127 127 127 127 127 127 127 128 128 128 128 128 128 129 129 129 129 129 129 129
115 115 115 114 114 114 114 114 114 114 114 114 114 113 113 113 113 113 113 113 113 113 113 112 112 112 112 112 112 112 112 112 112 112 112 112 111 111 111 111 111 111 111 111 111 111 111 111 111 111 110 110 110 110 110 110 110 110 110 110 110 110 110 110 110 109 109 109 109 109 109 109 109 109 109 108 108 108 108 108 108 108 108 108 108 108 108 108 107 107 107 107 107 107 107 107 107 107 107 107 107 107 107 107 107 107 107 107 107 107 107 107 107 107 106 106 106 106 106 106 106 106 106 106 106 106 106 106 106 106 106 106 106 106 106 106 106 106 106 106 106 106 106 106 106 106 105 105 105 105 105 105 105 105 105 105 105 105 105 105 105 105 105 105 105 105 105 105 105 105 105 105 105 105 105 105 105 105 105 105 105 105 105 105 105 105 105 105 105 105 105 105 105 105 105 105 105 105 105 105 105 105 105 105 105 105 105 105 105 105 105 105 105 105 105 105 105 105 105 105 105 105 105 105 105 105 105 105 105 105 105 105 105 105 105 105 105 105 105 105 106 106 106 106 106 106 106 106 106 106 106 106 106 106 106 106 106 106 106 106 106 106 106 106 106 106 106 106 106 106 106 107 107 106 106 106 106 106 106 106 106 106 106 106 106 106 106 107 106 106 107 107 107 107 106 106 106 106 107 107 107 107 107 107 107 107 107 108 108 108 108 108 108 108 108 108 108 108 108 108 109 109 109 109 109 109 109 109 108 109 110 109 110 110 110 110 111 111 110 110 111 111 111 111 112 112 111 111 111 112 112 112 112 112 113 113 114 113 114 114 113 113 114 114 114 115 115 114 114 115 115 116 116 115 115 116 116 116 117 116 116 116 116 117 117 118 117 118 117 117 118 118 119 119 118 118 119 119 119 119 119 119 120 120 120 120 120 120 120 120 121 121 121 121 121 121 121 121 121 121 122 122 122 122 122 122 122 122 123 123 123 122 123 122 123 124 124 124 124 124 124 124 124 125 125 125 126 125 125 125 126 126 126 126 126 126 126 127 127 127 127 127 127 128 128 128 128 128 128 128 129 129 129 129 129 129 129 130 130 130
115 115 115 114 114 114 114 114 114 114 114 114 114 114 114 113 113 113 113 113 113 113 113 113 113 113 113 112 112 112 112 112 112 112 112 112 112 111 111 111 111 111 111 111 111 111 111 111 111 111 111 110 110 110 110 110 110 110 110 110 110 110 110 110 110 110 110 109 109 109 109 109 109 109 109 109 109 109 108 108 108 108 108 108 108 108 108 108 108 108 108 107 107 107 107 107 107 107 107 107 107 107 107 107 107 107 107 107 107 107 107 107 107 107 107 107 107 107 107 107 106 106 106 106 106 106 106 106 106 106 106 106 106 106 106 106 106 106 106 106 106 106 106 106 106 106 106 106 106 106 106 106 106 105 105 105 105 105 105 105 105 105 105 105 105 105 105 105 105 105 105 105 105 105 105 105 105 105 105 105 105 105 105 105 105 105 105 105 105 105 105 105 105 105 105 105 105 105 105 105 105 105 105 105 105 105 105 105 105 105 105 105 105 105 105 105 105 105 105 105 105 105 105 105 105 105 105 105 105 105 105 105 105 106 106 106 106 106 106 106 106 106 106 106 106 106 106 106 106 106 106 106 106 106 106 106 106 106 106 106 106 106 106 106 106 106 106 106 106 106 106 107 106 106 106 106 106 106 106 106 107 107 107 107 107 107 107 107 107 107 107 107 106 106 107 107 107 107 107 107 107 107 107 107 108 108 108 108 108 109 109 108 108 108 108 108 108 109 109 109 109 109 109 110 109 109 110 110 110 110 110 110 110 110 110 110 111 111 111 111 111 112 111 111 111 111 112 112 112 113 112 113 113 112 113 113 113 113 113 113 114 114 114 114 114 114 115 115 115 115 115 115 115 116 116 116 117 116 116 116 117 117 117 118 117 117 117 118 118 118 119 118 118 119 119 118 119 119 119 119 119 120 120 120 120 120 120 120 121 121 121 121 121 121 121 121 121 122 122 122 122 122 122 122 122 122 123 123 123 123 123 123 124 124 124 124 124 124 124 124 124 125 125 125 125 125 125 126 126 126 126 126 126 126 126 127 127 127 127 127 127 127 128 128 128 128 128 128 129 129 129 129 129 129 129 130 130 130 130 130
115 115 115 115 115 115 114 114 114 114 114 114 114 114 114 114 114 114 114 113 113 113 113 113 113 113 113 113 112 112 112 112 112 112 112 112 112 112 112 112 111 111 111 111 111 111 111 111 111 111 111 111 111 111 111 110 110 110 110 110 110 110 110 110 110 110 110 110 110 110 109 109 109 109 109 109 109 109 109 109 109 108 108 108 108 108 108 108 108 108 107 108 108 108 108 107 107 107 107 107 107 107 107 107 107 107 107 107 107 107 107 107 107 107 107 107 107 107 107 107 107 107 107 107 107 107 107 107 107 107 106 106 106 106 106 106 106 106 106 106 106 106 106 106 106 106 106 106 106 106 106 106 106 106 106 106 106 106 106 106 106 106 106 106 106 105 105 105 106 106 106 106 106 106 106 106 106 106 105 105 105 105 105 105 105 105 105 105 105 105 105 105 105 105 105 105 105 105 105 105 105 105 105 105 105 105 105 105 105 105 105 105 105 105 106 106 106 106 106 106 106 106 106 106 106 106 106 106 106 106 106 106 106 106 106 106 106 106 106 106 106 106 106 106 106 106 106 106 106 106 106 106 106 106 106 106 106 106 106 106 106 106 107 107 107 107 107 107 107 107 107 107 107 107 107 107 107 107 107 107 107 107 106 107 107 107 107 107 106 107 107 107 107 107 108 107 107 107 108 107 107 107 107 108 108 108 108 108 108 108 108 108 108 109 109 109 109 108 109 109 109 109 109 110 110 109 110 110 110 110 110 110 111 111 111 111 110 111 111 111 112 112 112 112 112 112 112 113 113 113 112 113 113 114 114 113 114 114 114 114 115 114 114 115 115 115 115 115 115 115 115 116 116 116 116 116 117 117 117 117 117 117 117 117 117 118 118 118 118 118 119 119 119 119 119 119 119 119 119 120 120 120 120 120 121 121 121 121 121 121 121 121 121 121 121 122 122 122 122 122 122 122 122 123 123 123 123 123 123 123 124 124 124 124 124 124 124 125 125 125 125 125 125 125 125 126 126 126 126 126 126 126 127 127 127 127 127 127 128 128 128 128 128 128 128 128 129 129 129 129 129 129 129 130 130 130 130 130 130 130
115 115 115 115 115 115 115 115 115 115 114 114 114 114 114 114 114 114 114 114 114 113 113 113 113 113 113 113 113 113 113 112 112 112 112 112 112 112 112 112 112 112 111 111 111 111 111 111 111 111 111 111 111 111 111 111 111 110 110 110 110 110 110 110 110 110 110 110 110 110 110 110 110 109 109 109 109 109 109 109 109 110 109 109 108 108 108 108 108 108 108 108 108 108 108 108 108 108 108 107 107 107 107 107 107 107 107 107 107 107 107 107 107 107 107 107 107 107 107 107 107 107 107 107 107 107 107 107 107 107 107 107 107 107 107 107 107 107 107 106 106 106 106 106 106 106 106 106 106 106 106 106 106 106 106 106 106 106 106 106 106 106 106 106 106 106 106 106 106 106 106 106 106 106 106 106 106 106 106 106 106 106 106 106 106 106 106 106 106 106 106 106 106 106 106 106 106 106 106 106 106 106 106 106 106 106 106 106 106 106 106 106 106 106 106 106 106 106 106 106 106 106 106 106 106 106 106 106 106 106 106 106 106 106 106 106 105 105 106 105 106 106 106 106 106 106 106 106 106 106 106 106 106 106 106 106 107 107 107 107 107 107 107 107 107 107 107 107 107 107 107 107 107 107 107 107 107 107 107 107 107 107 107 107 107 108 106 107 107 107 107 107 107 107 107 107 107 107 108 107 107 108 108 108 108 108 108 108 108 108 108 109 109 109 109 109 109 109 109 109 110 110 110 110 109 110 110 110 110 110 111 111 111 111 111 111 111 111 112 112 112 111 112 112 113 113 113 113 112 113 113 113 114 113 114 114 114 114 114 114 114 114 115 115 115 115 115 115 116 117 117 117 116 117 116 116 117 117 117 117 117 117 117 118 118 118 118 119 119 119 119 119 119 119 119 120 120 120 121 120 120 120 120 121 120 121 121 121 122 121 121 121 121 122 122 122 122 122 122 122 122 123 124 123 123 123 123 123 124 124 124 124 124 124 124 124 125 125 125 125 125 125 125 126 126 126 126 126 126 126 127 128 127 127 127 127 128 128 128 128 128 128 128 128 129 129 129 129 129 129 130 130 130 130 130 130 130 131 131 131
116 115 115 115 115 115 115 115 115 115 115 115 114 114 114 114 114 114 114 114 114 114 113 113 113 113 113 113 113 113 113 113 113 113 112 112 112 112 112 112 112 112 112 112 112 112 111 111 111 111 111 111 111 111 111 111 111 111 111 111 111 110 110 110 110 110 110 110 110 110 110 110 110 110 110 109 109 109 109 109 109 109 109 109 109 109 109 109 108 108 108 108 108 108 108 108 108 108 108 108 108 108 108 108 108 108 107 107 107 107 107 107 107 107 107 107 107 107 107 107 107 107 107 107 107 107 107 107 107 107 107 107 107 107 107 107 107 107 107 107 107 107 107 107 107 107 107 107 107 107 107 107 107 107 106 106 106 106 106 106 106 106 106 106 106 106 106 106 106 106 106 106 106 106 106 106 106 106 106 106 106 106 106 106 106 106 106 106 106 106 106 106 106 106 106 106 106 106 106 106 106 106 106 106 106 106 106 106 106 106 106 106 106 106 106 106 106 106 106 106 106 106 106 106 106 106 106 106 106 106 106 106 106 106 106 106 106 106 106 106 106 106 106 106 106 107 107 107 107 107 107 107 107 107 107 107 107 107 107 107 107 107 107 107 107 107 107 107 107 107 107 107 107 107 107 107 107 107 107 107 107 107 107 107 107 107 107 107 107 107 107 107 108 108 108 108 108 108 108 108 108 109 108 108 108 108 108 108 108 108 109 110 109 109 109 109 109 109 110 110 110 110 110 110 110 110 110 110 111 111 111 111 111 111 111 111 112 112 112 112 112 112 113 113 114 113 113 113 113 113 113 114 114 114 114 114 114 114 115 115 115 115 115 115 115 115 116 116 116 116 116 116 117 117 117 117 117 117 117 117 118 118 118 118 118 118 119 119 119 119 119 119 119 119 120 120 120 121 120 120 120 121 121 121 121 121 122 121 121 121 122 122 122 122 122 122 122 122 123 123 123 123 123 123 123 123 124 124 124 124 124 124 125 125 125 125 125 125 125 125 126 126 126 126 126 126 126 126 127 127 127 127 127 127 128 128 128 128 128 128 129 129 129 129 129 129 129 130 130 130 130 130 130 130 130 131 131 131 131 132
116 116 116 115 115 115 115 115 115 115 115 115 115 115 115 114 114 114 114 114 114 114 114 114 114 113 113 113 112 113 113 113 113 114 114 113 112 112 113 112 112 112 112 112 112 112 112 112 112 111 111 111 111 111 111 111 111 111 111 111 111 111 111 111 111 110 110 110 110 110 110 110 110 110 110 110 110 110 110 109 109 109 109 109 109 109 109 109 109 109 109 108 108 108 108 108 108 108 108 108 108 108 108 108 108 108 108 108 108 107 108 108 107 107 107 107 107 107 107 107 107 107 107 107 107 107 107 107 107 107 107 107 107 107 107 107 107 107 107 107 107 107 107 107 107 107 107 107 107 107 107 107 107 107 107 107 107 107 107 107 107 107 107 107 107 107 107 107 106 106 106 106 106 106 106 106 106 106 106 106 106 106 106 106 106 106 106 106 106 106 106 106 106 106 106 106 106 106 106 106 106 106 106 106 106 106 106 106 106 106 106 106 106 106 106 106 106 106 106 106 106 106 106 106 106 106 106 106 106 106 106 106 106 106 106 106 107 107 107 107 107 107 107 107 107 107 107 107 107 107 107 107 107 107 107 107 107 107 107 107 107 107 107 107 107 107 107 107 107 107 107 107 107 107 107 107 107 108 108 108 108 107 107 107 108 108 107 108 108 107 108 108 108 108 108 108 108 108 108 108 108 108 108 108 108 108 108 109 109 109 109 109 109 109 109 109 110 111 110 110 110 110 110 110 110 111 111 111 111 111 111 111 112 111 112 113 112 112 112 112 113 113 112 113 113 113 113 113 114 114 114 114 114 114 114 115 115 115 115 115 115 115 116 116 116 116 116 116 116 117 117 117 117 117 117 117 117 118 118 118 118 118 118 118 119 119 119 119 119 119 119 120 121 120 120 120 121 121 121 121 121 121 121 121 121 121 122 122 122 122 122 122 122 122 122 122 123 123 123 123 123 123 123 124 124 124 124 124 124 125 125 125 125 125 125 125 125 125 126 126 126 126 126 126 127 127 128 127 127 127 127 127 128 128 128 128 128 128 128 129 129 129 129 129 129 130 130 130 130 130 130 130 130 131 131 131 131 131 132 132
116 116 116 116 117 116 116 115 115 115 116 115 115 115 115 115 115 114 114 114 114 114 114 114 115 114 114 114 114 113 113 113 113 113 113 113 113 113 113 113 112 112 112 112 112 112 112 112 112 112 112 112 111 112 112 111 111 111 111 111 111 111 111 111 111 111 111 111 111 111 110 110 110 110 110 110 110 111 110 110 110 110 110 110 109 109 109 109 109 109 109 109 109 109 109 108 108 108 108 108 108 108 108 108 108 108 108 108 108 108 108 108 108 108 108 108 108 108 108 108 109 108 107 107 107 107 107 107 107 107 107 107 107 107 107 107 107 107 107 107 107 107 107 107 107 107 107 107 107 107 107 107 107 107 107 107 107 107 107 107 107 107 107 107 107 107 107 107 107 107 107 107 107 107 107 107 107 107 107 107 107 107 107 107 107 107 107 107 107 107 107 107 107 107 107 107 107 107 107 107 107 107 107 107 107 107 107 107 107 107 107 107 107 107 107 107 107 107 107 107 107 107 107 107 107 107 107 107 107 107 107 107 107 107 107 107 107 107 107 107 107 107 107 107 107 107 107 107 107 107 107 107 107 107 107 107 107 107 107 107 107 107 107 107 107 107 107 107 107 107 107 107 108 108 108 108 108 108 108 108 108 108 108 108 108 108 108 108 108 108 108 108 108 108 108 109 109 109 109 109 109 109 109 109 109 109 109 109 109 109 109 109 109 110 110 110 110 110 110 110 111 110 111 111 111 111 111 111 111 112 112 112 112 112 112 112 112 113 113 113 113 113 113 114 114 114 114 114 114 114 115 115 115 116 115 115 115 115 116 116 116 116 116 116 116 117 117 117 117 117 117 117 117 118 118 118 118 118 118 118 119 119 119 119 119 119 119 119 120 120 120 120 120 120 120 120 120 121 121 121 121 121 121 121 122 122 122 122 123 122 122 122 122 123 123 123 123 123 123 124 124 124 124 124 124 124 124 125 125 125 125 125 125 125 126 126 126 126 126 126 126 126 127 127 127 127 127 127 127 128 128 128 128 128 128 128 128 129 129 129 129 129 129 130 130 130 130 130 130 130 131 131 131 131 131 132 132 132 132 132
116 116 116 116 116 116 116 116 116 116 115 115 115 115 115 115 115 115 115 114 114 114 114 114 114 114 114 114 114 114 114 113 113 113 113 113 113 113 113 113 113 113 112 112 112 112 112 112 112 112 112 112 112 112 112 111 111 110 111 111 111 111 111 111 111 111 111 111 111 111 111 111 111 111 110 110 110 110 110 110 110 110 110 110 110 110 110 109 109 109 109 109 109 109 109 109 109 109 109 108 108 108 108 108 108 108 108 108 108 108 108 108 108 108 108 108 108 108 108 108 108 108 108 108 108 108 108 107 107 108 108 108 107 107 107 107 107 107 107 107 107 107 107 107 107 107 107 107 107 107 107 107 107 107 107 107 107 107 107 107 107 107 107 107 107 107 107 107 107 107 107 107 107 107 107 107 107 107 107 107 107 107 107 107 107 107 107 107 107 107 107 107 107 107 107 107 107 107 107 107 107 107 107 107 107 107 107 107 107 107 107 107 107 107 107 107 107 107 107 107 107 107 107 107 107 107 107 107 107 107 107 107 107 107 107 107 107 107 107 107 107 107 107 107 107 107 107 107 107 107 107 107 107 107 107 107 107 107 107 107 107 107 107 107 107 107 108 108 108 108 108 108 108 108 108 108 108 108 108 108 108 108 108 107 108 109 108 108 108 108 108 108 109 109 109 109 109 109 108 109 109 109 109 109 110 109 110 110 110 110 110 110 110 110 110 110 110 110 111 111 111 111 111 111 112 112 111 112 112 112 112 112 112 113 113 113 113 113 113 113 113 114 114 114 114 114 114 115 115 115 115 115 115 115 115 116 116 116 116 116 116 116 116 117 117 117 117 117 117 118 118 118 118 118 118 118 118 119 119 119 119 119 119 119 119 119 120 120 119 120 120 120 119 120 120 121 121 121 121 121 121 121 122 122 122 122 122 122 122 122 123 123 123 123 123 123 123 124 124 124 124 124 124 124 124 125 125 125 125 125 125 125 125 126 126 126 126 126 126 127 127 127 127 127 127 127 128 128 128 128 128 128 128 128 129 129 129 129 128 129 130 130 130 130 130 130 130 131 132 131 131 130 131 132 132 132 132 132 132 132
117 116 116 116 116 116 116 116 116 116 116 115 115 115 115 115 115 115 115 115 115 115 115 115 114 114 114 114 114 114 114 114 114 114 113 113 113 113 113 113 113 113 113 113 113 113 112 112 112 112 112 112 112 112 112 112 112 112 112 112 112 111 111 111 111 111 111 111 111 111 111 111 111 111 111 111 111 111 111 110 110 110 110 110 110 110 110 110 110 110 110 110 109 109 109 109 109 109 109 109 109 109 109 109 109 109 109 109 108 108 108 108 108 108 108 108 108 108 108 108 108 108 108 108 108 108 108 108 108 108 108 108 108 108 108 108 108 108 108 108 108 108 108 108 108 108 108 108 108 108 108 108 108 108 107 107 107 107 107 107 107 107 107 107 107 107 107 107 107 107 107 107 107 107 107 107 107 107 107 107 107 107 107 107 107 107 107 107 107 107 107 107 107 107 107 107 107 107 107 107 107 107 107 107 107 107 107 107 107 107 107 107 107 107 107 107 107 107 107 107 107 107 107 107 107 107 107 107 107 107 107 107 107 107 107 107 107 107 107 107 107 107 107 107 107 107 107 107 107 107 107 107 107 107 107 107 107 107 108 108 108 107 108 108 108 108 108 108 108 108 108 108 108 108 108 108 108 108 109 109 109 109 109 108 109 109 108 109 109 109 109 109 109 109 108 110 109 109 109 109 109 110 110 110 111 110 110 110 110 110 110 112 111 112 111 111 111 111 112 111 112 112 113 113 112 112 112 112 112 113 113 113 113 113 113 113 114 115 114 114 114 114 114 115 116 116 115 115 115 115 115 116 117 116 116 116 116 116 116 117 118 117 117 117 117 117 118 118 118 118 118 118 118 118 119 119 119 119 119 119 119 119 120 120 120 120 120 120 120 120 120 121 121 121 121 121 121 121 122 123 122 122 122 122 122 122 122 123 123 123 123 123 123 123 123 124 124 124 124 124 124 124 125 125 125 125 125 125 125 125 126 126 126 126 126 126 126 127 127 127 127 127 127 128 128 128 128 128 128 128 128 128 129 129 129 129 129 129 130 130 130 130 130 130 131 131 132 131 131 131 132 132 132 132 132 132 132 132 132 133
117 117 117 116 116 116 116 116 116 116 116 116 116 115 115 115 115 115 115 115 115 115 115 115 115 115 114 114 114 114 114 114 114 114 114 114 114 113 113 113 113 113 113 112 113 113 114 113 112 112 112 112 112 112 112 112 112 112 112 112 112 112 112 112 112 111 111 111 111 111 111 111 111 111 111 111 111 111 111 111 111 111 110 110 110 110 110 110 110 110 111 111 110 110 110 110 109 109 109 109 109 109 109 109 109 109 109 109 109 109 109 109 109 109 108 108 108 108 108 108 108 108 108 108 108 108 108 108 108 108 108 108 108 108 108 108 108 108 108 108 108 108 108 108 108 108 108 108 108 108 108 108 108 108 108 108 108 108 108 108 108 108 108 108 108 108 108 108 108 108 108 108 107 108 108 107 108 108 107 107 107 107 107 107 107 107 107 107 107 107 106 107 107 107 107 107 107 107 107 107 107 107 107 107 107 107 107 107 107 107 107 107 107 107 107 107 107 107 107 107 107 107 107 107 107 107 107 107 107 107 107 107 107 107 107 107 107 107 107 107 107 107 107 107 107 107 107 107 107 107 107 107 107 107 108 108 108 108 108 108 108 108 108 108 108 108 108 108 108 108 108 108 108 108 108 109 109 109 109 109 109 108 109 109 109 109 109 109 109 110 110 110 110 109 110 109 109 110 110 111 111 111 110 110 110 110 111 110 111 112 112 112 111 111 111 112 112 112 112 113 112 112 112 112 112 113 114 114 114 114 113 113 114 115 115 115 114 114 114 115 115 115 116 116 115 115 115 115 116 117 116 116 116 116 116 116 118 118 117 118 117 117 117 118 118 118 118 118 118 118 118 119 119 119 118 119 119 119 119 119 120 120 120 120 120 120 120 120 120 121 121 121 121 121 121 121 121 122 122 122 122 122 122 122 122 123 123 123 123 123 123 124 124 124 124 124 124 124 124 124 125 125 124 125 125 125 125 125 126 126 126 126 126 126 126 127 127 127 127 127 127 128 128 128 128 128 128 128 128 129 129 129 129 129 129 129 130 130 130 130 130 130 131 131 131 131 131 131 132 132 132 132 132 132 132 132 133 133 133 133
117 117 117 117 117 117 116 116 116 116 116 116 116 116 116 116 116 116 116 115 115 115 115 116 116 115 115 115 115 114 114 114 114 114 114 114 114 114 114 114 114 113 113 113 113 113 113 113 113 113 113 113 113 112 112 112 112 112 112 112 112 112 112 112 112 112 112 112 112 112 112 112 111 111 111 111 111 111 111 111 111 111 111 111 111 111 111 110 110 110 110 110 110 110 111 110 111 110 110 110 110 109 109 109 109 109 109 109 109 109 109 109 109 109 109 108 109 109 109 109 109 109 109 109 109 109 109 108 109 108 108 108 108 108 108 108 108 108 108 108 108 108 108 108 108 108 108 108 108 108 108 108 108 108 108 108 108 108 108 108 108 108 108 108 108 108 108 108 108 108 108 108 108 108 108 108 108 108 108 108 108 108 108 108 108 108 108 108 108 108 108 108 108 108 108 108 108 107 107 107 107 107 107 107 107 107 107 107 107 107 107 107 107 107 107 107 107 107 107 107 107 107 107 107 107 107 107 107 107 107 107 107 107 107 107 107 107 107 107 107 107 107 107 107 108 108 108 108 108 108 108 108 108 108 108 108 108 108 108 108 108 108 108 108 108 108 108 109 109 109 109 109 109 109 109 109 109 109 109 109 109 109 109 110 110 110 110 110 110 110 110 110 110 110 110 111 110 110 110 111 111 111 111 111 111 112 112 112 111 112 112 112 112 113 113 113 113 112 113 112 113 113 113 114 113 114 114 114 115 114 115 114 115 115 115 115 115 116 115 115 115 115 116 116 117 117 117 116 116 116 117 116 117 118 118 117 117 117 118 117 118 118 118 118 118 118 118 118 119 119 119 119 119 119 119 119 120 120 120 120 120 120 120 120 120 121 121 121 121 121 121 121 121 121 122 122 123 123 122 122 122 122 123 124 123 123 123 123 124 124 124 124 124 124 124 124 124 125 125 125 125 125 125 125 126 126 126 126 126 126 126 127 127 127 127 127 127 127 127 128 128 128 128 128 128 129 129 129 129 129 129 129 129 129 130 130 130 130 130 130 131 131 131 131 131 131 132 132 132 132 132 132 132 133 133 133 133 133 133 134
116 117 117 117 117 117 117 117 117 116 116 116 116 116 116 116 116 116 116 116 115 115 115 115 115 115 115 115 115 115 115 114 114 114 114 114 114 114 114 114 114 114 114 114 114 113 113 113 113 113 113 113 113 113 113 113 112 113 112 112 112 112 112 112 112 112 112 112 112 112 112 112 112 112 112 111 111 111 111 111 111 111 111 111 111 111 111 111 111 111 111 111 111 110 110 110 110 110 110 110 110 110 110 110 110 110 110 110 109 109 109 109 109 109 109 109 109 109 109 109 109 109 109 109 109 109 109 109 109 109 109 109 109 109 109 109 109 109 109 109 109 109 109 109 108 108 108 108 108 108 108 108 108 108 108 108 108 108 108 108 108 108 108 108 108 108 108 108 108 108 108 108 108 108 108 108 108 108 108 108 108 108 108 108 108 108 108 108 108 108 108 108 108 108 108 108 108 108 108 108 108 108 108 108 108 108 108 108 108 108 108 108 108 108 108 108 108 108 108 108 108 108 108 108 108 108 108 108 108 108 108 108 108 108 108 108 108 108 108 108 108 108 108 108 108 108 108 108 108 108 108 108 108 108 108 108 108 108 108 108 108 108 109 109 109 109 109 109 109 109 109 109 109 109 109 109 109 109 109 109 110 110 110 110 110 110 110 110 110 110 110 111 111 111 111 111 111 111 111 111 111 111 112 112 112 112 112 112 112 112 112 113 113 113 113 113 113 114 114 114 114 114 114 114 114 115 115 115 115 115 115 115 116 116 116 116 115 116 116 116 117 117 117 116 116 116 116 116 118 118 118 118 118 117 117 117 117 118 118 119 118 118 118 118 118 118 119 119 119 119 119 119 119 119 120 120 120 120 120 120 120 120 120 120 121 121 121 121 121 121 121 121 122 122 122 122 122 122 122 123 123 123 123 123 123 123 124 125 124 124 124 124 124 124 125 125 125 125 125 125 125 125 126 126 126 126 126 126 126 127 127 127 127 127 127 128 128 128 128 128 128 128 128 129 129 129 129 129 129 129 129 129 130 130 130 130 130 130 131 131 131 131 131 131 132 132 132 132 132 132 133 133 133 133 133 133 133 134 134 134
118 118 117 117 117 117 117 117 117 117 117 117 117 116 116 116 116 116 116 116 116 116 116 116 116 115 115 115 115 115 115 115 115 115 115 115 114 114 114 114 114 114 114 114 114 114 115 114 114 113 113 113 113 113 113 113 113 113 113 113 113 113 112 112 112 112 112 112 112 112 112 112 112 112 112 112 112 112 112 112 112 112 112 111 111 111 111 111 111 111 111 111 111 111 111 111 111 111 111 110 110 110 110 110 110 110 110 110 110 110 110 110 110 110 109 109 109 109 109 109 109 109 109 109 109 109 109 109 109 109 109 109 109 109 109 109 109 109 109 109 109 109 109 109 109 109 109 109 109 109 109 109 109 109 109 109 109 109 109 109 109 109 109 109 109 109 109 109 108 108 108 108 108 108 108 108 108 108 108 108 108 108 108 108 108 108 108 108 108 108 108 108 108 108 108 108 108 108 108 108 108 108 108 108 108 108 108 108 108 108 108 108 108 108 108 108 108 108 108 108 108 108 108 108 108 108 108 108 108 108 108 108 108 108 108 108 108 108 108 108 108 108 108 108 108 108 108 108 108 108 108 108 108 109 108 108 109 109 109 109 109 109 109 109 109 109 109 109 109 109 109 109 109 110 110 110 110 110 110 110 110 110 110 110 110 110 111 110 111 111 111 111 111 111 111 111 112 112 112 112 111 112 112 112 113 113 113 113 113 113 113 113 114 114 114 114 114 114 114 115 115 115 115 115 115 115 115 116 116 116 116 116 116 116 116 117 116 117 116 116 117 117 116 116 117 118 118 118 117 118 118 118 117 118 119 119 119 119 119 119 118 119 119 119 119 119 119 119 119 119 120 120 120 120 120 120 120 120 120 120 121 121 121 121 121 121 121 121 122 122 122 122 122 122 122 122 123 123 123 123 123 123 123 123 124 124 124 124 125 124 124 124 125 125 125 125 125 125 125 126 126 126 126 126 126 127 127 127 127 127 127 127 127 128 128 128 128 128 128 128 129 129 129 129 129 129 129 129 130 130 130 130 130 130 130 131 131 131 131 131 131 132 132 132 132 132 132 133 133 133 133 133 133 133 135 134 134 134 134 135
118 118 118 118 117 117 117 117 117 117 117 117 117 117 117 116 116 116 116 116 116 116 116 116 116 116 116 116 115 115 115 115 115 115 116 115 115 115 115 115 114 114 114 114 114 114 114 114 114 114 114 114 114 114 113 113 113 113 113 113 113 113 113 113 113 112 112 112 112 112 112 112 112 112 112 112 112 112 112 112 112 112 112 112 112 112 112 112 111 111 111 111 111 111 112 111 111 111 111 112 111 111 111 111 111 110 110 110 110 110 110 110 110 110 110 110 110 110 110 110 109 109 109 109 109 109 109 109 109 109 109 109 109 109 109 109 109 109 109 109 109 109 109 109 109 109 109 109 109 109 109 109 109 109 109 109 109 109 109 109 109 109 109 109 109 109 109 109 109 109 109 109 109 109 109 109 109 109 109 109 109 109 109 109 109 108 108 108 108 108 108 108 108 108 108 108 108 108 108 108 108 108 108 108 108 108 108 108 108 108 108 108 108 108 108 108 108 108 108 108 108 108 108 108 108 108 108 108 108 108 108 108 108 108 108 108 108 108 108 108 108 108 108 108 108 108 108 108 108 108 109 109 109 109 109 109 109 109 109 109 109 109 109 109 109 109 109 109 109 110 110 110 110 110 110 110 110 110 110 110 110 111 111 111 111 111 111 111 111 111 111 111 111 112 112 112 112 112 112 112 112 112 113 113 113 113 113 113 114 114 114 114 114 114 114 115 115 115 115 115 115 115 115 115 116 116 116 116 116 116 116 116 116 117 117 117 117 117 117 117 117 116 118 118 118 118 118 118 117 117 118 119 119 119 119 119 119 119 118 119 119 120 120 120 120 119 119 119 120 120 120 120 120 120 120 120 120 121 121 121 121 121 121 121 121 122 122 122 122 122 122 122 122 122 123 123 123 123 123 123 124 125 124 124 124 124 125 124 125 125 125 125 125 125 125 125 126 126 126 126 126 126 126 127 127 127 127 127 127 127 127 128 128 128 128 128 128 128 129 129 129 129 129 129 130 130 130 130 130 130 130 130 130 131 131 131 131 131 131 132 132 132 132 132 132 133 133 133 133 133 133 134 135 134 134 134 134 135 135 135
118 118 118 118 118 118 118 118 117 117 117 117 117 117 117 117 117 117 117 116 116 116 116 116 116 116 116 116 116 116 116 116 116 115 115 115 115 115 115 115 115 115 115 115 115 115 114 114 114 114 114 114 114 114 114 114 114 114 114 113 113 113 113 113 113 113 113 113 113 113 113 113 113 113 112 112 112 112 112 112 112 112 112 112 112 112 112 112 112 112 112 112 112 112 112 111 111 111 111 111 111 111 111 111 111 111 111 111 111 111 111 111 111 110 110 110 110 110 110 109 110 110 110 109 110 110 110 110 110 110 110 109 109 109 109 109 109 109 109 109 109 109 109 109 109 109 109 109 109 109 109 109 109 109 109 109 109 109 109 109 109 109 109 109 109 109 109 109 109 109 109 109 109 109 109 109 109 109 109 109 109 109 109 109 109 109 109 109 109 109 109 109 109 109 109 109 109 108 108 108 108 108 108 108 108 108 108 108 108 108 108 108 108 108 108 108 108 108 108 108 108 108 108 108 108 108 108 108 108 108 108 108 108 108 108 108 108 108 108 108 108 109 109 109 109 109 109 109 109 109 109 109 109 109 109 109 109 109 109 109 109 109 110 110 109 110 110 110 109 110 110 110 110 110 110 111 111 111 111 111 111 111 111 111 111 112 112 112 111 112 112 112 112 112 112 112 113 113 113 113 113 113 113 114 114 114 114 114 114 114 114 114 115 115 115 115 115 115 115 115 116 116 116 116 116 116 116 116 117 117 117 117 117 117 117 117 117 118 118 118 118 118 118 118 118 117 118 119 119 119 119 119 119 118 119 119 120 120 120 120 119 119 119 119 120 120 121 121 121 120 120 120 120 120 121 121 121 121 121 121 121 121 122 122 122 122 122 122 122 122 123 123 123 123 123 123 123 123 124 124 124 124 124 124 124 124 125 125 125 125 125 125 125 126 126 126 126 126 126 126 127 127 127 127 127 127 127 128 128 128 128 128 128 128 128 129 129 129 129 129 129 130 130 130 130 130 130 130 130 130 131 131 131 131 131 131 132 132 132 132 132 132 132 133 133 133 133 133 133 134 134 134 134 135 135 135 135 135 135 135
119 119 118 118 118 118 118 118 118 118 118 118 117 117 117 117 117 117 117 117 117 117 116 116 116 116 116 116 116 116 116 116 116 116 116 116 115 115 115 115 115 115 115 115 115 115 115 115 114 114 114 114 114 114 114 114 114 114 114 114 114 114 114 113 113 113 113 113 113 113 113 113 113 113 113 113 113 112 112 112 112 112 112 112 112 112 112 112 112 112 112 112 112 112 112 112 112 112 112 112 111 111 111 111 111 111 111 111 111 111 111 111 111 111 111 111 111 110 110 110 110 110 110 110 110 109 110 110 110 110 110 110 110 110 110 110 110 110 110 109 110 109 109 110 109 109 109 109 109 109 109 109 109 109 109 109 109 109 109 109 109 109 109 109 109 109 109 109 109 109 109 109 109 109 109 109 109 109 109 109 109 109 109 109 109 109 109 109 109 109 109 109 109 109 109 109 109 109 109 109 109 109 109 109 109 109 109 109 109 109 109 109 109 109 109 109 109 109 109 109 109 109 109 109 109 109 109 109 109 109 109 109 109 109 109 109 109 109 109 109 109 109 109 109 109 109 109 109 109 109 109 109 109 109 109 109 110 110 110 110 110 110 110 110 110 110 110 110 110 110 111 111 111 111 111 111 111 111 111 111 111 111 112 112 112 112 112 112 112 112 112 112 112 113 113 113 113 113 113 114 114 114 114 114 114 114 114 114 115 115 115 115 115 115 115 116 116 116 116 116 116 116 116 116 117 117 117 117 117 117 117 117 117 117 118 118 118 118 118 118 118 118 118 118 119 119 119 119 119 119 118 119 120 120 120 120 120 120 119 119 119 120 120 121 121 121 121 121 120 120 120 120 121 121 121 121 121 121 122 122 122 122 122 122 122 122 122 122 123 123 123 123 123 123 123 123 124 124 124 124 124 124 124 124 125 125 125 125 125 125 125 126 126 126 126 126 126 127 127 127 127 127 127 127 127 128 128 128 128 128 128 129 129 129 129 129 129 129 129 130 130 130 130 130 130 130 130 131 131 131 131 131 131 132 132 132 132 132 132 132 132 133 133 133 133 133 133 134 134 134 134 135 135 135 135 135 135 135 135 136
119 119 119 119 119 118 118 118 118 118 118 118 118 118 118 118 117 117 117 117 117 117 117 117 117 117 117 116 116 116 116 116 116 116 116 116 116 116 116 116 116 115 115 115 115 115 115 115 115 115 115 115 115 114 115 114 114 114 114 114 114 114 114 114 114 114 114 114 114 113 113 113 113 113 113 113 113 113 113 113 113 113 113 113 113 112 112 112 112 112 112 112 112 112 112 112 112 112 112 112 112 112 112 112 112 112 112 111 111 111 111 111 111 111 111 111 111 111 111 111 111 111 111 111 110 110 110 110 110 110 110 110 110 110 110 110 110 110 110 110 110 110 110 110 110 110 110 110 110 110 110 110 110 110 110 110 109 109 109 109 109 109 109 109 109 109 109 109 109 109 109 109 109 109 109 109 109 109 109 109 109 109 109 109 109 109 109 109 109 109 109 109 109 109 109 109 109 109 109 109 109 109 109 109 109 109 109 109 109 109 109 109 109 109 109 109 109 109 109 109 109 109 109 109 109 109 109 109 109 109 109 109 109 109 109 109 109 109 109 109 108 109 109 109 109 109 109 109 110 109 110 110 110 110 110 110 110 110 110 110 110 110 110 110 111 111 111 111 111 111 111 111 111 111 111 111 111 111 112 112 112 112 112 112 113 113 113 113 113 113 113 113 113 113 114 114 114 114 114 114 114 114 115 114 115 115 115 115 115 115 115 116 116 116 116 116 116 116 116 116 117 117 117 117 117 117 117 117 117 117 118 118 118 118 118 118 118 118 118 118 119 119 119 119 119 119 119 119 118 120 120 120 119 120 120 120 119 119 120 120 120 121 121 121 121 120 120 120 121 121 121 121 121 121 121 122 122 122 122 122 122 122 122 122 122 123 123 123 123 123 123 123 124 124 124 124 124 124 124 124 124 125 125 125 125 125 125 125 127 126 126 126 126 126 126 127 127 127 127 127 127 128 128 128 128 128 128 128 129 129 129 129 129 129 130 130 130 130 130 130 130 130 130 131 131 131 131 131 131 131 131 131 132 132 132 132 132 132 132 133 133 133 133 133 134 134 134 134 134 135 135 135 135 135 135 136 136 136 136 136
119 119 119 119 119 119 119 119 119 118 118 118 118 118 118 118 118 118 118 117 117 117 117 117 117 117 117 117 117 118 117 116 116 116 116 116 116 116 116 116 116 116 116 116 116 115 115 115 115 115 115 115 115 115 115 115 115 115 115 115 114 114 114 114 114 114 114 114 114 114 114 114 114 114 114 113 113 113 113 113 113 113 113 113 113 113 113 113 114 113 113 113 113 112 112 112 111 112 112 112 112 112 112 112 112 112 112 112 112 112 112 112 112 112 111 111 111 111 111 111 111 111 111 111 111 111 111 111 111 111 111 111 110 110 110 110 110 110 110 110 110 110 110 110 110 110 110 110 110 110 110 110 110 110 110 110 110 110 110 110 110 110 110 110 110 110 110 110 109 109 109 109 109 109 109 109 109 109 109 109 109 109 109 109 109 109 109 109 109 109 109 109 109 109 109 109 109 109 109 109 109 109 109 109 109 109 109 109 109 109 109 109 109 109 109 109 109 109 109 109 109 109 109 109 109 109 109 109 109 109 109 109 109 109 109 109 109 109 109 109 109 109 110 110 110 110 110 110 110 110 110 110 110 110 110 109 110 110 110 111 111 111 111 111 111 111 111 111 111 111 111 111 112 112 112 112 112 112 112 112 112 112 113 113 113 113 112 113 113 113 114 114 114 114 114 114 114 114 114 115 115 115 115 115 115 115 115 115 115 116 117 116 116 116 116 116 116 117 117 117 117 117 117 117 117 117 117 118 118 118 118 118 118 118 118 118 118 119 119 119 119 119 119 119 119 120 120 120 120 120 120 120 120 120 119 120 121 121 121 121 121 121 120 120 120 121 121 121 122 122 122 121 121 122 122 122 122 122 122 122 122 123 123 123 123 123 123 123 123 124 124 124 124 124 124 124 124 124 124 125 125 126 126 125 125 126 127 126 126 126 126 126 126 127 127 127 127 127 127 128 128 128 128 128 128 128 129 129 129 129 129 128 129 130 130 130 130 130 130 130 131 131 131 131 131 131 131 131 131 132 132 132 132 132 132 132 133 133 133 133 133 134 134 134 134 134 135 135 135 135 135 135 135 136 136 136 136 136 136 137
120 120 120 120 119 119 119 119 119 119 119 119 119 118 118 118 118 118 118 118 118 118 118 118 117 117 117 117 117 118 117 117 117 117 117 117 117 116 116 116 116 116 116 116 116 116 116 116 116 116 116 115 115 115 115 115 115 115 115 115 115 116 116 116 115 114 114 114 114 114 114 114 114 114 114 114 114 114 114 114 114 114 114 113 113 113 113 113 113 113 113 113 113 113 113 113 113 113 113 113 113 113 113 112 112 112 113 112 113 112 112 112 112 112 112 112 112 112 112 111 112 111 111 111 111 111 111 111 111 111 111 111 111 111 111 111 111 110 110 110 110 110 110 110 110 110 110 110 110 110 110 110 110 110 110 110 110 110 110 110 110 110 110 110 110 110 110 110 110 110 110 110 110 110 110 110 110 110 110 110 110 110 109 109 109 109 109 110 110 110 110 110 109 110 109 109 109 109 109 109 109 109 109 109 109 109 109 109 109 109 109 109 109 109 109 109 109 109 109 109 109 109 109 109 109 109 110 110 110 110 110 110 110 110 110 110 110 110 110 110 110 110 110 110 110 110 110 110 110 110 110 110 110 111 111 111 111 111 111 111 111 111 111 111 112 112 112 112 112 112 112 112 112 112 112 113 113 113 113 113 113 113 112 113 113 113 113 113 114 114 114 114 114 114 115 115 115 115 115 115 115 115 115 115 116 116 115 116 116 116 116 116 116 117 117 117 117 117 117 117 117 117 117 118 118 118 118 118 118 118 118 118 119 119 119 119 119 119 119 119 119 120 120 120 120 120 120 119 120 120 121 121 121 121 121 121 121 121 120 120 120 121 122 122 122 122 122 121 121 121 122 122 122 122 122 122 122 122 122 123 123 123 123 123 123 123 124 124 124 124 124 124 124 124 124 124 125 125 125 125 126 125 125 126 126 126 126 126 127 127 127 127 127 127 127 127 128 128 128 128 128 128 128 128 129 129 129 129 129 129 130 130 130 130 130 130 130 131 131 131 131 131 131 131 131 132 132 132 132 132 132 132 132 133 133 133 133 133 133 134 134 134 134 134 135 135 135 135 135 136 136 136 136 136 136 137 137 137 137 137
120 120 120 120 120 120 119 119 119 119 119 119 119 119 119 119 119 119 118 118 118 118 118 118 118 118 118 118 118 118 117 118 117 117 117 117 117 117 117 117 117 117 116 116 116 116 116 116 116 116 116 116 116 116 116 116 115 115 115 115 115 115 115 115 115 115 115 115 115 115 115 115 114 114 114 114 114 114 114 114 114 114 114 114 114 114 114 114 113 113 113 113 113 113 113 113 113 113 113 113 113 113 113 113 113 113 113 113 113 113 113 112 112 112 112 113 113 112 112 112 112 112 112 112 112 111 111 111 111 111 111 111 111 111 111 111 111 111 111 111 111 111 111 111 111 111 110 110 110 110 110 110 110 110 110 110 110 110 110 110 110 110 110 110 110 110 110 110 110 110 110 110 110 110 110 110 110 110 110 110 110 110 110 110 110 110 110 110 110 110 110 110 110 110 110 110 110 110 110 110 110 110 110 110 110 110 110 110 110 110 110 110 110 110 110 110 110 110 110 110 110 110 110 110 110 110 110 110 110 110 110 110 110 110 110 110 110 110 110 110 110 110 110 111 111 111 111 111 111 111 111 111 111 111 111 111 111 112 111 111 111 112 112 112 112 112 112 112 112 112 113 113 113 113 113 113 113 113 113 113 113 113 114 114 114 114 114 114 114 114 115 115 115 115 115 115 115 115 115 115 116 116 116 116 116 116 116 116 116 116 117 117 117 117 117 117 117 117 117 117 117 118 118 118 118 118 118 118 118 118 119 119 119 119 119 119 119 119 119 120 120 120 120 120 120 120 120 120 121 121 121 121 121 121 121 120 120 120 121 122 122 122 122 122 122 122 122 122 122 122 122 122 122 122 122 123 123 123 123 123 123 123 123 124 124 124 124 124 124 124 124 124 124 125 125 125 125 125 125 125 126 126 126 126 126 126 126 127 127 127 127 127 127 127 128 128 128 128 128 128 128 129 129 129 129 129 129 129 130 130 130 130 130 130 130 131 131 131 131 131 131 131 132 132 132 132 132 133 132 132 132 133 133 133 133 133 133 133 134 134 134 134 135 135 135 135 135 136 136 136 136 136 136 137 137 137 137 137 137 138
120 120 120 120 120 120 120 120 120 120 120 120 119 119 119 119 119 119 119 119 119 119 119 118 118 118 118 118 118 118 118 118 118 118 117 117 117 117 117 117 117 117 117 116 117 117 117 117 116 116 116 116 116 116 116 116 116 116 116 116 116 116 116 116 116 115 115 115 115 115 115 115 115 115 115 115 115 115 115 114 114 114 114 114 114 114 114 114 114 114 114 114 114 114 114 114 113 113 113 113 113 113 113 113 113 113 113 113 113 113 113 113 113 113 113 113 113 112 112 112 112 112 112 112 112 112 112 112 112 112 112 111 111 111 111 111 111 111 111 111 111 111 111 111 111 111 111 111 111 111 111 111 111 111 110 110 111 110 110 110 110 110 110 110 110 110 110 110 110 110 110 110 110 110 110 110 110 110 110 110 110 110 110 110 110 110 110 110 110 110 110 110 110 110 110 110 110 110 110 110 110 110 110 110 110 110 110 110 110 110 110 110 110 110 110 110 110 110 110 110 110 110 110 110 110 110 110 110 110 110 110 110 110 110 111 111 111 111 111 111 111 111 111 111 111 111 111 111 111 111 111 111 111 111 111 112 112 112 112 112 112 112 112 112 112 113 113 113 113 113 113 113 113 113 113 113 113 114 114 114 114 114 114 114 115 114 115 115 115 115 115 115 115 115 115 115 116 116 116 116 116 116 115 116 116 117 117 117 117 117 117 117 117 117 117 117 118 118 118 118 118 118 118 118 118 118 119 119 119 119 119 119 119 119 119 119 119 120 120 120 120 120 120 120 121 121 121 121 121 121 121 121 121 121 122 122 122 122 121 121 122 122 121 122 122 122 122 122 122 122 122 122 123 123 123 123 123 123 123 123 124 124 124 124 124 124 124 124 125 125 125 125 125 125 125 125 125 125 126 126 126 126 126 126 127 127 127 127 127 127 127 128 128 128 128 128 128 129 129 129 129 130 129 129 130 130 130 130 130 130 130 131 131 131 131 131 131 132 132 132 132 132 132 132 132 132 133 133 133 133 133 133 132 133 134 134 134 134 134 135 135 135 135 135 136 136 136 136 136 136 137 137 137 137 137 137 138 138 138 138
121 121 121 120 120 120 120 120 120 120 120 120 120 120 120 120 119 119 119 119 119 119 119 119 119 119 119 119 118 118 118 118 118 118 118 118 118 118 118 118 117 117 117 117 117 117 117 117 117 117 117 117 117 116 116 116 116 116 116 116 116 116 116 116 116 116 116 116 116 115 115 115 115 115 115 115 115 115 115 115 115 115 115 115 115 114 114 114 114 114 114 114 114 114 114 114 114 114 114 114 114 114 114 113 114 113 113 113 113 113 113 113 113 113 113 113 113 113 113 113 113 112 112 112 112 112 112 112 112 112 112 112 112 112 112 111 111 111 111 111 111 111 111 111 111 111 111 111 111 111 111 111 111 112 111 111 111 111 111 111 111 111 111 110 110 110 110 110 110 110 110 110 110 110 110 110 110 110 110 110 110 110 110 110 110 110 110 110 110 110 110 110 110 110 110 110 110 110 110 110 110 110 110 110 110 110 110 110 110 110 110 110 110 110 110 110 110 110 110 110 110 110 110 110 110 110 111 111 111 111 111 111 111 111 111 111 111 111 111 111 111 110 111 111 111 111 111 111 111 111 112 112 112 112 112 112 112 112 112 112 112 112 112 113 113 113 113 113 113 113 113 114 114 114 113 114 114 114 114 114 114 115 115 115 115 115 114 114 115 115 115 115 115 116 116 117 116 116 116 116 116 116 117 117 117 116 117 117 117 117 117 117 117 118 118 118 118 118 118 118 118 118 118 119 119 119 119 119 119 119 119 119 119 120 120 120 120 120 120 120 120 120 121 120 121 121 121 121 121 121 121 122 122 122 122 122 122 122 122 122 122 122 122 122 122 122 122 122 122 122 123 123 123 123 123 123 123 124 124 125 124 124 124 124 124 125 125 125 125 125 125 125 125 125 125 126 126 126 126 126 126 126 127 127 127 127 128 127 127 127 128 128 128 129 129 129 129 129 129 129 129 129 130 130 130 130 130 130 131 131 131 131 131 131 132 132 132 132 132 132 132 132 132 133 133 133 133 133 133 133 133 133 134 134 134 135 135 135 135 135 135 135 136 136 136 135 136 137 137 137 137 137 137 138 138 138 138 138 138 139
121 121 121 121 121 121 121 121 120 120 120 120 120 120 120 120 120 120 120 120 120 120 119 119 119 119 119 119 119 119 119 119 119 119 119 118 118 118 118 118 118 118 118 118 118 118 117 117 117 117 117 117 117 117 117 117 117 117 117 116 116 116 116 116 116 116 116 116 116 116 116 116 116 116 116 115 115 115 115 115 115 115 115 115 115 115 115 115 115 115 115 115 115 114 114 114 114 114 114 114 114 114 114 114 114 114 114 114 114 114 114 114 113 113 113 113 113 113 113 113 113 113 113 113 113 113 113 112 112 112 112 112 112 112 112 112 112 112 112 112 112 111 111 111 111 111 111 111 111 111 111 111 111 111 111 111 111 111 111 111 111 111 111 111 111 111 111 111 111 111 111 111 111 111 111 111 111 111 110 111 110 111 110 111 110 111 110 111 111 111 111 111 111 111 111 111 111 111 111 111 111 111 111 111 111 111 111 111 111 111 111 111 111 111 111 111 111 111 111 111 111 111 111 111 111 111 111 111 111 111 111 111 111 111 111 111 111 111 111 112 111 112 112 112 112 112 112 112 112 112 112 112 112 112 113 113 113 113 112 112 112 113 113 113 113 113 113 113 114 114 114 114 113 114 114 114 115 115 115 115 115 115 115 115 114 114 115 115 116 116 116 116 116 116 116 116 116 116 117 117 117 117 116 117 117 117 117 117 118 118 118 118 118 118 118 118 118 118 118 119 119 119 119 119 119 119 119 119 119 119 120 120 120 120 120 120 120 120 121 121 121 121 121 121 121 121 121 121 122 122 122 122 122 122 122 122 122 122 122 122 122 122 122 122 122 123 123 123 123 123 123 123 123 124 124 124 124 124 124 124 125 125 125 125 125 125 125 125 125 125 125 126 126 126 126 126 126 126 127 127 127 127 127 127 127 127 128 128 128 128 129 128 129 129 129 129 129 129 130 130 130 130 130 130 130 131 131 131 131 131 131 132 132 132 132 132 132 132 132 133 133 133 133 133 133 133 133 133 134 134 134 134 134 134 134 136 135 135 135 136 136 136 136 136 136 137 137 137 137 137 138 138 138 138 138 138 139 139 139 139
122 121 121 121 121 121 121 121 121 121 121 121 120 120 120 120 120 120 120 120 120 120 120 120 120 120 119 119 119 119 119 119 119 119 120 119 119 119 118 118 118 118 118 118 118 118 118 118 118 118 118 117 117 117 117 117 117 117 117 117 117 117 117 117 117 116 116 116 116 116 116 116 117 116 116 116 116 116 116 115 115 115 115 115 115 115 115 115 115 115 115 115 115 115 115 115 115 114 114 114 114 114 114 114 114 114 114 114 114 114 114 114 114 114 114 114 114 114 113 113 113 113 113 113 113 113 113 113 113 113 112 112 112 112 112 112 112 112 112 112 112 112 112 112 112 111 111 111 111 111 111 111 111 111 111 111 111 111 111 111 111 111 111 111 111 111 111 111 111 111 111 111 111 111 111 111 111 111 111 111 111 111 111 111 111 111 111 111 111 111 111 111 111 111 111 111 111 111 111 111 111 111 111 111 111 111 111 111 111 111 111 111 111 111 111 111 111 111 111 111 111 111 111 111 111 111 111 111 111 111 111 111 111 111 111 111 111 111 112 112 112 112 112 112 112 113 113 112 112 112 112 113 113 113 113 112 113 113 113 113 114 114 113 113 114 113 114 114 114 113 114 114 115 115 115 115 115 115 115 114 114 115 115 115 115 116 116 116 116 116 116 116 116 116 116 116 117 117 116 116 117 117 116 117 117 118 118 118 118 118 118 118 118 118 118 118 118 119 119 119 119 119 119 119 119 119 119 120 120 120 120 120 120 120 120 120 120 121 121 121 121 121 120 121 121 122 122 122 122 122 122 122 122 122 122 122 122 122 122 122 122 122 123 123 123 123 123 123 123 124 124 124 124 124 124 124 124 124 125 125 125 125 125 125 125 125 125 126 126 126 126 126 126 126 126 126 127 127 127 127 127 127 127 127 128 129 129 128 128 128 129 129 129 129 129 130 130 130 130 130 130 131 131 131 131 131 131 131 131 132 132 132 132 132 132 132 132 133 133 133 133 133 133 133 133 134 134 134 134 134 134 134 135 135 135 135 135 136 136 136 136 136 136 137 137 137 137 137 138 138 137 138 138 138 139 139 139 139 139 140
122 122 122 122 122 122 122 122 121 121 121 121 121 121 121 121 121 121 121 120 120 120 120 120 120 120 120 120 120 120 120 120 119 119 119 119 119 119 119 119 119 119 119 119 119 119 118 118 118 118 118 118 118 118 118 118 118 118 118 117 117 117 117 117 117 117 117 117 117 117 118 117 116 116 116 116 116 116 116 116 116 116 117 116 116 117 116 116 115 115 115 115 115 115 115 115 115 115 115 115 115 115 115 115 114 114 114 114 114 114 114 114 114 114 114 114 114 114 114 114 114 113 113 113 113 113 113 113 113 113 113 113 113 113 113 113 112 112 112 112 112 112 112 112 112 112 112 112 112 111 111 111 111 111 111 111 111 111 111 111 111 111 111 111 111 111 111 111 111 111 111 111 111 111 111 111 111 111 111 111 111 111 111 111 111 111 111 111 111 111 111 111 111 111 111 111 111 111 111 111 111 111 111 111 111 111 111 111 111 111 111 111 111 112 111 111 111 111 112 112 111 111 111 111 111 111 111 111 111 111 111 111 112 111 112 113 113 112 112 112 112 112 112 112 113 112 113 113 113 113 113 112 113 113 113 113 113 113 114 114 114 114 114 115 114 114 114 114 115 114 114 114 115 115 115 115 115 115 115 115 116 115 116 116 116 116 116 115 117 116 116 116 117 117 117 117 117 117 117 117 117 118 118 118 118 118 118 118 117 117 118 118 118 119 119 119 119 119 119 119 119 119 119 120 120 120 120 120 120 120 120 120 120 121 121 121 121 121 121 121 121 121 122 122 122 122 122 122 122 122 122 122 122 122 122 122 122 122 123 123 123 123 123 123 123 124 124 124 124 124 124 124 124 124 125 125 125 125 125 125 125 125 125 126 126 126 126 126 126 126 126 126 127 127 127 127 127 127 127 127 127 129 129 128 128 128 128 129 129 129 129 129 129 130 130 130 130 130 130 131 131 131 131 131 131 131 132 132 132 132 132 132 133 133 133 133 133 133 133 133 134 134 134 134 134 134 134 134 134 135 135 135 135 135 136 136 136 136 136 136 137 137 137 137 137 138 138 138 138 138 138 139 139 139 139 139 140 140 140 140
122 122 122 122 122 122 122 122 122 122 122 122 121 121 121 121 121 121 121 121 121 121 121 120 120 120 120 120 120 120 120 120 120 120 120 120 120 120 120 119 119 119 119 119 119 119 119 119 119 119 119 118 118 118 118 118 118 118 118 118 118 118 118 117 117 117 117 117 117 117 117 117 117 117 117 117 117 116 116 116 116 116 116 116 116 116 116 116 116 116 116 116 116 115 115 115 115 115 115 115 115 115 115 115 115 115 115 115 114 114 114 114 114 114 114 114 114 114 114 114 114 114 114 114 114 114 113 113 113 113 113 113 113 113 113 113 113 113 113 112 112 112 112 112 112 112 112 112 112 112 111 111 111 111 112 112 112 111 111 111 111 111 111 111 111 111 111 111 111 111 111 111 111 111 111 111 111 111 111 111 111 111 111 111 111 111 111 111 111 111 111 111 111 111 111 111 111 111 111 111 111 111 111 111 111 111 111 111 111 111 111 111 111 111 111 111 111 111 111 111 111 111 111 111 111 111 112 112 112 112 112 112 112 112 112 112 112 112 112 112 112 113 114 114 113 113 113 113 113 113 113 114 114 114 114 114 114 114 114 115 114 114 114 115 115 115 115 115 115 115 115 115 115 115 115 115 115 116 116 116 116 117 116 116 116 116 116 117 117 117 117 117 117 117 117 117 117 118 118 118 118 118 118 118 117 118 118 118 118 119 119 119 119 119 119 119 119 119 119 119 120 120 120 120 120 120 120 120 120 120 121 121 121 121 121 121 121 121 121 121 122 122 122 122 122 122 122 122 123 122 122 122 122 122 122 124 123 123 123 123 123 123 123 124 124 124 124 124 124 124 124 124 125 125 125 125 125 125 125 125 126 126 126 126 126 126 126 126 126 127 127 127 127 127 127 127 128 127 128 128 128 128 128 128 129 129 129 129 129 129 129 130 131 131 130 130 130 131 131 131 132 131 131 131 132 132 132 132 132 132 132 133 133 133 134 133 133 134 134 134 134 134 134 134 134 134 135 135 135 135 135 135 136 136 136 136 136 136 137 137 137 137 138 138 138 138 138 138 139 139 139 139 139 139 140 140 140 140 141 141
123 123 123 123 123 122 122 122 122 122 122 122 122 122 122 122 122 122 122 121 121 121 121 121 121 121 121 121 121 121 121 120 120 120 120 120 120 120 120 120 120 120 120 120 119 119 119 119 119 119 119 119 119 119 119 119 119 119 118 118 119 118 118 118 118 118 118 118 118 118 117 117 117 117 117 117 117 117 117 117 117 117 117 117 117 116 116 116 116 116 116 116 116 116 116 116 116 116 116 116 116 115 115 115 115 115 115 115 115 115 115 115 115 114 114 114 114 114 114 114 114 114 114 114 114 114 114 114 114 114 113 113 113 113 113 113 113 113 113 113 113 113 113 113 113 113 112 112 112 112 112 112 112 112 112 112 112 112 112 112 111 111 111 111 112 112 111 112 112 112 112 112 112 111 112 112 112 112 112 112 112 112 111 111 112 111 112 111 111 112 111 112 111 112 111 111 111 111 111 111 111 111 111 111 111 111 111 111 111 111 111 111 111 111 111 111 112 112 112 112 112 112 112 112 112 112 112 112 112 112 112 113 112 112 113 113 113 113 113 113 113 113 113 113 113 113 113 114 114 114 114 114 114 114 114 114 114 115 115 115 115 115 115 115 115 115 115 115 115 115 115 116 116 116 116 116 116 116 116 116 116 116 116 117 117 117 117 116 117 117 118 118 118 118 118 118 118 118 118 118 118 118 118 118 118 119 119 119 119 119 119 119 119 119 119 119 120 120 120 120 120 120 120 120 120 121 121 121 121 121 121 121 121 121 121 121 122 122 122 122 122 122 122 122 123 122 122 122 122 122 122 122 123 123 123 123 123 123 124 123 124 124 124 124 124 124 124 124 125 125 125 125 125 125 125 125 126 126 126 126 126 126 126 126 127 127 127 127 127 127 127 127 127 127 128 128 128 128 128 128 128 129 129 129 129 129 129 129 130 130 130 130 130 131 131 131 131 131 132 131 132 132 132 132 132 132 132 133 133 133 133 133 133 134 134 134 134 134 134 134 134 134 135 135 135 135 135 135 136 136 136 136 136 136 137 137 137 137 137 138 138 138 138 138 138 138 139 139 139 139 140 140 140 140 140 142 141 141 141 141
123 123 123 123 123 123 122 122 122 123 123 123 122 122 122 122 122 122 122 122 122 122 122 122 121 121 121 121 121 121 121 121 121 121 121 121 120 120 120 120 120 120 120 120 120 120 120 120 120 120 119 119 119 119 119 119 119 119 119 119 119 119 119 118 118 119 118 118 118 118 118 118 118 118 118 117 117 117 117 117 117 117 117 117 117 117 117 118 117 116 116 116 116 116 116 116 116 116 116 116 116 116 116 115 115 115 115 115 115 115 115 115 115 115 115 115 115 115 114 114 114 114 114 114 114 114 114 114 114 114 114 114 114 114 113 113 113 113 113 113 113 113 113 113 113 113 113 114 113 113 113 112 112 112 112 112 112 112 112 112 112 112 112 111 111 111 111 111 111 111 111 111 111 111 111 111 111 111 111 112 111 112 111 111 112 111 112 111 112 112 111 112 111 112 111 111 112 111 112 111 111 111 111 111 111 111 111 111 112 112 112 112 112 112 112 112 112 112 112 112 112 112 112 112 112 112 112 113 113 113 113 113 113 113 113 113 113 113 113 113 113 113 114 114 114 114 114 114 114 114 114 115 114 115 115 115 115 115 115 115 115 115 115 115 115 116 116 116 116 116 116 116 116 116 116 116 116 116 117 117 116 117 117 117 117 117 117 117 117 118 117 118 118 118 118 118 117 118 118 117 118 118 119 119 119 119 119 119 119 119 119 119 120 120 120 120 120 120 120 120 120 120 121 121 121 121 121 121 121 121 121 121 121 122 122 122 122 122 122 122 122 122 122 122 122 122 122 122 123 123 123 123 123 123 123 124 123 124 124 124 124 124 124 124 125 125 125 125 125 125 125 125 125 126 126 126 126 126 126 126 127 127 127 127 127 127 127 127 127 127 128 128 128 128 128 128 128 129 129 129 129 129 129 130 129 129 129 130 131 130 130 130 131 132 131 131 132 132 132 132 132 132 132 132 133 133 133 133 133 133 134 134 134 134 134 134 134 134 135 135 135 135 135 135 135 135 136 136 136 136 136 137 137 137 137 137 137 138 138 138 138 138 138 138 139 139 139 139 140 140 140 140 140 141 141 141 141 142 143 143
124 124 124 123 123 123 123 123 123 123 123 123 123 123 123 123 123 122 122 122 122 122 122 122 122 122 122 122 122 122 122 121 121 121 121 121 121 121 121 121 121 121 120 120 120 120 120 120 120 120 120 120 120 120 120 120 119 119 119 119 119 119 119 119 119 119 119 120 119 119 118 118 118 118 118 118 118 118 118 118 118 118 117 117 117 117 117 117 117 117 117 117 117 117 116 116 116 116 116 116 116 116 116 116 116 116 116 116 116 115 115 115 115 115 115 115 115 115 115 115 115 115 115 115 115 115 114 114 114 114 114 114 114 114 114 114 114 114 114 113 113 113 113 113 113 113 113 113 113 113 113 113 113 113 113 113 113 113 113 113 113 112 112 112 112 112 112 112 112 112 112 112 112 111 112 111 111 111 111 111 111 111 111 111 111 111 111 111 111 111 112 112 112 112 112 112 112 112 112 112 112 112 112 112 112 112 112 112 112 112 112 112 112 112 112 113 112 112 113 113 113 113 113 113 113 113 113 113 113 113 113 113 113 113 114 114 114 114 114 114 114 114 114 115 115 115 115 115 115 115 115 115 115 115 115 115 115 115 115 116 116 116 116 116 116 116 116 116 116 116 116 117 117 117 117 117 117 117 117 117 117 117 117 117 117 117 118 117 118 118 119 118 118 118 118 118 118 118 119 118 119 119 119 119 119 119 119 119 119 120 120 120 120 120 120 120 120 120 120 121 121 121 121 121 121 121 121 121 121 122 122 122 122 122 122 122 122 122 122 122 122 122 122 123 123 123 124 123 123 123 123 123 123 125 124 124 124 124 124 124 124 125 125 125 125 125 125 125 125 126 126 126 126 126 126 126 126 127 127 127 127 127 127 127 127 127 128 128 128 128 128 128 128 128 128 128 129 129 128 129 129 129 129 130 130 131 131 130 130 131 131 131 131 132 132 132 132 132 132 132 133 133 133 133 133 133 133 133 134 134 134 134 134 135 135 135 135 135 135 135 135 135 135 136 136 136 136 136 136 137 137 137 137 137 137 138 138 138 138 138 139 139 139 139 139 139 140 140 140 140 141 141 141 141 141 143 143 143 143 142
124 124 124 124 124 124 124 124 124 123 123 123 123 123 123 123 123 123 123 123 123 123 122 122 122 122 122 122 122 122 122 122 122 122 122 122 121 121 121 121 121 121 121 121 121 121 121 120 120 120 120 120 120 120 120 120 120 120 120 120 121 119 119 119 119 119 119 119 119 119 120 119 120 119 119 118 118 118 118 118 118 118 119 118 118 118 117 117 117 117 117 117 117 117 118 117 117 117 117 116 116 116 116 116 116 116 116 116 116 116 116 116 115 115 115 115 115 115 115 115 115 115 115 115 115 115 115 115 115 114 114 114 114 114 114 114 114 114 114 115 114 114 114 114 113 113 113 113 113 113 113 113 113 113 113 113 113 112 112 112 112 112 112 112 112 112 112 113 112 113 112 112 112 112 113 113 113 113 113 113 112 113 113 113 113 113 113 113 113 113 113 113 112 112 112 112 112 112 112 112 112 112 112 112 112 112 112 112 112 113 112 112 113 113 113 113 113 113 113 113 113 113 113 113 113 113 113 114 114 114 114 114 114 114 114 114 114 114 115 115 115 115 115 115 115 115 115 115 115 115 115 115 115 115 115 116 116 116 116 116 116 116 116 116 116 116 116 117 117 117 117 117 117 117 117 117 117 117 117 117 117 118 118 119 118 118 118 118 118 118 118 119 119 119 118 119 119 119 119 119 119 119 120 120 119 119 119 120 120 120 120 120 120 120 120 121 121 121 121 121 121 121 121 121 121 122 122 122 122 122 122 122 122 122 123 123 122 122 122 122 122 123 123 123 123 123 123 123 123 123 124 124 124 124 124 124 124 125 125 125 125 125 125 125 125 125 126 126 126 126 126 125 126 126 127 127 127 127 127 127 127 128 128 128 128 128 128 128 128 128 128 128 129 129 129 129 129 129 129 129 129 130 130 130 130 130 131 131 131 131 132 132 132 133 132 132 132 133 133 133 133 133 133 133 133 134 134 134 134 134 135 136 135 135 135 135 135 135 135 135 136 136 136 136 136 136 137 137 137 137 137 137 138 138 138 138 138 138 139 139 139 139 139 140 140 140 140 140 141 141 141 141 141 143 142 142 142 143 144 144
125 125 124 124 124 124 124 124 124 124 124 124 124 123 124 124 124 123 123 123 123 123 123 123 123 123 123 123 123 123 122 122 122 122 122 122 122 122 122 122 122 122 122 121 121 121 121 121 121 121 121 121 121 121 120 120 120 120 120 120 120 120 120 120 120 120 120 120 119 119 119 119 119 119 119 119 119 120 119 118 118 118 118 118 118 118 118 118 118 119 118 117 117 117 117 117 117 117 117 117 117 117 117 116 116 116 116 116 116 116 116 116 116 116 116 116 116 116 115 115 115 115 115 115 115 115 115 115 115 115 115 115 115 115 115 115 114 114 114 114 114 114 114 114 114 114 114 115 114 114 114 114 114 114 114 113 113 113 113 113 113 112 113 113 113 113 113 113 113 113 113 113 113 113 113 113 113 113 112 113 112 113 112 112 113 112 113 112 112 113 112 113 112 113 112 112 112 112 113 112 113 113 113 113 113 113 113 113 113 113 113 113 113 113 113 113 113 113 114 114 114 114 114 114 114 114 114 114 114 114 114 115 115 115 115 115 115 115 115 115 115 115 115 115 115 115 115 115 116 116 116 116 116 116 116 116 116 116 116 116 116 117 117 117 117 117 117 117 117 117 117 117 117 117 117 118 118 118 118 118 118 118 118 118 118 118 119 119 119 119 119 119 118 119 119 119 120 119 120 120 120 120 120 120 120 120 120 120 120 120 120 121 121 121 121 121 121 121 121 121 121 121 122 122 122 122 122 122 122 122 122 122 122 122 122 123 123 123 123 123 123 123 123 124 124 124 125 124 124 124 124 124 124 125 125 125 125 125 125 125 126 125 126 126 126 126 126 126 126 126 126 127 127 127 127 127 127 128 128 128 128 128 128 128 128 128 128 128 129 129 129 129 129 129 129 129 129 130 130 130 130 130 130 131 131 131 131 131 131 131 133 132 132 133 132 133 133 133 133 133 134 134 134 134 135 135 135 134 135 135 135 135 135 135 136 136 136 136 136 136 136 136 136 137 137 137 137 137 137 138 138 138 138 138 138 139 139 139 139 139 140 140 140 140 140 141 141 141 141 141 142 142 142 143 144 144 143 144 144 145
125 125 125 125 125 125 125 125 124 124 124 124 124 124 124 124 124 124 124 124 124 123 123 123 123 123 123 123 123 123 123 123 123 123 122 122 122 122 122 122 122 122 122 122 122 122 122 121 121 121 121 121 121 121 121 121 121 121 120 120 121 120 120 120 120 120 120 120 120 120 121 119 120 119 119 119 119 119 119 119 119 119 119 119 118 118 118 118 118 118 118 119 119 118 118 117 117 117 117 117 117 117 117 117 117 117 117 117 116 116 116 116 116 116 116 116 116 116 116 116 116 116 116 115 115 115 115 115 115 115 115 115 115 115 115 115 115 115 115 114 114 114 114 114 114 114 114 114 114 114 114 114 114 113 114 114 114 114 114 114 114 114 114 114 114 114 114 114 114 114 113 114 114 113 113 113 113 113 113 113 112 113 113 113 113 113 113 112 112 113 113 113 113 113 113 113 113 113 113 113 113 113 113 113 113 113 113 113 113 113 113 114 114 114 114 114 114 114 114 114 114 114 114 114 114 114 114 115 115 115 115 115 115 115 115 115 115 115 115 115 115 116 116 116 116 116 116 116 116 116 116 116 116 116 116 116 116 117 117 117 117 117 117 117 117 117 117 117 117 117 117 117 118 118 118 118 118 118 118 118 118 119 118 118 118 118 118 119 119 119 119 119 119 119 119 120 120 120 120 120 120 120 120 120 119 120 120 121 120 121 121 120 121 121 121 121 121 121 122 122 122 122 122 122 122 122 122 122 122 122 122 123 123 123 123 122 123 123 124 124 124 124 124 124 124 124 124 124 125 125 125 125 124 125 125 126 125 126 126 126 126 126 126 126 126 126 126 126 127 127 127 127 127 127 127 128 128 128 128 128 128 128 128 129 129 129 129 129 129 129 129 129 129 130 130 130 130 130 130 130 130 131 131 131 131 132 132 132 132 132 133 133 133 133 133 133 134 133 133 134 134 134 135 135 135 135 135 135 135 135 135 136 136 136 136 136 136 136 136 136 137 137 137 137 137 138 137 138 138 138 138 138 139 139 139 139 139 139 140 140 140 140 141 141 141 141 141 142 142 142 143 143 144 144 143 144 144 145 145 145
125 125 125 125 125 125 125 125 125 125 125 125 125 125 125 125 125 124 124 124 124 124 124 124 124 124 124 124 124 123 123 123 123 123 123 123 123 123 123 123 123 122 122 122 122 122 122 122 122 122 122 122 122 121 121 121 121 121 121 121 121 121 121 122 120 121 120 120 120 120 120 120 120 120 120 121 120 120 119 119 119 119 119 119 119 119 119 119 118 118 118 118 118 118 118 118 118 118 118 118 117 117 117 117 117 117 117 117 117 117 117 117 117 116 116 116 116 116 116 116 116 116 116 116 116 116 116 116 116 116 115 115 115 115 115 115 115 115 115 115 115 115 115 115 115 115 115 115 115 114 114 114 114 114 114 114 114 114 114 114 114 114 114 114 114 114 114 114 113 114 113 113 114 113 114 113 113 113 114 113 113 113 113 113 113 113 113 113 113 113 113 113 113 114 113 113 114 113 115 113 114 114 114 114 115 114 114 114 114 114 114 114 114 114 114 114 115 115 115 115 115 115 115 115 115 115 115 115 115 115 115 115 115 116 116 116 116 116 116 116 116 116 116 116 116 116 116 116 116 117 117 117 117 117 117 117 117 117 117 117 117 117 117 117 118 118 118 118 118 118 118 118 118 118 118 118 118 118 118 118 119 119 119 119 120 119 119 118 119 119 120 120 119 119 120 121 120 120 120 120 120 120 120 120 120 121 121 121 121 121 121 120 121 121 122 122 122 122 122 122 122 122 122 122 122 122 122 122 123 123 123 123 123 123 123 123 124 124 124 124 124 125 124 124 124 124 125 125 125 125 126 126 125 125 125 126 127 127 127 126 126 126 127 127 127 127 127 127 127 127 129 129 128 128 128 128 128 128 128 129 129 129 129 129 129 129 129 129 130 130 130 130 130 130 130 130 130 130 131 131 131 131 131 132 132 132 132 132 133 132 133 133 133 133 134 134 134 134 134 134 135 135 134 135 135 135 135 136 136 136 136 136 136 136 136 136 137 137 137 137 138 137 137 138 138 138 138 138 138 139 139 139 139 139 139 140 140 140 140 140 141 141 141 141 142 142 142 142 142 143 144 143 143 144 145 145 145 145 146 146
126 126 126 126 126 125 125 125 125 125 125 125 125 125 125 125 125 125 125 124 124 124 124 124 124 123 124 124 124 124 124 124 124 124 123 123 123 123 123 123 123 123 123 123 123 123 122 122 122 122 122 122 122 122 122 122 122 122 121 121 121 121 121 121 121 121 121 121 120 120 120 120 120 120 120 120 120 120 120 121 120 120 119 119 119 119 119 119 119 119 119 119 119 118 118 118 118 118 118 119 118 118 118 118 117 116 117 117 117 117 117 117 117 117 117 117 117 117 116 116 116 116 116 116 116 116 116 116 116 116 115 116 116 116 116 115 115 115 115 115 115 115 115 115 115 115 115 115 115 115 115 115 115 115 115 115 115 115 115 115 115 115 115 115 115 115 115 115 115 115 115 115 115 115 115 115 115 115 115 115 115 115 115 115 115 115 115 115 115 115 115 115 115 114 114 114 114 114 114 114 115 115 114 114 114 115 115 114 114 115 115 115 115 115 115 115 115 115 115 115 115 115 115 115 115 116 115 116 116 116 116 116 116 116 116 117 116 116 116 116 116 117 116 117 117 117 117 117 117 117 117 117 117 117 117 117 117 117 118 118 118 118 118 118 118 118 118 118 118 118 118 118 118 118 118 119 119 119 120 120 119 119 119 119 119 119 120 120 120 119 121 120 120 120 120 120 120 120 120 120 121 121 121 121 121 121 121 121 122 122 122 122 122 122 122 122 122 122 122 122 122 122 122 122 123 123 123 123 123 123 123 123 123 124 124 124 124 124 125 125 124 124 125 125 125 125 125 125 126 125 125 125 125 126 127 126 126 126 126 127 127 127 127 127 127 127 127 127 128 129 128 129 128 128 128 128 129 129 129 129 129 129 129 129 130 130 130 130 130 130 130 130 130 130 131 131 131 131 131 131 131 132 132 132 132 132 132 133 134 133 133 134 134 134 134 134 134 135 135 135 136 135 135 135 136 137 136 136 136 136 136 136 137 137 137 137 137 137 137 137 137 138 138 138 138 138 138 139 139 139 139 139 140 140 140 140 140 141 141 141 141 142 142 142 142 142 143 143 143 143 144 145 145 145 145 145 146 146 146 146
127 126 126 126 126 126 126 126 126 126 126 126 126 125 125 125 125 125 125 125 125 125 125 125 125 125 125 125 124 124 124 124 124 124 124 124 124 124 124 124 124 124 124 123 123 123 123 123 123 123 122 122 122 122 122 122 122 122 122 122 122 122 121 121 121 121 121 121 121 121 121 121 121 120 120 120 120 120 120 120 120 120 120 120 120 120 120 120 119 119 119 119 119 119 119 119 119 118 118 118 118 118 118 118 118 118 118 118 117 118 117 117 117 117 117 117 117 117 117 117 117 117 117 117 116 116 116 116 116 116 116 116 116 116 116 116 116 116 116 116 116 116 116 116 116 116 115 115 115 115 115 115 115 115 115 115 115 115 115 115 115 115 115 115 115 115 115 115 115 115 115 115 115 115 115 115 115 115 115 115 115 115 115 115 115 115 115 115 115 115 114 116 115 115 115 115 115 115 115 115 115 115 115 115 115 115 115 115 116 115 115 115 115 115 115 115 115 115 116 116 116 116 116 116 116 116 116 116 116 117 116 116 116 116 118 117 117 117 117 117 117 117 117 117 117 117 117 117 117 117 117 117 117 118 118 118 118 118 118 118 118 118 118 118 118 118 118 118 118 119 119 119 119 119 119 119 119 119 119 119 119 119 120 120 120 120 120 120 120 120 121 121 121 121 121 121 120 121 121 121 121 121 122 122 122 122 122 122 122 122 122 122 122 122 122 122 122 123 123 123 123 123 123 123 123 124 123 123 124 124 124 124 123 124 125 125 125 125 125 125 125 126 125 125 125 125 126 126 126 126 126 126 126 127 127 127 126 127 127 127 127 127 128 128 128 128 128 128 128 128 129 129 129 129 129 129 129 129 129 130 130 130 130 130 130 130 130 130 131 131 131 131 131 131 131 131 131 131 132 131 132 132 132 133 133 133 134 133 133 133 134 134 135 135 135 135 134 135 135 136 136 135 136 136 136 137 136 137 137 137 137 137 137 137 137 137 138 138 138 138 138 138 138 139 139 139 139 139 139 140 140 140 140 140 141 141 141 141 142 142 142 142 142 142 143 144 144 144 145 144 145 145 145 146 146 146 146 146 146 147
127 127 127 127 126 126 126 126 126 126 126 126 126 126 126 126 126 126 125 125 125 125 125 125 125 124 125 125 125 125 125 125 125 124 124 124 124 124 124 124 124 124 124 124 124 124 123 123 123 123 123 123 123 123 123 122 122 122 122 122 122 122 122 122 122 122 121 121 121 121 121 121 121 121 121 121 120 120 120 120 120 120 120 120 120 120 120 121 120 120 119 119 119 119 119 119 119 119 119 119 119 119 118 118 118 118 118 118 118 118 118 118 118 117 117 117 117 117 117 117 117 117 117 117 117 117 117 117 117 117 117 117 117 116 116 117 116 116 116 116 116 116 116 116 116 116 116 116 116 116 116 116 116 116 116 116 116 116 116 116 116 116 116 116 116 116 116 116 116 116 116 116 116 116 116 116 116 116 116 116 116 116 115 115 115 115 116 115 116 116 116 115 115 115 115 115 115 115 116 116 116 116 116 116 116 116 116 117 116 116 116 116 117 117 116 116 116 116 116 116 116 116 116 116 116 117 116 116 117 117 117 117 117 117 117 117 117 117 117 117 117 117 117 117 117 117 118 118 118 118 118 118 118 118 118 118 118 118 118 118 118 118 118 118 118 118 119 119 119 119 119 119 119 119 119 119 119 119 119 120 120 120 120 120 120 120 121 121 121 120 121 121 120 121 121 121 121 121 121 121 122 122 122 122 122 122 122 122 122 122 122 123 123 123 123 123 123 123 123 123 123 123 124 124 124 124 124 124 124 124 124 124 125 125 125 125 125 124 125 125 125 125 126 126 126 126 126 126 126 126 127 127 127 127 126 126 128 127 128 128 128 127 128 128 128 128 128 129 129 128 129 129 129 129 129 130 130 130 130 130 130 130 130 130 131 131 131 131 131 131 131 131 131 132 132 132 132 132 132 132 132 133 133 133 133 133 133 133 134 135 135 135 135 135 134 136 136 136 136 136 136 136 137 137 136 137 137 137 137 137 137 137 138 138 138 138 138 138 138 139 138 139 139 139 139 139 140 140 140 140 140 141 141 141 141 141 142 142 142 142 142 143 143 144 143 144 145 144 144 145 145 146 146 146 146 147 147 147 147 147
127 127 127 127 126 127 127 127 127 127 127 127 126 126 126 126 126 126 126 126 126 126 126 126 126 126 125 125 125 125 125 125 125 125 125 125 125 125 124 124 124 124 124 124 124 124 124 124 124 124 123 123 123 123 123 123 123 123 123 123 123 122 122 122 122 122 122 122 122 122 123 122 122 121 121 121 121 121 121 122 122 122 121 120 120 120 120 120 120 120 120 120 120 120 120 119 119 119 119 119 119 119 119 119 119 119 119 118 118 118 118 118 118 118 119 118 118 118 118 118 117 117 117 117 117 117 117 117 117 117 117 117 117 117 117 117 117 117 117 117 117 117 117 117 117 117 117 117 116 116 116 116 116 116 116 116 116 116 116 116 116 116 116 116 116 116 116 116 116 116 116 116 116 116 116 116 116 116 116 116 116 116 116 117 117 117 117 117 117 117 117 117 117 117 117 117 117 117 117 117 116 116 116 116 116 117 116 116 117 116 117 118 118 118 118 118 117 118 117 117 117 117 117 117 117 117 117 117 117 117 117 117 117 117 117 119 118 118 118 118 118 118 118 118 118 118 118 118 118 118 118 118 118 118 118 118 119 119 119 119 119 119 119 119 119 119 119 119 119 119 119 119 119 119 120 120 120 120 121 121 120 120 120 120 120 121 121 120 121 121 121 121 121 122 122 121 122 122 122 122 122 122 123 122 122 122 122 123 123 123 123 123 123 123 123 123 123 124 124 124 124 124 124 124 124 124 125 124 124 125 125 124 125 125 126 125 125 125 126 126 126 126 126 126 126 126 127 127 127 127 127 127 127 127 127 128 128 128 129 128 128 128 129 128 128 128 128 129 129 129 129 129 130 130 130 130 130 130 130 131 131 131 131 131 131 131 131 131 131 132 132 132 132 132 132 132 132 132 133 133 133 133 133 133 134 134 135 135 135 134 136 135 135 136 136 136 136 136 136 136 137 137 137 137 137 137 137 138 138 138 138 138 138 138 138 138 139 140 139 139 139 139 140 140 140 140 140 140 141 141 141 141 142 142 142 142 142 142 143 143 143 144 144 144 144 145 145 145 146 146 146 147 147 147 147 147 147 148 148 148
128 128 128 128 128 127 127 127 127 127 127 127 127 127 127 127 127 126 126 126 126 126 126 126 126 126 126 126 126 125 125 125 125 125 125 125 125 125 125 125 125 125 124 124 124 124 124 124 124 124 124 124 124 124 123 123 123 123 123 123 123 123 123 123 122 122 122 123 122 122 122 122 123 123 123 122 121 121 121 121 121 121 121 122 122 121 120 121 120 120 120 120 120 120 121 120 120 120 120 119 119 119 119 119 119 119 119 119 119 119 119 119 119 119 118 118 118 118 118 118 118 118 118 118 118 118 118 118 117 117 117 117 117 117 117 117 117 117 117 117 117 117 117 117 117 117 117 117 117 117 117 117 117 117 117 117 117 117 117 117 117 117 117 117 117 117 117 117 117 117 117 117 117 117 117 117 117 117 117 117 117 117 118 118 117 117 117 117 117 117 117 117 117 117 117 117 117 117 117 117 117 117 118 118 118 118 118 118 118 118 118 117 117 117 117 117 117 118 117 117 118 118 118 118 118 118 119 118 119 119 119 118 118 118 118 118 118 118 119 118 118 118 118 118 118 119 118 119 118 118 118 119 119 119 119 119 119 119 119 119 119 119 119 119 119 119 119 120 120 120 120 120 120 120 120 120 120 120 120 120 120 121 121 121 121 121 121 121 122 121 122 122 122 122 122 122 122 122 123 122 122 122 123 123 123 123 123 123 123 123 123 123 124 124 124 124 124 124 124 124 124 124 124 125 125 125 125 125 125 125 125 126 125 126 126 124 126 125 126 126 126 127 126 127 127 127 127 127 128 127 127 128 128 128 128 128 128 128 128 129 129 129 129 129 129 129 129 129 130 130 131 131 130 130 130 130 130 131 131 131 131 131 131 131 132 132 132 132 132 132 132 132 132 133 134 133 133 133 133 133 133 134 134 135 135 135 134 135 135 135 136 136 137 137 137 136 137 137 138 137 137 137 137 138 139 138 138 138 138 138 138 138 139 139 140 139 139 140 139 140 140 140 140 140 140 141 141 141 141 141 142 142 142 142 142 143 143 143 143 143 144 144 144 145 145 146 146 146 146 147 147 147 147 147 148 148 148 148 148 148
128 128 128 128 128 128 128 128 128 128 128 127 127 127 127 127 127 127 127 127 127 127 126 126 126 126 126 126 126 126 126 126 126 126 126 126 125 125 125 125 125 125 125 125 125 125 125 125 124 124 124 124 124 124 124 124 124 124 124 124 123 123 123 123 123 123 123 123 123 123 123 122 123 122 122 122 122 122 122 122 122 122 121 121 121 121 121 121 121 122 121 122 121 120 120 120 120 120 120 120 120 121 120 120 120 120 119 119 119 119 119 119 119 119 119 119 119 119 119 119 119 119 118 118 118 118 118 118 118 118 118 118 118 118 118 118 118 118 118 118 118 118 118 118 118 118 118 118 117 117 117 117 117 117 117 117 117 118 117 117 117 117 117 118 118 118 118 118 118 118 118 118 118 118 118 118 118 118 118 118 118 118 118 118 118 118 118 118 118 118 118 118 118 118 118 118 118 118 118 118 118 118 118 118 119 119 118 119 118 119 119 119 119 119 119 119 119 118 118 118 118 118 118 118 118 118 118 118 118 118 119 119 118 119 120 120 120 120 120 119 119 119 119 119 119 119 119 119 119 119 119 119 119 119 119 119 119 119 119 120 120 120 120 120 120 120 120 120 120 120 120 120 120 120 120 121 121 121 122 121 121 122 121 121 121 121 121 122 121 121 122 122 122 122 122 123 123 123 123 123 123 122 122 123 123 124 124 124 124 124 124 124 124 124 124 124 124 124 125 125 125 125 125 125 125 125 125 125 126 126 126 126 125 126 126 126 126 127 127 127 127 127 127 127 128 128 128 128 128 128 127 128 128 129 129 129 129 129 129 129 129 129 130 130 130 130 130 130 130 130 131 131 131 131 131 131 131 131 131 131 132 132 132 132 132 132 132 132 132 133 133 133 133 133 133 133 133 133 134 134 134 134 134 134 135 136 136 136 136 135 137 137 137 137 136 137 137 137 138 138 138 138 139 139 139 139 138 139 139 139 140 139 139 139 140 139 140 141 140 140 140 140 141 141 141 141 141 142 142 141 142 142 143 143 143 143 144 144 144 144 144 144 145 146 146 146 147 147 147 147 148 148 148 148 148 148 148 149 149 149
129 129 129 128 128 128 128 128 128 128 128 128 128 128 128 127 127 127 127 127 127 127 127 127 127 127 127 127 126 126 126 126 126 126 126 126 126 126 126 126 124 125 125 125 125 125 125 125 125 125 125 125 124 124 124 124 124 124 124 124 124 124 124 124 123 123 123 123 123 123 123 123 123 123 123 122 122 122 122 122 122 122 123 122 122 122 121 121 121 122 122 121 121 121 121 121 121 120 120 120 120 120 120 120 120 121 120 120 120 120 120 120 119 119 119 119 119 119 119 119 119 119 119 119 119 119 119 119 119 119 119 119 118 118 118 118 118 118 118 118 118 118 118 118 118 118 118 118 118 118 118 118 118 118 118 118 118 118 118 118 118 118 118 118 118 118 118 118 118 118 118 118 118 118 118 118 118 118 118 118 118 118 118 118 118 118 118 119 119 119 119 119 119 119 119 119 119 119 119 119 119 119 119 119 120 119 119 119 119 119 119 118 119 119 118 119 119 119 119 119 119 119 120 120 120 120 120 120 120 120 120 120 120 120 120 119 119 119 119 120 119 119 119 119 119 119 119 119 120 120 119 119 119 120 120 120 120 121 120 120 120 120 120 120 120 120 120 120 120 120 120 121 121 121 121 121 121 121 121 121 121 121 121 121 121 122 122 123 123 123 123 123 123 123 122 123 123 123 124 123 124 124 124 124 124 124 124 124 124 124 124 124 124 124 125 125 125 125 125 125 125 125 125 125 126 126 126 126 126 126 126 126 126 127 127 127 126 127 127 127 127 128 128 128 128 128 128 128 128 128 129 129 129 129 129 129 129 129 130 130 130 130 130 130 130 130 130 131 131 131 131 131 131 131 131 131 131 132 132 132 132 132 132 132 132 132 133 133 133 133 133 133 133 133 133 134 134 134 134 134 134 135 136 135 135 135 135 136 137 136 137 137 136 137 137 138 138 138 138 138 139 139 139 139 139 139 139 140 139 139 139 140 141 141 140 140 140 140 140 141 141 141 141 141 142 142 142 142 142 142 143 143 143 143 144 145 145 144 144 145 146 146 146 147 147 147 147 147 148 148 148 148 148 148 149 149 149 149 149 149
129 129 129 129 129 129 129 129 129 129 129 128 128 128 128 128 128 128 128 128 128 128 127 127 127 127 127 127 127 127 127 127 127 127 126 126 126 126 126 126 126 126 126 126 125 125 125 125 125 125 125 125 125 125 125 125 125 125 125 124 124 124 124 124 124 124 124 124 123 123 123 123 123 123 123 123 123 123 123 122 122 122 122 122 122 122 122 123 123 123 122 122 121 121 121 121 121 121 121 121 121 121 121 120 120 120 120 120 120 120 120 121 120 120 120 120 120 120 120 120 120 120 120 120 119 119 119 119 119 119 119 119 119 119 119 119 119 119 119 119 119 119 119 119 119 119 119 119 119 119 119 119 119 119 119 119 119 119 119 119 119 119 119 119 119 119 119 119 119 119 119 119 119 119 119 119 119 119 119 119 119 119 119 119 119 119 119 119 119 119 119 119 120 120 120 120 120 120 120 120 120 120 120 120 120 120 120 120 120 120 120 120 120 120 120 120 120 120 120 120 120 120 120 120 119 119 119 119 119 120 119 119 119 119 119 119 119 119 119 119 121 121 121 121 121 121 120 121 120 120 120 120 120 120 120 120 120 120 120 120 120 120 120 120 121 121 121 121 121 121 121 121 121 121 121 121 121 122 122 122 122 122 122 123 123 123 123 122 123 123 123 123 124 123 123 123 124 124 124 124 124 124 124 124 123 125 124 125 125 125 125 125 125 125 125 125 125 125 126 126 126 126 126 126 126 126 127 127 127 127 127 127 127 127 127 127 128 128 128 128 128 128 128 128 129 129 129 129 129 129 129 129 130 129 129 130 130 130 130 131 130 130 131 131 131 131 131 132 131 132 132 132 132 132 132 132 132 132 132 133 133 133 133 133 133 133 133 133 133 133 134 134 134 134 134 134 134 134 136 135 135 136 136 136 137 137 137 137 137 137 137 137 137 138 138 138 138 139 139 139 139 139 139 139 140 140 139 140 140 141 141 141 140 140 140 140 141 141 141 141 142 142 142 142 142 142 143 143 143 143 143 145 145 144 144 144 145 145 146 146 147 147 147 147 147 148 148 148 148 148 149 149 149 149 149 149 149 150 150 150
130 130 130 130 129 129 129 129 129 129 129 129 129 129 129 128 128 128 128 128 128 128 128 128 128 128 127 127 127 127 127 127 127 127 127 127 127 126 126 126 126 126 126 126 126 126 126 126 126 125 125 125 125 125 125 125 125 125 125 125 125 125 125 124 124 124 124 124 124 124 124 124 124 123 123 123 123 123 123 123 123 123 122 122 122 122 122 122 122 122 122 123 123 123 123 123 122 122 122 122 121 121 121 122 121 121 121 121 121 121 121 120 120 120 120 120 120 120 121 120 120 120 120 120 120 120 120 120 120 120 120 120 120 120 120 120 120 120 120 120 120 120 120 120 119 119 119 119 119 119 119 119 119 119 119 119 119 119 120 120 119 120 119 120 120 120 120 120 120 120 120 120 120 120 120 120 120 120 120 120 120 120 120 120 120 120 120 120 120 120 120 120 120 120 120 120 120 120 120 120 120 120 120 120 120 120 120 120 120 120 120 120 120 120 121 120 120 120 120 120 120 120 121 120 121 121 120 121 121 122 121 121 121 121 121 121 121 121 121 120 120 120 120 120 120 120 120 120 120 120 121 120 121 120 121 121 121 121 121 121 121 121 121 121 121 121 121 121 121 121 121 121 121 122 122 122 122 122 122 122 122 122 122 122 122 123 123 123 123 123 124 124 123 123 124 124 124 124 124 124 125 124 125 125 124 125 125 125 125 125 125 125 125 125 126 126 126 126 126 126 126 126 126 127 127 127 127 127 127 127 127 127 127 128 128 128 128 128 128 128 128 129 129 129 129 129 129 129 129 130 130 130 130 130 130 130 131 130 130 130 131 131 131 131 132 132 131 132 132 132 132 132 132 132 132 132 132 133 133 133 133 133 133 133 133 133 134 134 134 134 134 134 134 134 134 135 135 135 135 135 136 136 137 137 137 137 138 137 138 138 138 138 139 138 138 139 139 139 139 139 140 140 140 140 140 140 141 141 141 140 140 140 142 141 141 141 141 141 142 142 142 142 142 143 143 143 143 143 144 144 144 144 145 145 145 145 146 147 147 147 147 147 148 148 148 148 148 149 149 149 150 149 149 149 150 150 150 150 150 150
130 130 130 130 130 130 130 130 130 130 129 129 129 129 129 129 129 129 129 129 129 128 128 128 128 128 128 128 128 128 128 128 127 127 127 127 127 127 127 127 127 127 127 126 126 126 126 126 126 126 126 126 126 126 126 125 125 125 125 125 125 125 125 125 125 125 125 124 124 124 124 124 124 124 124 124 124 124 124 123 123 123 123 123 123 123 123 123 123 123 122 123 122 122 122 122 122 122 122 122 121 123 122 122 121 121 122 121 122 121 121 121 121 121 121 122 121 121 122 121 121 121 121 121 121 120 121 121 120 120 120 120 120 120 120 120 120 120 120 120 120 120 120 120 120 120 120 120 120 120 120 120 120 120 120 120 120 120 120 120 120 120 120 120 120 120 120 120 120 120 120 120 120 120 120 120 120 120 120 120 120 120 120 121 121 120 120 121 121 121 121 121 121 121 121 121 121 121 121 121 121 121 121 121 121 121 121 121 121 121 121 121 121 121 121 121 121 121 120 120 121 121 121 120 120 120 120 120 120 120 121 121 120 121 121 122 122 122 122 122 122 122 122 122 122 122 121 121 121 121 121 121 121 121 121 121 121 121 121 122 121 121 122 121 121 122 122 122 122 122 122 122 122 122 122 122 122 122 123 123 124 124 123 123 123 123 124 123 123 123 123 124 124 125 124 125 125 125 125 125 125 125 125 125 124 126 125 126 126 126 126 126 126 126 126 126 126 127 127 127 127 127 127 127 127 127 127 127 128 128 128 129 128 128 128 128 129 129 129 129 129 129 129 129 129 129 130 130 130 130 130 130 130 130 131 131 131 131 131 131 132 132 132 132 132 132 132 132 132 132 133 132 132 133 133 133 133 133 133 133 133 134 134 134 134 134 134 134 134 134 135 135 135 135 135 135 136 137 137 137 136 136 138 138 138 138 138 138 138 139 140 139 139 139 139 140 140 140 140 139 140 141 141 140 140 140 141 142 141 141 141 141 141 143 143 142 142 143 143 144 143 143 143 143 144 144 144 144 144 146 146 146 145 145 146 146 147 147 147 148 148 148 148 148 149 149 149 149 150 150 150 150 150 150 150 149 151 151 151 151
131 131 131 131 130 130 130 130 130 130 130 130 130 130 129 129 129 129 129 129 129 129 129 129 129 129 128 128 128 128 128 128 128 128 128 128 127 127 127 127 127 127 127 127 127 127 127 126 126 126 126 126 126 126 126 126 126 126 126 126 125 125 125 125 125 125 125 125 125 125 125 124 124 124 124 124 124 124 124 124 124 124 124 124 123 123 123 123 123 123 123 123 123 123 123 123 123 123 122 122 122 122 122 122 122 122 123 121 123 122 122 122 122 122 122 122 122 121 122 121 122 121 121 121 121 121 121 122 121 121 122 121 121 121 121 121 121 121 121 121 121 121 121 121 121 121 121 121 121 121 121 121 121 121 121 121 121 121 121 121 121 121 121 121 121 121 121 121 121 121 121 121 121 121 121 121 121 121 121 121 121 121 121 121 121 121 121 121 121 121 121 121 121 121 121 121 121 121 121 121 121 121 121 121 121 121 121 121 121 121 121 121 121 121 121 121 121 121 121 121 121 122 122 122 122 122 122 122 122 122 122 122 122 122 122 122 122 122 122 122 121 121 121 121 121 121 121 121 121 121 121 121 122 121 122 122 122 122 122 122 122 122 122 122 122 122 122 122 122 122 122 122 122 123 123 123 123 123 123 123 123 123 123 123 123 123 123 124 125 125 125 125 125 125 125 125 125 125 125 125 126 125 126 126 126 126 126 126 126 126 126 126 126 127 127 127 127 127 127 127 127 127 127 128 128 128 129 128 128 128 128 128 128 129 129 129 129 129 129 129 129 130 130 130 130 130 130 130 130 130 131 131 131 131 131 131 132 132 132 132 132 132 132 132 132 133 133 133 133 133 133 133 133 133 133 133 134 134 134 134 134 134 134 134 134 134 135 135 135 135 135 136 136 137 137 136 136 136 136 137 138 137 138 138 138 139 139 139 139 139 139 140 140 140 140 140 140 141 141 141 141 140 140 141 141 142 141 141 141 142 142 142 142 142 143 144 144 144 143 143 143 144 144 144 144 144 145 146 146 145 145 147 147 147 147 147 148 148 148 148 149 149 149 149 149 150 150 150 150 150 150 150 151 151 151 151 150 150 151 151
131 131 131 131 131 131 131 131 131 131 130 130 130 130 130 130 130 130 130 130 130 129 129 129 129 129 129 129 129 129 129 128 128 128 128 128 128 128 128 128 128 128 127 127 127 127 127 127 127 127 127 127 126 126 126 126 126 126 126 126 126 126 126 126 126 126 126 125 125 125 125 125 125 125 125 125 125 125 124 124 124 124 124 124 124 124 124 124 124 124 124 124 124 124 123 123 123 123 123 123 123 123 123 123 123 123 123 123 122 122 122 122 122 122 121 123 122 121 123 122 122 122 122 122 122 122 122 122 122 122 122 121 122 122 122 122 121 122 122 122 122 122 122 122 122 122 122 122 122 122 122 122 122 122 122 122 122 122 122 122 122 122 122 122 122 122 122 122 122 122 122 122 122 122 122 122 122 122 122 122 122 122 122 122 122 122 122 122 122 122 122 122 122 122 122 122 122 122 122 122 122 122 122 122 122 122 122 122 122 122 122 122 122 122 122 122 122 122 122 122 122 122 122 122 122 122 122 122 122 122 121 121 122 121 121 121 121 121 121 121 122 122 122 122 122 123 123 123 123 123 123 123 123 123 122 122 122 123 122 122 122 122 123 123 124 123 124 124 124 123 123 123 123 123 123 123 123 123 123 123 124 125 124 125 125 125 125 124 124 124 124 125 125 125 125 125 125 125 126 126 126 126 126 126 126 127 127 127 127 127 127 127 127 127 127 127 127 128 128 128 128 128 128 128 128 128 128 129 129 129 129 129 129 129 129 129 130 130 130 130 130 130 130 131 131 131 131 131 131 131 131 131 132 132 132 132 132 132 132 132 132 132 133 133 133 133 133 133 133 134 134 133 134 134 134 134 134 134 134 135 135 135 135 135 135 135 135 135 136 137 137 137 137 136 136 136 138 138 138 137 137 138 138 139 139 139 139 140 140 140 140 140 140 141 141 141 141 141 141 141 141 141 142 142 142 141 142 143 142 142 142 142 144 144 144 143 143 144 144 145 144 144 144 145 145 145 145 145 145 147 147 146 145 147 148 148 148 148 149 149 149 149 150 150 149 150 150 151 151 151 151 151 151 151 152 151 152 151 151 152
132 132 132 131 131 131 131 131 131 131 131 131 131 131 130 130 130 130 130 130 130 130 130 129 129 129 129 129 129 129 129 129 129 129 129 128 128 128 128 128 128 128 128 128 128 127 127 127 127 127 127 127 127 127 127 127 127 127 126 126 126 126 126 126 126 126 126 126 126 127 126 125 125 125 125 125 125 125 125 125 125 125 125 125 124 124 125 124 124 124 124 124 124 124 124 124 124 124 124 124 124 123 123 123 123 123 123 122 123 123 123 123 123 123 123 123 123 122 123 123 123 123 123 122 122 122 122 123 122 122 123 122 123 122 122 122 122 122 122 122 122 122 122 122 122 122 122 122 122 122 122 122 122 122 122 122 122 122 122 122 122 122 122 122 122 122 122 122 122 122 122 122 122 122 122 122 122 122 122 122 122 122 122 122 122 122 122 122 122 122 122 122 122 122 122 122 122 122 122 123 122 122 122 122 122 122 122 122 122 122 122 122 122 123 123 122 122 122 122 122 122 122 122 122 122 122 122 122 123 123 123 123 123 123 123 123 123 123 123 123 123 123 123 123 123 123 122 122 122 122 123 123 123 123 124 124 123 124 124 124 123 123 124 123 124 123 123 123 123 123 123 124 123 123 124 124 124 124 124 124 124 125 124 124 124 125 124 125 125 125 126 126 126 126 126 126 126 126 126 127 127 127 127 127 127 127 127 127 127 127 127 127 127 128 128 128 128 128 128 128 128 128 128 129 129 129 129 129 129 129 129 129 130 130 130 130 130 130 130 130 130 131 131 131 131 131 131 131 131 132 132 132 132 132 132 133 132 132 132 132 133 133 133 134 133 133 133 134 134 134 135 134 134 134 134 135 135 135 135 135 135 135 135 135 135 136 136 136 136 136 136 137 137 137 138 138 138 138 138 138 139 139 139 139 139 140 140 140 140 140 140 141 141 141 141 141 142 142 142 142 142 142 142 142 142 142 142 142 143 144 144 144 143 144 145 144 144 145 145 145 145 145 145 145 146 146 147 147 147 147 147 148 148 148 149 149 149 148 149 150 150 150 150 151 151 151 151 151 151 151 151 152 152 152 152 152 152 152 152 152
132 132 132 132 132 132 132 132 132 131 131 131 131 131 131 131 131 131 131 130 130 130 130 130 130 130 130 130 130 130 129 129 129 129 129 130 129 129 129 129 129 128 128 128 128 128 128 128 128 128 128 128 127 127 127 127 127 127 127 127 127 127 127 127 127 126 126 126 126 126 126 126 126 126 126 126 126 126 126 125 125 125 125 125 125 125 125 125 125 125 125 125 125 125 125 125 124 124 124 124 124 124 124 124 124 124 124 123 124 124 124 124 124 124 124 124 124 124 124 124 123 123 123 123 123 123 123 123 123 123 123 123 123 123 123 123 123 123 123 123 123 123 123 123 123 123 123 123 123 123 123 123 123 123 123 123 123 123 123 123 123 123 123 123 123 123 123 123 123 123 123 123 123 123 123 123 123 123 123 123 123 123 123 123 123 123 123 123 123 123 123 123 123 123 123 123 123 123 123 123 123 123 123 123 123 123 123 123 123 123 123 123 123 123 123 123 123 123 123 123 123 123 122 123 123 123 123 123 123 123 122 122 123 123 124 123 123 123 124 124 124 124 124 124 124 124 124 124 124 124 124 123 123 123 123 123 123 123 123 123 123 123 124 124 125 124 125 125 124 124 124 124 124 124 124 124 124 124 125 126 126 126 126 126 125 125 126 125 125 125 125 126 126 127 127 127 127 127 127 127 127 127 127 127 127 128 128 128 128 128 128 128 128 128 128 128 128 129 129 129 129 129 129 129 129 129 130 130 130 130 130 130 130 130 130 131 131 131 131 131 131 131 131 132 132 132 132 132 132 132 132 132 133 133 133 133 133 133 133 134 134 134 134 134 133 134 134 135 135 135 135 134 135 135 135 135 135 135 135 136 136 136 136 136 136 136 137 136 137 138 137 137 137 138 139 139 138 138 138 139 140 140 140 140 140 140 140 141 141 141 141 141 141 142 142 141 142 142 143 143 143 142 142 142 143 144 144 143 143 144 145 146 144 144 145 145 146 146 145 145 145 146 146 146 147 146 148 148 148 148 148 149 149 149 149 150 150 150 150 150 151 151 151 151 151 151 151 151 151 152 151 152 152 152 153 152 153 153 153 153
133 133 133 132 132 132 132 132 132 132 132 132 132 131 131 131 131 131 131 131 131 131 131 130 130 130 130 130 130 130 130 130 130 130 129 129 129 129 129 129 129 129 129 129 129 128 128 128 128 128 128 128 128 128 128 128 128 127 127 127 127 127 127 127 127 127 127 127 127 127 126 126 126 126 126 126 126 126 126 126 126 126 126 126 126 126 126 125 125 125 125 125 125 125 125 125 125 125 125 125 125 125 125 125 125 125 125 125 124 124 124 124 124 124 124 124 124 124 124 123 124 124 124 124 123 124 123 124 124 124 124 124 124 124 124 124 124 124 124 124 124 124 124 124 124 124 124 124 124 124 124 124 124 124 124 124 124 124 124 124 124 124 124 124 124 124 124 124 124 124 124 124 124 124 124 124 124 124 124 124 124 124 124 124 124 124 124 124 124 124 124 124 124 124 124 124 124 123 123 123 124 124 123 124 124 124 124 124 124 124 124 124 124 124 124 124 124 124 124 124 124 124 124 124 124 124 124 124 124 124 124 124 124 124 124 124 124 124 124 124 124 124 124 124 123 123 123 123 123 123 123 123 124 123 124 125 125 125 125 124 124 124 125 124 124 125 124 124 124 124 124 125 125 125 125 125 125 125 125 125 125 125 125 125 125 125 125 126 127 127 127 127 127 127 127 127 127 127 128 128 128 128 128 128 128 128 128 128 128 128 128 128 129 129 129 129 129 129 129 129 129 130 130 130 130 130 130 130 130 130 130 131 131 131 131 131 131 131 131 132 132 132 132 132 132 132 132 132 133 133 133 133 133 133 133 133 134 134 134 134 134 133 134 135 135 135 135 135 134 134 134 135 135 135 135 136 136 136 136 136 136 136 136 136 137 137 137 137 137 138 138 139 139 138 138 138 139 140 140 140 140 140 141 140 141 141 141 141 141 142 142 142 142 142 143 143 143 143 143 142 143 143 144 143 143 144 144 145 144 144 144 144 146 146 145 145 145 145 146 146 146 147 147 147 148 147 147 147 148 149 149 149 149 150 150 150 150 151 151 151 151 151 151 152 152 152 152 152 152 152 153 153 153 152 153 153 153 153 154 154
134 133 133 133 133 133 133 133 133 133 132 132 132 132 132 132 132 132 131 131 131 131 131 131 131 131 131 131 131 130 130 130 130 130 130 130 130 130 130 130 129 130 129 129 129 129 129 129 129 129 129 129 128 128 128 128 128 128 128 128 128 128 128 128 128 128 128 127 127 127 127 127 127 127 127 127 127 127 127 127 127 127 127 127 126 126 126 126 126 126 126 126 126 126 126 126 126 126 126 126 126 125 125 125 125 125 125 125 125 125 125 125 125 125 125 125 125 125 125 125 125 125 125 125 125 125 125 125 125 125 125 125 125 125 125 125 125 125 125 125 125 125 125 125 125 125 125 125 125 124 124 124 124 124 124 124 124 124 124 124 124 124 124 125 124 124 124 124 124 124 124 124 124 124 124 124 124 124 124 124 124 124 124 124 124 124 124 124 124 124 124 124 124 124 124 124 124 124 124 124 124 124 124 124 124 124 124 124 124 124 124 124 124 124 124 124 124 124 124 124 124 124 124 124 124 124 124 124 124 124 124 124 124 125 125 124 123 124 124 124 125 124 125 125 124 125 125 125 124 124 125 124 125 124 125 125 124 124 124 124 124 124 125 125 126 125 126 126 126 126 125 125 125 125 126 125 125 126 126 126 126 127 127 127 127 127 127 126 127 126 126 126 126 128 128 128 128 128 128 128 128 128 128 128 129 129 129 129 129 129 129 129 129 129 130 130 130 130 130 130 130 130 130 130 131 131 131 131 131 131 131 131 131 132 132 132 132 131 132 132 132 132 132 133 133 133 133 133 133 133 133 134 134 134 134 133 134 134 135 135 135 135 135 135 135 136 135 135 135 135 136 137 136 136 136 136 136 136 137 137 137 137 137 137 137 137 139 139 139 139 138 138 139 139 140 140 140 139 141 141 141 141 141 141 141 142 142 142 142 142 143 143 143 143 143 144 143 143 143 143 144 143 145 145 145 145 145 145 146 146 145 145 145 146 147 146 146 146 146 147 148 148 148 147 149 149 149 149 149 150 150 150 150 151 151 151 151 151 152 152 152 152 152 152 153 152 152 153 153 153 153 153 153 154 154 154 154 154 155 155
134 134 134 134 134 134 133 133 133 133 133 133 133 133 132 132 132 132 132 132 132 132 131 131 131 131 131 131 131 131 131 131 131 131 130 130 130 130 130 130 130 130 130 130 130 130 129 129 129 129 129 129 129 129 129 129 129 129 128 128 128 128 128 128 128 128 128 128 128 128 128 128 128 128 128 127 127 127 127 127 127 127 127 127 127 127 127 127 127 127 127 127 127 127 127 127 126 126 126 126 126 126 126 126 126 126 126 126 126 126 126 126 126 126 126 126 126 126 126 126 126 126 126 126 126 126 125 126 125 125 125 125 125 125 125 125 125 125 125 125 125 125 125 125 125 125 125 125 125 125 125 125 125 125 125 125 125 125 125 125 125 125 125 125 125 125 125 125 125 125 125 125 125 125 125 125 125 125 125 125 125 125 125 125 125 125 125 125 125 125 125 125 125 125 125 125 125 125 125 125 125 125 125 125 125 125 125 125 125 125 125 125 125 125 125 125 125 125 125 125 125 125 125 125 125 125 125 125 125 125 125 125 125 125 125 125 125 125 125 125 125 125 125 125 124 125 124 125 125 124 125 125 125 125 125 126 125 126 126 126 126 126 126 125 125 125 125 126 125 126 126 126 127 126 126 126 127 126 126 126 126 126 126 127 126 127 127 127 127 127 128 128 128 128 128 128 128 128 128 129 129 129 129 129 129 129 129 129 129 130 130 130 130 130 130 130 130 130 130 130 131 131 131 131 131 131 131 131 131 132 132 132 132 132 132 132 132 132 132 133 133 133 133 133 133 133 133 134 134 134 134 134 134 134 135 135 135 135 135 135 135 135 136 136 135 136 136 136 136 136 136 136 137 137 137 137 137 137 137 137 137 137 137 138 138 138 138 139 139 140 140 140 140 140 140 140 141 141 141 141 141 141 142 142 142 142 142 142 143 143 143 143 144 143 143 144 144 144 144 145 145 145 145 145 146 146 146 146 145 146 146 146 147 146 147 147 147 148 147 147 148 149 149 149 149 149 150 150 150 150 151 151 151 151 151 152 152 152 152 152 152 152 153 152 153 153 154 154 153 153 154 154 154 154 154 155 155 155 155 155
134 134 134 134 134 134 134 134 134 134 134 133 133 133 133 133 133 133 133 132 132 132 132 132 132 132 132 132 132 131 131 131 131 131 131 131 131 131 131 131 130 130 130 130 130 129 130 130 130 130 130 130 130 129 129 129 129 129 129 129 129 129 129 129 129 129 129 129 129 129 128 128 128 128 128 128 128 128 128 128 128 128 128 128 128 128 128 128 127 127 127 127 127 127 127 127 127 127 127 127 127 127 127 127 127 127 127 127 127 127 127 127 127 127 127 127 127 127 127 127 126 127 126 127 126 126 126 127 126 126 126 126 126 125 126 126 126 126 126 126 126 126 126 126 126 126 126 126 126 126 126 126 126 126 126 126 126 126 126 126 126 126 126 126 126 126 126 126 126 126 126 126 126 126 126 125 125 125 125 125 125 125 125 125 125 125 125 125 125 125 125 125 125 125 125 125 125 125 125 125 125 125 125 125 125 125 125 125 125 125 125 125 125 125 125 125 125 125 125 125 125 125 125 125 125 125 125 125 125 125 125 125 125 125 125 126 125 125 126 125 126 126 126 126 126 126 126 126 125 125 126 125 125 125 125 125 125 126 125 126 127 127 127 127 127 127 126 126 126 126 126 126 126 126 127 126 127 128 128 128 127 128 128 128 127 127 128 127 127 127 128 129 129 129 129 129 129 129 129 129 129 129 130 130 130 130 130 130 130 130 130 130 130 131 131 131 131 131 131 131 131 131 132 132 132 132 132 132 132 132 132 132 132 133 133 133 133 133 133 133 133 134 134 134 134 134 134 134 134 135 135 135 135 134 135 135 136 136 136 136 136 136 136 136 136 137 136 136 136 137 137 137 137 137 137 137 138 138 138 138 139 139 139 140 140 140 140 140 139 140 141 141 141 141 141 141 141 142 142 142 142 142 142 143 143 143 143 143 143 145 144 144 144 144 144 145 145 145 145 145 146 146 146 145 145 146 146 147 146 147 147 148 148 147 147 147 147 149 148 149 149 149 149 150 150 150 150 151 151 151 151 151 152 152 152 152 153 153 153 153 153 153 153 153 154 153 153 154 154 154 154 155 155 155 155 155 156 156 156 156
135 135 135 135 135 135 134 134 134 134 134 134 134 134 134 133 133 133 133 133 133 133 133 133 132 132 132 132 132 132 132 132 132 131 131 131 131 131 131 131 131 131 131 131 131 131 130 130 130 130 130 130 130 130 130 130 130 130 130 130 129 129 129 129 129 129 129 129 129 129 129 129 129 129 129 129 129 129 129 128 128 128 128 128 128 128 128 128 128 128 128 128 128 128 128 128 128 128 128 128 128 128 128 128 128 128 128 128 127 128 127 127 127 127 127 127 127 127 127 127 127 127 127 127 127 127 126 127 127 127 127 127 127 127 127 127 127 127 127 127 127 127 127 127 127 126 127 126 127 126 126 126 126 126 126 126 126 126 126 126 126 126 126 126 126 126 126 126 126 126 126 126 126 126 126 126 126 126 126 126 126 126 126 126 126 126 126 126 126 126 126 126 126 126 126 126 126 126 126 126 126 126 126 126 126 126 126 126 126 126 126 126 126 126 126 126 126 126 126 126 126 126 126 126 126 126 126 126 126 126 126 126 126 126 126 126 126 126 126 126 126 126 126 126 126 126 125 126 126 127 127 127 127 127 127 127 127 127 126 127 126 126 126 126 126 126 127 128 128 127 128 128 128 128 128 127 127 127 127 127 127 127 127 128 128 128 129 128 129 129 129 129 129 129 128 129 129 130 130 130 130 130 130 130 130 130 130 131 131 131 131 131 131 131 131 131 131 131 132 132 132 132 132 132 132 132 132 132 132 133 133 133 133 133 133 133 134 134 134 134 134 134 134 134 134 135 135 135 135 135 136 135 135 136 136 136 136 136 136 136 137 136 137 137 137 137 137 137 137 137 137 137 137 137 138 138 138 138 138 139 140 140 140 140 139 139 140 141 141 141 141 141 141 142 142 142 142 142 142 143 143 143 143 143 143 144 144 144 144 144 144 145 145 144 144 146 146 146 146 146 146 146 146 147 147 147 147 148 148 148 148 147 148 148 149 148 148 149 148 149 150 150 150 150 151 151 151 151 151 152 152 152 152 153 153 153 153 153 153 154 154 154 154 154 154 154 154 154 155 155 155 155 155 156 156 156 156 157 157 157
136 136 136 136 135 135 135 135 135 135 135 135 134 134 134 134 133 134 134 134 134 134 133 133 133 133 133 133 133 133 133 132 132 132 132 132 132 132 132 132 132 132 131 131 131 131 131 131 131 131 131 131 131 131 131 130 130 129 130 130 130 130 130 130 130 130 130 130 130 130 130 130 130 129 129 129 129 129 129 129 129 129 129 129 129 129 129 129 129 129 129 129 129 129 129 129 129 129 129 129 129 129 129 129 128 128 128 128 128 128 128 128 128 128 128 128 128 128 128 128 128 128 128 128 128 128 128 128 128 128 128 128 128 128 128 128 128 128 128 128 127 127 128 127 127 127 127 127 127 126 127 127 127 127 127 127 127 127 127 127 127 127 127 127 127 127 127 127 127 127 127 127 127 127 127 127 127 127 127 126 127 127 127 127 127 127 127 127 127 127 126 126 126 126 126 126 126 126 126 126 126 126 126 126 126 126 126 126 126 126 126 126 126 126 126 126 126 126 126 126 126 127 127 127 127 127 127 127 127 127 127 127 127 127 127 127 127 127 127 127 127 127 127 127 127 127 127 127 127 127 126 126 126 126 126 126 126 127 127 128 127 127 128 128 128 128 128 128 128 128 127 128 127 128 129 128 129 129 129 129 129 129 129 129 128 128 129 128 130 129 130 130 130 130 130 130 130 130 130 130 131 131 131 131 131 131 131 131 131 131 131 132 132 132 132 132 132 132 132 132 132 132 133 133 133 133 133 133 133 133 134 134 134 134 134 134 134 134 135 135 134 135 135 135 135 135 135 136 136 136 137 136 136 137 137 137 137 137 137 137 137 137 138 137 137 137 137 137 138 138 138 138 138 138 138 139 140 140 139 139 139 139 140 140 140 140 141 141 141 142 142 142 142 142 143 143 143 143 143 143 143 144 144 144 144 144 145 145 145 145 145 145 146 146 146 146 146 147 147 147 147 147 147 148 147 148 148 148 147 148 149 149 149 148 151 149 149 150 150 150 150 151 151 151 152 152 152 152 152 153 153 153 153 152 153 154 153 154 154 155 155 154 154 154 155 155 155 155 155 156 156 156 156 157 157 156 157 157 158 158
136 136 136 136 136 136 136 136 135 135 135 135 135 135 135 135 135 134 134 134 134 134 134 134 134 134 134 133 133 133 133 133 133 133 133 133 132 132 132 132 132 132 132 132 133 132 132 132 131 131 131 131 131 131 131 131 131 131 132 131 131 131 131 131 130 130 130 130 130 130 130 130 130 130 130 130 130 130 130 130 130 130 130 130 130 130 130 130 129 129 130 130 130 129 129 129 129 129 129 129 129 129 129 129 129 129 129 129 129 129 129 129 129 129 129 129 129 129 129 129 129 129 129 129 129 129 129 129 129 129 128 128 128 128 128 128 128 128 128 128 128 128 128 128 128 128 128 128 128 128 128 128 128 128 128 128 128 127 127 127 127 127 127 127 127 127 127 127 127 127 127 127 127 127 127 127 127 127 127 127 127 127 127 127 127 127 127 127 127 127 127 127 127 127 127 127 127 127 127 127 127 127 127 127 127 127 127 127 127 127 127 127 127 127 127 127 127 127 127 127 127 127 127 127 127 127 127 127 127 127 127 127 127 127 127 127 127 127 127 127 127 127 128 128 128 128 128 128 128 128 128 128 128 128 128 128 128 128 128 128 128 128 128 128 128 128 129 129 128 129 129 129 129 129 129 128 129 128 129 129 128 129 129 130 130 130 130 129 130 130 130 130 130 130 130 131 131 131 131 131 131 131 131 131 131 131 132 132 132 132 132 132 132 132 132 132 133 133 133 133 133 133 133 133 133 133 134 134 134 134 134 134 134 134 134 135 135 135 135 135 135 135 135 136 136 136 136 136 136 136 137 137 137 137 137 137 137 137 138 137 137 137 137 138 138 139 138 138 138 138 138 139 139 139 139 139 139 140 140 141 141 141 141 140 141 141 141 142 142 142 142 143 143 143 143 143 144 144 144 144 144 144 144 145 145 145 145 145 145 146 146 146 146 146 147 147 147 147 147 147 148 148 148 148 148 148 148 149 148 149 149 149 150 149 150 150 150 150 150 151 151 152 152 152 152 152 152 153 153 153 153 154 154 153 154 154 154 154 154 155 155 155 155 155 155 155 156 156 156 156 157 157 157 157 157 158 158 158 158 158
137 137 137 137 136 136 136 136 136 136 136 136 136 136 136 135 135 135 135 135 135 135 135 134 134 134 134 134 134 134 134 134 134 134 133 133 133 133 133 133 133 133 133 133 133 133 132 132 132 132 132 132 132 132 132 132 132 132 132 132 131 131 131 131 131 131 131 131 131 131 131 131 132 131 131 131 131 131 131 131 131 131 130 130 130 130 130 130 130 130 130 130 130 130 130 130 130 130 130 130 130 130 130 130 130 130 130 130 130 130 130 130 130 130 130 130 130 130 130 130 130 130 130 130 130 129 129 129 129 129 129 129 129 129 129 129 129 129 129 129 129 129 129 129 129 129 129 129 129 128 128 128 128 128 128 128 128 128 128 128 128 128 128 128 128 128 128 128 128 128 128 128 129 128 128 128 128 128 128 128 128 128 128 128 128 128 128 128 127 127 128 128 128 128 128 128 128 128 128 128 128 128 128 128 128 128 128 128 128 128 128 128 128 128 128 128 128 128 128 128 128 128 128 128 128 128 128 128 128 128 128 128 128 128 128 128 128 128 128 128 128 128 128 128 128 128 128 128 128 128 129 129 129 129 129 129 129 129 129 129 129 129 129 129 129 128 129 129 129 129 129 130 130 130 130 129 130 129 130 130 129 129 129 130 130 130 131 130 131 130 130 130 131 131 131 131 132 132 132 132 132 132 132 132 132 132 132 132 132 132 133 133 133 133 133 133 133 133 133 134 134 134 134 134 134 134 134 134 135 135 135 135 135 135 135 135 135 136 136 136 137 136 136 136 137 137 137 137 137 137 137 137 139 138 138 138 138 138 138 138 138 138 138 138 138 139 138 139 139 139 139 139 139 140 140 140 140 140 140 142 142 142 142 141 141 141 143 143 143 143 143 143 144 144 144 144 144 144 145 145 145 145 145 146 146 146 146 146 146 146 147 147 147 147 147 148 148 148 148 148 148 149 149 149 149 149 150 150 149 150 150 151 151 151 150 151 152 151 151 152 152 152 153 153 153 153 153 154 154 154 154 154 155 155 155 155 155 155 155 155 155 156 156 156 156 157 157 157 157 157 157 158 158 158 158 158 159 159 159 159
138 137 137 137 137 137 137 137 137 137 136 136 136 136 136 136 136 136 136 136 135 135 135 135 135 135 135 135 135 134 134 134 134 134 134 134 134 134 134 134 134 133 133 133 133 133 133 133 133 133 133 133 133 132 132 132 132 132 132 132 132 132 132 132 132 132 132 132 132 132 132 132 132 131 131 131 131 131 131 131 131 131 131 131 131 131 131 131 131 131 131 131 131 131 131 131 131 131 131 131 131 131 131 131 131 130 130 130 130 130 130 130 130 130 130 130 130 130 130 130 130 130 130 130 130 130 130 130 130 130 130 130 130 130 130 130 130 130 130 129 129 129 129 129 129 129 129 129 129 129 129 129 129 129 129 129 129 129 129 129 129 129 128 129 129 128 128 128 128 128 128 128 128 128 128 128 128 128 128 128 128 128 128 128 128 128 128 128 127 128 128 128 128 128 128 128 128 128 128 128 128 128 128 128 128 128 128 128 128 128 128 128 128 128 128 128 128 128 128 128 128 128 128 128 128 128 128 128 128 128 128 128 128 128 128 128 128 129 128 129 129 129 129 129 129 129 129 129 129 129 129 129 129 129 129 129 129 129 129 129 129 129 130 130 130 130 130 130 130 130 129 130 129 129 129 129 130 129 130 131 131 131 131 131 130 130 131 130 131 130 132 132 132 132 132 131 132 132 132 132 132 132 132 132 132 133 133 133 133 133 133 133 133 133 134 134 133 134 134 134 134 134 135 135 135 135 135 135 135 135 135 135 136 136 136 136 136 136 136 136 137 137 137 137 137 137 137 137 138 138 138 138 138 138 138 139 139 139 138 138 138 138 139 139 139 139 139 140 140 140 140 140 140 140 141 141 142 142 141 142 141 142 142 143 143 143 143 143 144 144 144 144 144 144 145 145 145 145 145 145 146 146 146 146 146 146 146 147 147 147 147 147 148 148 148 148 148 149 149 149 149 149 150 150 150 150 150 150 151 151 151 151 150 152 151 152 152 151 153 153 153 153 153 154 154 154 154 154 155 155 155 155 155 155 155 155 155 156 155 156 156 156 156 157 157 157 157 157 158 158 158 158 159 159 159 159 159 160 160 160
138 138 138 138 138 138 138 138 138 137 138 137 137 137 137 137 137 136 136 136 136 136 136 136 136 136 136 136 135 135 135 135 135 135 135 135 135 135 135 134 134 134 134 134 134 134 134 134 134 134 134 134 134 133 133 133 133 133 133 133 133 133 133 133 133 133 133 133 133 133 133 132 132 132 132 132 132 132 132 132 132 132 132 132 132 132 132 132 132 132 132 132 132 132 132 132 133 132 132 133 132 132 132 131 131 132 131 131 131 131 131 131 131 131 131 131 131 131 131 131 131 131 131 131 131 131 131 131 131 131 131 131 131 130 130 130 130 130 130 130 130 130 130 130 130 130 130 130 130 130 130 130 130 130 129 129 129 129 129 129 129 129 129 129 129 129 129 129 129 129 129 129 129 129 129 129 129 129 129 129 129 129 129 129 129 129 129 129 129 129 129 129 129 129 129 129 129 129 129 129 129 129 129 129 129 129 129 129 129 129 129 129 129 129 129 129 129 129 129 129 129 129 129 129 129 129 129 129 129 129 129 129 129 129 129 129 129 129 129 129 129 129 129 129 129 130 130 130 130 130 130 130 130 130 130 130 130 130 130 130 130 130 130 130 130 129 130 131 130 130 130 131 131 131 131 131 131 130 131 131 130 132 131 132 132 132 132 132 132 131 132 132 132 132 132 133 133 133 133 133 133 133 133 133 133 134 134 134 134 134 134 134 134 134 134 135 135 135 135 135 135 135 135 135 135 135 136 136 136 136 136 135 136 137 137 137 137 137 137 137 137 138 138 138 138 138 138 138 138 139 139 139 139 139 139 139 140 140 140 139 139 139 140 140 140 141 140 140 140 140 140 141 142 142 141 141 141 143 143 143 143 143 143 144 144 144 144 144 144 145 145 145 145 145 145 145 146 146 146 146 146 147 147 148 147 147 147 148 148 148 148 148 149 149 149 149 149 149 150 150 150 150 150 150 150 151 151 150 152 151 152 152 151 152 152 152 153 153 153 153 154 154 154 154 155 155 155 155 155 156 155 155 156 156 156 156 156 156 156 157 157 157 157 158 158 158 158 158 159 159 159 159 160 160 160 160 160 161 161 161
139 139 139 139 138 138 138 138 138 138 138 138 138 137 137 137 137 137 137 137 137 137 136 136 137 136 136 136 136 136 136 136 136 136 136 135 135 135 135 135 135 135 135 135 135 135 135 134 134 134 134 134 134 134 134 134 134 134 134 134 134 134 134 133 133 133 133 133 133 133 133 133 133 133 133 133 133 133 133 133 133 132 133 133 133 133 133 133 133 133 133 133 133 132 132 132 132 132 132 132 132 132 132 132 132 132 132 132 132 132 132 132 132 132 132 132 132 132 132 132 132 132 132 131 131 131 131 131 131 131 131 131 131 131 131 131 131 131 131 131 131 131 131 131 130 130 130 130 130 130 130 130 130 130 130 130 130 130 130 130 130 130 130 130 130 130 129 129 129 129 129 129 129 129 129 129 129 129 129 129 129 129 129 129 129 129 129 129 129 129 129 129 129 129 129 129 129 130 129 129 129 129 129 129 129 129 129 129 129 129 129 129 129 129 129 129 129 129 129 129 129 129 129 129 129 129 129 130 129 130 130 130 130 130 130 130 130 130 130 130 130 130 130 130 130 130 130 130 130 130 130 130 130 130 130 130 130 131 131 131 131 131 131 131 131 131 131 131 131 131 131 131 131 132 132 131 132 132 132 132 132 132 132 132 131 131 132 132 132 132 133 133 132 133 133 133 133 133 133 133 133 134 134 134 134 134 134 134 134 134 135 135 135 135 135 135 135 135 135 135 136 136 136 136 136 136 136 136 136 137 137 137 137 137 137 137 137 138 138 138 138 138 138 138 138 139 139 139 139 139 139 139 140 140 140 140 139 140 140 140 141 140 140 140 141 141 141 141 141 141 141 141 142 143 143 143 143 143 143 144 144 144 144 144 144 145 145 145 145 145 145 146 146 146 146 146 146 146 147 147 147 147 147 148 148 148 148 148 148 149 149 149 149 149 150 150 150 150 150 150 151 151 152 151 151 152 152 151 151 152 152 153 152 153 153 154 154 153 154 154 155 155 155 155 155 156 156 156 155 155 156 156 156 156 156 156 157 157 157 157 158 158 158 158 159 159 159 159 159 160 160 160 160 160 161 161 161 161 162 162
140 140 139 139 139 139 139 139 139 139 139 139 138 138 138 138 138 138 138 138 138 137 137 137 137 137 137 137 137 137 137 137 137 136 136 136 136 136 136 136 136 136 136 137 136 136 135 135 135 135 135 135 135 135 135 135 135 135 135 135 135 135 135 134 134 134 134 134 134 134 134 134 134 134 134 134 134 134 134 134 134 134 134 133 133 133 133 133 133 133 133 133 133 133 133 133 133 133 133 133 133 133 133 133 133 133 133 133 133 133 133 133 133 133 133 133 133 133 132 132 132 132 132 132 132 132 132 132 132 132 132 132 132 132 132 132 132 132 132 131 131 131 131 131 131 131 131 131 131 131 131 131 131 131 131 131 131 131 130 130 130 130 130 130 130 130 130 130 130 130 130 130 130 130 130 130 130 130 130 130 130 130 130 130 130 130 130 130 130 130 130 130 130 130 130 130 130 130 130 130 130 130 130 130 130 130 130 130 130 130 130 130 130 130 130 130 130 130 130 130 130 130 130 130 130 130 130 130 130 130 130 130 130 130 130 130 130 131 131 131 131 131 131 131 131 131 131 131 131 131 131 131 131 131 131 131 131 131 131 131 131 131 132 132 132 132 132 132 132 132 131 132 131 131 132 131 132 132 133 133 133 133 133 133 132 132 133 133 133 133 133 133 134 134 134 134 134 134 134 134 134 134 135 135 135 135 135 135 134 134 135 134 136 137 135 135 136 136 136 136 136 136 137 137 137 137 137 137 137 137 137 138 138 138 138 138 138 138 139 139 139 139 139 139 139 139 140 140 140 140 140 140 140 141 141 141 140 140 140 140 141 141 141 141 141 141 141 142 143 143 143 142 143 143 144 144 144 144 144 145 145 145 145 145 145 145 146 146 146 146 146 146 147 147 147 147 147 147 148 148 148 148 148 148 149 149 149 149 149 149 150 150 150 150 150 151 151 151 151 151 152 152 152 152 152 152 153 152 153 152 152 153 153 154 154 154 154 155 155 155 156 156 156 156 156 156 156 156 156 156 157 157 157 157 157 157 158 158 158 158 159 159 159 159 159 160 160 160 160 160 161 161 161 161 162 161 162 162 162 163
140 140 140 140 140 140 140 140 139 139 139 139 139 139 139 139 139 138 138 138 138 138 138 138 138 138 138 138 138 138 137 137 137 137 137 137 137 137 137 137 137 136 136 136 136 136 136 136 136 136 136 136 136 136 136 136 136 135 135 135 135 135 135 135 135 135 134 135 135 135 135 135 135 135 135 135 135 135 135 134 134 134 134 134 134 134 134 134 134 134 134 134 134 134 134 134 134 134 134 134 134 134 134 134 134 134 133 133 133 133 133 133 133 133 133 133 133 133 133 133 133 133 133 133 133 133 133 133 133 133 133 132 132 132 132 132 132 132 132 132 132 132 132 132 132 132 132 132 132 131 131 131 131 131 131 131 131 131 131 131 131 131 131 131 131 131 131 131 131 131 131 131 131 131 131 132 131 131 131 131 131 131 131 131 131 131 131 131 130 131 130 131 129 130 130 130 130 131 131 131 131 131 131 131 131 131 131 131 131 131 131 131 131 131 131 131 131 131 131 131 131 131 131 131 131 131 131 131 131 131 131 131 131 131 131 131 131 131 131 131 131 131 131 131 131 131 132 131 132 131 131 132 132 132 132 132 132 132 132 132 132 132 132 132 132 132 132 132 132 132 132 132 132 132 133 133 133 133 133 133 132 133 133 133 133 134 134 134 134 133 134 134 134 134 134 135 135 135 135 135 135 135 135 135 135 135 135 135 136 136 136 136 136 136 136 137 137 137 137 137 137 137 137 137 137 137 138 138 138 138 138 138 138 139 139 139 139 139 139 139 139 140 140 140 140 140 140 140 141 141 141 141 140 141 141 141 142 142 142 142 141 141 142 142 142 143 142 142 142 143 144 144 144 144 144 145 145 145 145 145 145 145 146 146 146 145 145 146 147 147 147 147 146 147 148 148 148 148 148 148 149 149 149 149 149 149 150 150 150 150 150 151 151 151 151 151 152 152 152 152 152 152 152 153 153 153 152 153 153 153 153 154 154 155 155 155 155 155 156 155 156 156 157 157 157 156 156 157 157 157 157 157 158 158 158 158 158 159 159 159 159 160 160 160 160 160 161 161 161 161 161 162 162 162 162 162 163 163 163 164
141 141 141 141 141 140 140 140 140 140 140 140 140 140 140 140 140 139 139 139 139 139 139 139 139 139 139 139 139 138 138 138 138 138 138 138 138 138 138 138 138 138 137 137 137 137 137 137 137 137 137 137 137 137 137 137 137 137 136 136 136 136 136 136 136 136 136 136 136 137 136 136 136 136 136 136 136 136 136 136 135 135 135 135 135 135 135 135 135 135 135 135 135 135 135 135 135 135 135 135 135 135 135 135 135 135 134 134 134 134 134 134 134 134 134 134 134 134 134 134 134 134 134 134 134 133 133 133 133 133 133 133 133 133 133 133 133 133 133 133 133 133 133 133 132 132 132 132 132 132 132 132 132 132 132 132 132 132 132 132 132 132 132 132 132 132 131 131 131 132 131 132 131 131 131 131 131 131 131 131 131 131 131 131 131 131 131 131 131 131 131 131 131 131 131 131 131 131 131 131 131 131 131 131 131 131 131 131 131 131 131 131 131 131 131 131 132 131 132 131 132 131 131 132 131 132 132 132 132 132 132 132 132 132 132 132 132 132 132 132 132 132 132 132 132 132 132 132 132 132 132 132 132 132 132 132 132 133 133 133 133 133 133 133 133 133 133 133 133 133 133 133 133 133 134 134 134 134 134 134 134 134 134 134 134 135 134 135 135 135 135 135 135 135 135 135 135 135 135 136 136 136 136 136 136 136 136 136 136 137 137 137 137 137 137 137 137 137 137 138 138 138 138 138 138 138 139 139 139 139 139 139 139 139 140 140 140 140 140 140 140 140 140 141 141 141 141 141 141 141 142 142 142 142 141 141 141 142 143 142 142 142 142 142 143 144 144 144 144 144 145 145 145 145 145 145 145 146 146 146 146 146 146 147 147 147 147 147 147 148 148 148 148 148 148 149 149 149 149 149 150 150 150 150 150 150 151 151 151 151 151 151 152 152 152 152 153 153 153 153 153 153 152 154 154 153 154 154 154 154 154 155 155 155 155 155 155 156 157 156 157 156 157 157 157 157 157 158 158 158 158 158 159 159 159 159 159 160 160 160 160 160 161 161 161 161 162 162 162 162 162 163 163 163 163 163 164 164 164 164
141 141 141 141 141 141 141 141 141 141 141 141 140 140 140 140 140 140 140 140 140 140 140 140 140 140 139 139 139 139 139 139 139 140 139 139 139 139 139 138 138 139 139 139 138 138 138 138 138 138 138 138 138 138 138 138 137 137 137 137 137 137 137 137 137 137 137 137 137 137 137 137 136 136 136 136 136 136 136 136 136 136 136 136 136 136 136 136 136 136 136 136 136 136 136 135 135 135 135 135 135 135 135 135 135 135 135 135 135 135 135 135 135 135 135 135 135 135 135 134 134 134 134 134 134 134 134 134 134 134 134 134 134 133 133 133 133 133 133 133 133 133 133 133 133 133 133 133 133 133 133 133 133 133 132 132 132 132 132 132 132 132 132 132 132 132 132 132 132 132 132 132 132 132 132 132 132 132 132 132 132 132 132 132 132 132 132 132 132 132 132 132 131 132 132 132 132 132 132 132 132 132 132 132 132 132 132 132 132 132 132 132 132 132 132 132 132 132 132 132 132 132 132 132 132 132 132 132 132 132 132 132 132 132 132 132 132 132 132 132 133 132 133 132 133 133 133 133 132 133 133 133 133 133 133 133 133 133 133 133 133 133 133 133 133 133 134 134 134 134 134 134 134 134 134 134 134 134 135 135 135 135 135 135 135 135 135 135 135 134 135 135 136 136 136 136 136 136 136 136 136 136 137 137 137 137 137 137 137 137 137 137 137 137 138 138 138 138 138 138 138 139 139 139 139 139 139 139 139 139 140 140 140 140 140 140 140 140 141 141 141 141 141 141 141 141 142 142 142 142 142 142 141 142 142 142 142 142 143 142 144 144 144 144 144 144 144 145 145 145 145 145 146 146 146 146 146 146 146 146 147 147 147 147 147 148 148 148 148 148 148 149 149 149 149 149 150 150 150 150 150 150 150 151 151 151 151 151 152 152 152 152 152 153 153 153 153 153 154 154 154 154 154 155 155 154 154 154 155 156 156 155 155 156 156 157 157 157 157 157 157 157 157 157 158 158 158 158 158 159 159 159 159 160 160 160 161 160 160 161 161 161 161 162 162 162 162 162 163 163 163 163 164 164 164 164 165 165 165 165
142 142 142 142 142 142 142 142 142 141 141 141 141 141 141 141 141 141 141 141 141 141 141 141 140 140 140 140 140 140 140 140 140 140 140 141 140 140 140 140 139 138 139 139 139 139 140 139 139 139 139 139 139 139 139 139 138 138 138 138 138 138 138 138 138 138 138 138 138 138 138 138 138 138 138 138 137 137 137 137 137 137 137 137 137 137 137 137 137 137 137 137 136 136 136 136 136 136 136 136 136 136 136 136 136 136 136 136 136 136 136 136 135 135 135 135 135 135 135 135 135 135 135 135 135 135 135 135 135 135 135 135 134 134 134 134 134 134 134 134 134 134 134 134 135 134 134 134 133 133 133 133 133 133 133 133 133 133 133 133 133 133 133 133 133 133 133 133 132 133 132 132 133 133 132 132 132 132 132 132 132 132 132 132 132 132 132 132 132 132 132 132 132 132 132 132 132 132 132 132 132 132 132 132 132 132 133 133 133 133 133 133 133 133 133 133 133 133 133 133 133 133 133 133 133 133 133 133 133 133 133 133 133 133 133 133 133 133 133 133 133 133 133 133 133 133 133 134 134 134 134 134 134 134 134 134 134 134 134 134 134 134 134 134 134 134 135 135 135 135 135 135 135 135 135 135 135 135 135 135 135 136 136 136 136 136 136 136 136 136 136 136 137 137 137 137 137 137 137 137 137 137 137 137 137 138 138 138 138 138 138 138 138 139 139 139 139 139 139 139 139 139 140 140 140 140 140 140 140 140 140 141 141 141 141 141 141 141 141 142 142 142 142 142 142 142 142 142 142 142 142 142 142 143 143 143 143 143 144 143 144 145 145 145 145 145 145 145 146 146 146 146 146 146 147 147 147 147 147 147 148 148 148 148 148 149 149 149 149 149 149 150 150 150 150 150 150 151 151 151 151 151 152 152 152 152 152 152 153 153 153 153 153 154 154 154 154 153 154 155 154 155 154 155 155 155 155 155 156 156 156 156 157 157 157 157 157 157 157 158 158 158 158 158 159 159 159 159 159 160 160 160 160 161 161 161 161 161 162 162 162 162 162 163 163 163 163 163 164 164 164 164 165 166 165 165 165 166 166 166
143 143 143 143 143 143 143 142 142 142 142 142 142 142 142 142 142 142 142 142 141 141 141 141 141 141 141 141 141 141 141 141 141 140 140 140 140 140 140 140 140 140 140 140 140 140 140 140 140 140 140 139 139 139 139 139 139 139 139 139 139 139 139 139 139 139 139 139 139 139 138 139 138 138 138 138 138 138 138 138 138 138 138 138 138 138 138 138 138 138 137 137 137 137 137 137 137 137 137 137 137 137 137 137 137 136 136 136 136 136 136 136 136 136 136 136 136 136 136 136 136 136 136 135 135 135 135 135 135 135 135 135 135 135 135 135 135 135 135 134 134 134 134 134 134 134 134 134 134 134 134 134 134 134 134 134 134 134 134 133 133 133 133 133 133 133 133 133 133 133 133 133 133 134 133 133 133 133 133 133 133 133 133 133 133 133 133 133 133 133 133 133 133 133 133 133 133 133 133 133 133 133 133 133 133 133 133 133 133 133 133 133 133 133 133 133 133 133 133 133 133 134 133 133 134 133 133 133 133 133 133 134 134 133 134 135 134 134 134 134 134 134 134 134 134 134 134 134 134 134 134 134 134 134 135 135 135 135 135 135 135 135 135 135 135 135 135 135 135 135 135 135 135 136 135 136 136 136 136 136 136 136 136 136 136 137 137 137 137 137 137 137 137 137 137 137 137 137 138 138 138 138 138 138 138 138 138 138 139 139 139 139 139 139 139 139 139 140 140 140 140 140 140 140 140 140 141 141 141 141 141 141 141 141 141 142 142 142 142 142 142 142 142 142 142 142 142 142 142 143 143 143 143 143 144 145 145 145 145 144 145 144 145 146 146 146 146 146 146 147 147 147 147 147 147 148 148 148 148 148 148 149 149 149 149 149 149 150 150 150 150 150 150 151 151 151 151 151 151 152 152 152 152 152 152 153 153 153 153 153 154 154 154 154 154 154 155 155 155 155 155 155 155 155 155 155 157 156 157 157 157 157 157 157 157 157 158 158 158 158 158 159 159 159 159 160 160 160 160 160 161 161 161 161 161 162 162 162 162 162 163 163 163 163 163 164 164 164 164 165 165 165 165 165 166 166 166 166 167 167
144 144 144 144 144 144 144 143 143 143 143 143 143 143 143 143 143 143 143 143 143 142 142 142 142 142 142 142 142 142 142 142 142 142 141 141 141 141 141 141 142 141 141 141 141 141 141 142 141 141 141 141 141 140 141 140 140 140 140 140 140 140 140 140 140 140 140 140 140 140 140 140 139 139 139 139 139 139 139 139 139 139 139 139 139 139 139 139 139 138 138 138 138 138 138 138 138 138 138 138 138 138 138 138 137 137 137 137 137 137 137 137 137 137 137 137 137 137 136 136 136 136 136 136 136 136 136 136 136 136 136 136 136 136 136 136 135 135 135 135 135 135 135 135 135 135 135 135 135 135 135 135 134 134 134 134 134 134 134 134 134 134 134 134 134 134 134 134 134 134 134 134 134 134 134 134 134 134 134 134 134 134 134 134 134 134 134 134 134 134 134 134 134 134 134 134 134 134 134 134 134 134 134 134 134 134 134 134 134 134 134 134 134 134 134 134 134 134 134 134 134 134 134 134 134 134 134 134 134 134 134 135 135 134 134 135 135 135 135 135 135 135 135 135 135 135 135 135 135 135 135 135 135 135 135 135 135 135 135 135 136 136 136 137 136 136 136 136 136 136 136 136 136 136 136 136 136 137 137 137 137 137 137 137 137 137 137 137 138 138 138 138 138 138 138 138 138 138 139 139 139 139 139 139 139 139 139 139 140 139 140 140 140 140 140 140 140 140 141 141 141 141 141 141 141 141 142 142 142 142 142 142 142 142 142 142 142 142 142 142 142 142 142 143 143 143 143 143 143 144 144 144 144 144 144 144 145 145 146 145 146 146 146 147 147 147 147 147 147 147 148 148 148 148 148 148 149 149 149 149 149 149 150 150 150 150 150 150 151 151 151 151 151 152 152 152 152 152 153 153 153 153 153 153 153 154 154 154 154 154 155 155 155 155 155 155 155 155 155 155 156 156 156 156 156 157 157 158 157 157 157 158 158 158 158 159 159 159 159 159 160 160 160 160 160 161 161 161 161 162 162 161 162 162 162 163 164 163 163 164 164 164 164 164 165 165 165 165 165 166 166 166 167 166 167 167 167 167 168 168
145 145 145 144 144 144 144 144 144 144 144 144 144 144 144 144 144 143 143 143 143 143 143 143 143 143 143 143 143 143 143 143 142 143 143 142 142 142 142 142 142 142 142 142 142 142 142 142 142 142 141 141 141 141 141 141 141 141 141 142 141 141 141 141 141 141 141 141 141 140 140 140 140 140 140 140 140 140 140 140 140 140 140 140 139 139 139 139 139 139 139 139 139 139 139 139 139 139 139 139 139 138 138 138 138 138 138 138 138 138 138 138 138 138 138 138 137 137 137 137 137 137 137 137 137 137 137 137 137 136 136 136 136 136 136 136 136 136 136 136 136 136 136 136 136 136 136 135 135 135 135 135 135 135 135 135 135 135 135 135 135 135 135 135 135 135 135 135 134 134 134 134 134 134 134 134 134 134 134 134 134 134 134 134 134 134 134 134 134 134 134 134 134 134 134 134 134 134 134 134 134 134 134 134 134 134 134 134 134 134 134 134 134 134 134 134 134 135 135 135 135 135 135 135 135 135 135 135 135 135 135 135 135 135 135 135 135 135 135 135 135 135 135 135 135 135 135 136 136 136 136 136 136 136 136 136 136 136 136 136 136 136 136 136 136 136 137 137 138 137 137 137 137 137 137 137 137 137 137 137 137 137 137 138 138 138 138 138 138 138 138 138 138 139 139 139 139 139 139 139 139 139 140 140 140 140 140 140 140 140 140 140 141 141 141 141 141 141 141 141 141 142 142 142 142 142 142 142 142 142 142 142 142 142 142 142 143 143 143 143 143 143 143 143 143 144 144 144 145 144 145 145 145 146 146 146 146 146 147 147 147 147 147 147 148 148 148 148 148 148 148 148 149 149 149 149 149 149 150 150 150 150 150 151 151 151 151 151 152 152 152 152 152 152 152 153 153 153 153 153 154 155 154 154 154 154 155 155 155 155 155 155 155 155 155 155 156 156 156 156 156 157 157 157 157 157 157 158 158 158 158 159 159 159 159 159 160 160 160 160 160 161 161 161 161 161 162 162 162 162 162 163 163 163 163 163 164 164 164 164 164 165 165 165 165 165 166 166 166 166 167 167 167 167 167 168 168 168 168 168
146 146 145 145 145 145 145 145 145 145 146 145 145 145 145 145 145 144 144 144 144 144 144 144 144 144 144 144 144 145 144 144 144 144 144 144 144 143 143 143 143 143 143 143 143 143 143 143 143 143 143 143 143 143 142 142 142 142 142 142 142 142 142 142 142 142 142 141 141 141 141 141 141 141 141 141 141 141 141 141 141 141 141 141 140 140 140 140 140 140 140 140 140 140 140 140 140 140 139 139 139 139 139 139 139 139 139 139 139 139 139 139 139 138 138 138 138 138 138 138 138 138 138 138 138 138 138 138 137 137 137 137 137 137 137 137 137 137 137 137 137 137 137 137 136 136 136 136 136 136 136 136 136 136 136 136 136 136 136 136 136 136 136 136 136 136 136 136 135 135 135 135 135 135 135 135 135 135 135 135 135 135 135 135 135 135 135 135 135 135 135 135 135 135 135 135 135 135 135 135 135 135 135 135 135 135 135 135 135 135 135 135 135 135 135 135 135 136 136 136 136 136 136 136 136 136 136 136 136 136 136 136 136 136 136 136 136 136 136 136 136 136 136 136 136 136 136 137 137 137 137 137 137 137 137 137 137 137 137 137 137 137 137 137 137 137 137 137 137 137 137 138 138 139 138 138 138 138 138 138 138 138 138 138 139 139 139 139 139 139 139 139 140 140 140 140 140 140 140 140 140 140 140 140 141 141 141 141 141 141 141 141 141 142 142 142 142 142 142 142 142 142 142 142 143 142 142 142 142 142 143 143 143 143 143 143 143 143 144 144 144 144 144 144 145 146 146 145 145 145 146 146 147 147 147 147 147 147 147 148 148 148 148 148 148 149 149 149 149 149 149 150 150 150 150 150 150 150 150 151 151 151 152 152 152 152 152 152 152 153 153 153 153 153 153 154 154 154 154 154 155 155 155 155 155 155 155 156 155 155 155 156 156 156 157 156 157 157 157 157 157 157 158 158 158 158 159 159 159 159 159 159 160 160 160 160 160 161 161 161 161 162 162 162 162 162 163 163 163 163 163 164 164 164 164 164 165 165 165 165 165 166 166 166 166 167 167 167 167 167 168 168 168 168 168 169 169 169 169 169
147 147 147 147 147 147 146 146 146 146 146 146 147 146 146 146 145 145 145 146 145 145 145 145 145 145 145 145 145 145 145 145 145 144 144 144 144 144 144 144 144 144 144 144 144 144 144 144 145 144 144 143 143 143 143 143 143 143 143 143 143 143 143 143 143 143 142 142 142 142 142 142 142 142 142 142 142 142 142 142 142 141 141 141 141 141 141 141 141 141 141 141 141 141 141 140 140 140 140 140 140 140 140 140 140 140 140 140 140 139 139 139 139 139 139 139 139 139 139 139 139 139 139 139 139 138 138 138 138 138 138 138 138 138 138 138 138 138 137 137 137 137 137 137 137 137 137 137 137 137 137 137 137 137 137 137 136 136 136 137 136 136 136 136 136 136 136 136 136 136 136 136 136 136 136 136 136 136 136 136 136 136 136 136 136 136 136 136 136 136 136 136 136 136 136 136 136 136 136 136 136 136 136 136 136 136 136 136 136 136 136 136 136 136 136 136 136 136 136 136 136 136 136 136 136 136 136 136 136 136 136 137 136 137 137 137 137 137 137 137 137 137 137 137 137 137 137 137 137 137 137 137 137 137 137 137 137 138 138 138 138 138 138 138 138 138 138 138 138 138 138 138 138 138 138 138 139 139 139 139 139 139 139 139 139 139 140 140 140 140 140 140 140 140 140 140 140 141 141 141 141 141 141 141 141 141 141 142 142 142 142 142 142 142 142 142 143 143 143 143 142 142 142 142 142 143 143 143 143 143 143 143 143 144 144 144 144 144 145 145 145 145 145 145 145 146 146 147 147 147 147 147 147 147 148 148 148 148 148 148 148 149 149 149 149 149 149 150 150 149 149 150 150 150 150 150 151 151 152 152 152 152 152 152 152 153 153 153 153 153 153 154 154 154 154 154 155 155 155 155 155 155 155 156 155 155 155 156 156 156 156 157 157 157 157 157 157 157 158 158 158 158 159 159 159 159 159 160 160 160 160 160 161 161 161 161 161 161 162 162 162 162 163 163 163 163 163 164 164 164 164 164 165 165 165 165 165 166 166 166 166 166 167 167 168 167 167 168 168 168 168 169 169 169 169 170 170 170 170 170
148 147 147 148 147 148 147 148 148 147 148 148 146 147 147 147 146 147 146 147 147 146 146 146 147 146 146 147 146 146 146 146 145 145 146 145 146 145 145 145 145 145 145 145 145 145 146 145 145 145 145 146 144 144 144 144 144 144 144 144 144 144 144 144 144 144 144 143 143 143 143 143 143 143 143 143 143 143 143 143 143 142 142 142 142 142 142 142 142 142 142 142 142 142 141 141 141 141 141 141 141 141 141 141 141 141 141 140 140 140 140 140 140 140 140 140 140 140 140 140 139 139 139 139 139 139 139 139 139 138 139 139 139 139 139 139 138 138 138 138 138 138 138 138 138 138 138 138 138 138 138 138 138 138 137 137 137 137 137 137 137 137 137 137 137 137 137 137 137 137 137 137 137 137 137 137 137 137 136 137 138 136 137 136 137 136 136 137 137 137 137 137 137 136 137 137 136 137 137 137 137 137 137 137 137 137 137 137 137 137 137 137 137 137 137 137 137 137 137 137 137 137 137 137 137 137 137 137 137 137 137 137 137 137 137 138 137 138 138 138 138 138 138 138 138 138 138 138 138 138 138 138 138 138 138 138 138 138 138 138 138 139 139 139 139 139 139 139 139 139 139 139 139 139 139 139 139 139 140 140 140 140 140 140 140 140 140 141 141 141 141 141 141 141 141 141 141 141 142 143 142 142 142 142 142 141 142 142 143 143 143 143 143 143 143 143 143 143 143 143 143 143 143 143 144 144 144 144 144 144 144 143 144 145 145 145 145 145 145 145 145 146 146 147 147 147 147 148 148 148 148 148 148 148 149 149 149 149 149 150 149 150 150 150 151 150 151 151 151 151 151 151 151 151 152 152 152 152 152 152 153 153 153 153 154 154 154 154 154 154 154 155 155 155 155 155 155 155 155 155 155 156 156 156 156 156 156 157 157 157 157 157 157 159 158 158 158 159 159 159 159 159 160 160 160 160 159 161 161 161 161 161 162 162 162 162 162 161 163 163 163 163 164 164 164 164 164 165 165 165 165 166 166 166 167 166 166 167 167 167 167 167 169 168 168 168 168 169 169 169 169 170 170 170 170 170 171 171 171 171
149 149 149 149 149 149 149 149 149 148 148 148 148 148 148 148 148 148 147 148 148 147 148 147 148 147 147 147 147 148 146 147 147 146 146 146 146 146 146 146 146 147 146 146 147 146 146 145 146 146 145 146 145 146 146 146 146 145 146 145 145 145 145 144 145 145 144 145 145 144 145 144 144 144 144 144 144 144 143 143 143 143 143 143 143 143 143 143 143 143 143 142 142 142 142 142 142 142 142 142 142 142 142 141 141 141 141 141 141 141 141 141 141 141 141 141 140 140 140 140 140 140 140 140 140 140 140 140 140 140 140 139 139 139 139 139 139 139 139 139 139 139 139 139 139 139 139 139 138 139 138 138 138 138 138 138 138 138 138 138 138 138 138 138 138 138 138 138 138 138 138 137 138 137 137 137 137 137 137 137 137 137 137 137 137 137 137 137 137 137 137 137 137 137 137 137 137 137 137 137 137 137 137 137 137 137 137 137 137 137 137 138 137 137 137 137 137 137 138 138 138 138 138 138 138 138 138 138 138 138 138 138 138 138 138 138 138 138 138 138 138 138 138 139 139 139 139 139 139 139 139 139 139 139 139 139 139 139 139 139 139 139 139 139 139 139 139 139 139 139 139 140 140 140 140 140 140 140 141 140 140 141 141 141 141 141 141 141 141 141 141 142 142 142 142 142 142 142 142 142 143 143 143 143 143 143 143 143 143 143 143 143 144 144 144 144 144 144 144 144 144 144 144 144 144 144 144 145 145 145 145 145 145 145 145 145 145 146 146 146 146 147 147 147 148 148 148 148 148 149 149 149 149 149 149 150 150 150 150 150 150 150 151 151 151 151 151 151 151 151 152 152 152 152 152 153 153 153 153 153 153 154 154 154 154 154 155 155 155 155 155 155 155 155 155 155 155 156 156 156 156 156 156 157 157 157 157 158 158 158 158 158 158 158 159 159 159 159 160 160 160 160 160 161 161 161 161 161 162 162 162 162 162 162 163 163 163 163 163 164 164 164 165 164 165 165 165 165 166 166 166 166 166 167 167 167 168 168 168 168 168 169 169 169 169 169 169 169 170 170 170 170 171 171 171 171 171 172 172 172
150 150 150 150 150 150 150 150 150 149 150 150 149 149 149 149 149 149 149 149 149 149 149 149 149 149 149 149 148 148 148 148 148 148 148 148 148 148 148 148 147 148 148 148 148 147 148 148 148 147 147 146 147 147 146 147 147 146 146 146 146 146 146 147 147 147 145 146 146 145 145 145 145 145 145 146 145 146 145 145 145 144 144 144 144 144 144 144 144 144 143 143 143 143 143 143 143 143 143 143 143 143 143 142 142 142 142 142 142 142 142 142 142 142 142 142 141 141 141 141 141 141 141 141 141 141 141 141 141 140 140 140 140 140 140 140 140 140 140 140 140 140 140 140 140 140 140 140 139 139 139 139 139 139 139 139 139 139 139 139 139 139 139 139 139 139 139 139 138 139 139 138 138 138 138 138 138 138 138 138 138 138 138 138 138 138 138 138 138 138 138 138 138 138 138 138 138 138 138 139 138 138 138 138 138 138 138 138 138 138 138 138 138 138 138 138 138 138 138 138 138 138 138 139 139 139 139 139 139 139 139 139 139 139 139 139 139 139 139 139 139 139 139 139 139 139 139 140 140 140 140 140 140 140 140 140 140 140 140 140 140 140 140 140 140 140 140 140 140 140 140 141 141 141 141 141 141 141 141 141 141 141 141 142 142 142 142 143 142 142 142 142 143 143 143 143 143 143 143 143 143 144 144 144 144 144 144 144 144 144 144 144 145 144 144 144 145 145 145 145 145 145 145 145 145 145 145 146 146 146 146 146 146 146 146 146 148 148 148 148 147 148 148 149 149 149 149 149 149 150 150 150 150 149 150 150 151 151 151 151 151 151 152 152 152 152 152 152 152 152 153 153 153 153 153 153 154 154 154 153 154 155 155 155 155 155 155 155 155 155 155 155 156 156 156 156 157 157 157 157 157 157 158 158 158 158 158 158 158 159 159 159 159 160 160 160 160 160 161 161 162 162 161 162 162 162 162 162 163 163 163 163 163 163 163 164 164 164 165 166 165 165 165 166 166 166 166 166 167 167 167 167 167 168 168 168 168 168 169 169 169 170 170 170 170 170 170 171 171 172 171 171 172 172 172 172 173 173 173 173
151 151 151 151 151 151 151 151 151 151 150 150 150 150 150 150 150 150 150 150 150 150 150 150 150 150 150 150 149 149 149 149 149 149 149 149 149 149 149 149 149 149 149 149 149 148 148 148 148 147 148 148 148 148 147 148 148 148 148 147 147 147 147 147 147 147 147 147 147 146 147 146 147 146 146 147 145 145 145 145 145 145 146 145 146 146 146 146 146 145 144 144 144 144 144 144 144 144 144 143 143 144 143 143 143 143 143 143 143 143 143 144 142 142 142 142 142 142 142 142 142 142 142 142 142 141 141 141 141 141 141 141 141 141 141 141 141 141 141 141 140 140 140 140 140 140 140 140 140 140 140 140 140 140 140 140 140 140 140 140 140 140 139 139 139 139 139 139 139 139 139 139 139 139 139 139 139 139 139 139 139 139 139 139 139 139 139 139 139 139 139 139 139 139 139 139 139 139 139 139 139 139 139 139 139 139 139 139 139 139 139 139 139 139 139 139 139 139 139 139 139 139 139 139 139 139 139 139 139 139 139 139 139 139 140 140 140 140 140 140 140 140 140 140 140 140 140 140 140 140 140 140 140 140 140 140 140 140 140 140 140 140 140 141 141 141 141 141 141 141 141 141 141 141 141 142 142 142 142 142 142 142 142 143 142 143 143 143 143 143 143 143 143 143 143 144 144 144 144 144 144 144 145 145 145 145 145 145 145 145 145 144 145 145 145 145 145 145 145 145 145 145 146 146 146 146 146 146 146 146 146 146 147 147 147 147 147 147 147 148 149 149 149 149 150 150 150 150 150 151 151 151 151 151 151 151 152 152 152 152 152 152 152 152 152 152 153 153 153 153 153 153 154 154 154 154 154 155 155 155 155 155 155 155 155 155 155 156 156 156 157 156 156 157 157 157 157 158 158 158 158 158 158 159 159 159 159 159 160 160 160 160 160 160 161 161 161 161 162 162 162 163 162 162 163 163 163 163 163 163 164 164 164 164 164 165 165 165 165 166 166 166 167 167 167 168 167 167 167 168 168 168 168 168 169 169 169 169 170 170 170 170 170 170 171 171 171 171 172 172 172 172 172 173 173 173 173 173 174 174
152 152 152 152 152 152 152 152 152 152 152 152 152 152 152 151 151 151 151 151 151 151 151 151 151 151 151 151 151 150 151 150 150 151 150 149 149 150 150 150 150 150 150 150 150 149 150 149 149 149 149 149 149 149 149 149 149 149 149 149 148 149 149 148 148 148 148 149 148 148 148 148 148 147 147 148 146 147 146 147 147 147 146 146 147 146 146 145 145 145 145 146 146 146 146 146 145 145 145 146 144 144 144 144 144 144 145 144 145 144 144 145 144 143 143 143 143 143 144 143 143 143 143 143 143 142 142 142 142 142 142 142 142 142 142 142 142 142 142 142 142 142 141 141 141 141 141 141 141 141 141 141 141 141 141 141 141 141 141 141 141 140 140 140 140 140 140 140 140 140 140 140 140 140 140 140 140 140 140 140 140 140 140 140 140 140 140 140 140 140 140 140 140 140 140 140 140 139 139 140 139 140 139 140 140 140 140 140 140 140 140 140 140 140 140 140 140 140 140 140 140 140 140 140 140 140 140 140 140 140 140 140 140 141 141 141 141 141 141 141 141 141 141 141 141 141 141 141 141 141 141 141 141 141 141 141 141 141 141 141 141 141 141 142 142 142 142 142 142 142 142 142 142 142 142 143 143 143 143 143 143 143 143 143 143 143 144 144 144 144 144 144 144 144 144 144 145 145 145 145 145 145 145 146 147 145 145 146 146 146 145 145 147 146 146 146 146 146 146 146 146 146 146 147 147 147 147 147 147 147 147 148 148 148 149 149 149 149 150 150 150 150 150 150 151 151 151 151 151 151 152 152 152 151 152 152 152 152 153 153 153 153 153 153 153 153 153 154 154 154 154 155 155 155 155 155 156 155 155 156 155 156 156 156 156 156 157 157 157 157 157 157 158 158 158 158 158 158 159 159 159 159 159 158 160 160 160 160 160 161 161 161 161 162 162 162 162 162 163 163 163 163 163 164 164 164 164 164 164 164 165 165 165 165 166 166 165 166 167 167 167 167 167 168 168 168 168 168 169 169 169 170 169 171 171 170 170 170 171 171 171 171 171 172 172 172 172 172 173 173 173 173 173 174 174 174 174 175 175 175
153 153 153 153 153 153 153 153 153 153 152 152 152 152 152 152 152 152 152 152 152 152 152 152 151 152 152 151 151 151 151 151 151 150 151 151 151 151 151 151 151 151 151 151 151 150 150 150 150 150 150 150 150 150 150 150 150 150 150 149 149 149 149 149 149 149 149 149 149 149 149 148 148 148 148 148 148 148 148 148 148 148 148 147 147 147 147 147 147 147 146 147 147 146 146 146 146 146 146 146 145 146 146 146 145 145 146 145 145 145 145 145 144 145 144 144 144 144 145 144 144 143 143 144 143 143 143 143 143 143 144 143 143 143 143 143 143 142 142 142 142 142 142 142 142 142 142 142 142 142 142 142 142 142 141 141 141 141 141 141 141 141 141 141 141 141 141 141 141 141 141 141 141 141 141 141 141 141 141 141 141 141 140 140 140 140 140 140 140 140 140 140 140 140 140 140 140 140 140 140 140 140 140 140 140 140 140 140 140 140 140 140 140 140 140 140 141 141 141 141 141 141 141 141 141 141 141 141 141 141 141 141 141 141 141 141 141 141 141 141 141 141 141 141 141 142 142 142 142 142 142 142 142 142 142 142 142 142 142 142 142 142 142 142 142 142 142 142 142 143 143 143 143 143 143 143 143 143 143 143 144 144 144 144 144 144 144 144 144 144 145 145 145 145 145 146 146 146 146 146 146 146 146 146 146 146 147 147 146 146 146 146 146 146 146 147 147 147 147 147 147 147 147 147 147 147 148 148 148 148 149 149 149 150 150 149 150 150 150 150 151 151 151 151 151 152 152 152 152 153 153 152 153 153 153 153 153 153 153 153 153 154 154 154 154 154 154 155 155 155 155 155 155 155 155 155 155 156 156 156 156 157 157 157 157 157 157 157 158 158 158 158 158 159 159 159 159 159 159 159 160 160 160 160 160 161 161 161 161 162 162 162 162 162 163 163 163 164 163 163 164 164 164 164 164 164 164 165 165 165 165 166 166 166 166 167 167 167 167 167 168 168 168 168 169 169 169 170 170 170 170 171 171 171 171 171 171 171 171 171 172 172 172 172 172 173 173 173 173 174 174 174 174 174 175 175 175 175 175 175
153 153 153 153 153 153 154 153 153 154 154 154 153 153 153 152 153 152 153 153 153 153 152 153 153 152 152 153 153 152 153 152 152 152 151 152 152 151 151 152 152 152 152 151 151 151 151 151 151 151 151 151 151 150 151 151 151 151 151 151 151 150 150 150 150 150 150 150 150 149 150 150 149 149 149 149 149 149 149 149 149 149 149 149 148 148 148 147 148 148 148 148 148 148 148 148 148 146 146 147 147 147 146 147 146 146 145 146 146 145 145 145 145 145 145 146 145 145 146 146 145 146 145 145 144 145 144 144 144 144 144 144 144 144 144 144 144 145 144 144 143 143 143 143 143 143 143 143 143 143 143 143 143 143 143 142 143 142 142 142 142 142 142 142 142 142 142 142 142 142 142 142 142 142 142 142 142 142 142 142 142 142 141 142 141 141 141 141 141 141 141 141 141 141 141 141 141 141 141 141 141 141 141 141 141 141 141 141 141 141 141 141 141 142 142 142 142 142 142 142 142 142 142 142 142 142 142 142 142 142 142 142 142 142 142 142 142 142 142 142 142 142 142 142 142 142 142 142 142 142 142 142 143 143 142 142 143 143 143 143 143 143 143 143 143 143 143 143 143 144 144 144 144 144 144 144 144 144 144 145 145 145 145 145 145 145 145 145 146 146 146 146 146 146 146 146 145 146 147 147 147 147 147 147 146 147 147 147 147 147 147 147 148 147 147 147 148 148 148 148 148 148 148 148 149 148 149 149 149 150 149 150 150 151 151 151 151 151 152 152 152 152 152 152 152 153 153 153 153 153 153 153 153 154 154 154 154 154 154 154 154 155 155 155 155 155 155 156 155 155 155 156 156 156 156 156 156 157 157 157 157 157 158 158 158 158 158 159 159 159 159 159 159 160 160 160 160 160 160 160 160 161 161 161 161 162 162 162 162 163 163 163 163 164 164 164 164 164 164 164 164 165 165 165 165 165 166 166 166 166 167 167 167 167 167 168 168 168 169 169 169 170 170 171 171 170 171 170 170 172 171 172 172 172 172 172 172 172 172 173 173 173 173 174 174 174 174 174 175 175 175 175 175 176 176 176 176 177 177 177
154 154 154 154 154 154 154 154 154 154 154 155 154 153 153 153 154 153 154 154 153 153 153 154 153 153 153 153 153 153 153 153 153 153 152 153 153 153 153 153 153 153 153 153 152 152 152 152 152 152 152 152 152 152 152 152 151 151 151 151 151 151 151 151 151 151 151 151 151 151 150 150 150 150 150 150 150 150 150 150 150 150 149 149 149 149 149 149 149 149 149 149 149 149 148 148 147 148 148 148 148 148 148 148 150 152 150 146 147 147 147 147 147 147 146 146 146 147 146 145 146 146 145 145 145 145 145 145 145 145 146 145 145 144 144 144 144 145 144 144 144 144 144 144 144 144 144 144 144 144 144 143 144 143 144 143 143 143 143 143 143 143 143 143 143 143 143 143 143 143 143 143 143 143 143 143 142 142 142 142 142 142 142 142 142 142 142 142 142 142 142 142 142 142 142 142 142 142 142 142 142 142 142 142 142 142 142 142 142 142 142 142 142 142 142 142 142 142 142 142 142 142 142 143 143 143 143 143 143 143 143 143 143 143 143 143 143 143 143 143 143 143 143 143 143 143 143 143 143 143 143 143 143 143 143 143 143 143 143 144 144 144 144 144 144 144 144 144 144 144 144 145 145 145 145 145 145 145 145 145 145 145 146 146 146 146 146 146 146 146 147 147 147 147 147 147 147 147 147 146 147 147 147 147 147 147 147 147 147 148 148 148 149 148 148 148 148 148 148 148 148 149 149 149 150 149 150 151 151 151 151 151 151 151 152 152 152 152 152 153 153 153 153 153 153 153 153 154 154 154 154 154 154 154 154 154 154 155 155 155 155 155 156 156 155 156 155 156 156 157 157 157 157 157 158 158 158 158 158 158 158 158 159 159 159 159 159 159 160 160 160 160 160 160 160 160 161 161 161 161 162 162 162 163 163 162 163 163 163 164 164 164 164 164 164 165 165 165 165 165 165 165 166 166 166 166 166 167 167 167 167 168 168 168 168 169 169 169 169 170 170 171 171 171 172 171 171 171 171 172 172 172 172 172 172 172 173 173 173 174 174 174 174 174 175 175 175 175 175 176 176 176 176 176 177 177 177 177 177 177
155 155 155 155 155 155 155 155 155 155 155 155 154 154 154 154 154 154 154 154 154 154 154 155 154 154 154 154 154 154 154 153 153 153 153 154 153 154 154 154 154 154 154 153 153 153 153 153 153 153 153 153 153 153 153 153 153 152 152 152 152 152 152 152 152 152 152 152 152 152 151 151 151 151 151 151 151 151 151 151 151 151 151 151 151 150 150 150 150 150 150 150 150 150 149 149 149 149 149 149 148 149 148 148 148 147 147 148 148 148 148 147 147 148 153 163 159 160 174 164 151 146 147 147 146 147 147 147 146 146 148 146 145 146 145 145 145 146 145 145 145 145 145 145 145 145 145 145 145 145 145 145 144 145 144 145 144 144 144 144 144 144 144 144 144 144 144 144 144 144 144 144 144 144 144 144 143 143 144 143 143 143 143 143 143 143 143 143 143 143 143 143 143 143 143 143 143 143 143 143 143 143 143 143 143 143 143 143 143 143 143 143 143 143 143 144 143 143 143 143 143 143 143 144 144 144 144 144 144 144 144 144 144 144 144 144 144 144 144 144 144 144 144 144 144 144 144 144 144 144 144 144 144 144 144 144 144 145 145 145 145 145 145 145 145 145 145 145 145 145 145 146 146 146 146 146 146 146 146 146 146 147 147 147 147 147 147 147 147 147 147 148 148 148 148 148 147 147 148 149 149 148 148 148 148 148 148 149 148 148 149 149 149 149 149 149 149 149 149 149 149 150 151 150 151 151 150 150 150 152 152 152 152 153 153 153 153 153 153 153 154 154 154 154 154 154 154 154 155 155 155 155 155 155 155 155 155 155 155 156 156 156 157 156 156 157 157 158 157 158 158 158 158 158 158 158 159 160 159 159 159 160 161 160 160 160 160 160 160 161 161 162 161 161 161 162 162 162 161 163 163 163 163 163 164 164 164 164 165 165 165 165 165 165 165 165 166 166 166 166 166 166 167 167 167 168 168 168 168 168 169 169 169 169 171 170 170 171 170 172 172 172 172 172 172 173 173 172 172 173 173 174 173 173 173 174 174 174 174 175 175 175 175 175 176 176 176 176 177 177 177 177 177 177 178 179 178 178 178 178
156 156 156 156 156 156 156 156 156 156 156 156 155 155 155 155 155 155 155 155 155 155 155 155 154 154 154 154 154 154 154 154 154 154 154 154 154 154 154 153 153 153 154 154 153 153 153 154 154 154 154 154 154 153 153 153 153 153 153 153 153 153 153 153 153 153 153 152 152 152 152 151 152 152 152 152 152 152 152 151 151 151 151 151 151 151 151 151 151 151 151 150 150 150 150 150 150 149 149 150 149 150 149 149 149 149 149 149 149 148 149 148 147 154 161 161 179 179 173 172 158 163 161 156 148 147 147 147 147 147 147 147 146 146 147 147 147 147 146 147 146 146 146 146 146 146 146 145 145 146 145 145 146 145 145 145 145 145 145 145 145 145 145 145 145 145 145 145 145 145 145 145 145 144 144 144 144 144 144 144 144 144 144 144 144 144 144 144 144 144 144 144 144 144 144 144 144 144 144 144 144 144 144 144 144 144 144 144 144 144 144 144 144 144 144 144 144 144 144 144 144 144 144 144 144 144 144 144 144 144 144 144 144 144 144 144 144 144 144 144 144 145 145 145 145 145 145 145 145 145 145 145 145 145 145 145 145 145 145 145 145 146 146 146 146 146 146 146 146 146 146 146 146 147 147 147 147 147 147 147 147 147 147 147 148 148 148 148 148 148 148 148 148 149 149 149 149 148 148 148 149 149 149 149 149 149 149 149 149 149 149 149 150 149 149 150 150 150 150 151 151 151 152 152 152 152 152 152 153 153 153 153 153 153 154 154 154 154 154 154 154 155 155 155 155 155 155 155 155 155 155 155 156 156 156 156 156 157 157 157 157 157 157 157 157 158 157 159 158 158 158 158 159 159 159 159 160 160 160 160 160 160 160 160 161 161 161 161 161 161 161 162 162 162 162 162 163 163 163 163 164 165 164 164 165 165 165 165 165 165 165 165 166 166 166 166 166 167 167 167 167 168 168 168 168 168 169 169 169 169 169 170 170 171 171 172 172 172 172 173 173 173 173 172 173 172 174 173 173 173 173 174 174 174 174 175 175 176 175 176 176 176 177 176 176 177 177 177 177 177 178 178 178 178 178 179 178 179 179 179
158 157 157 157 157 157 157 157 157 157 157 157 157 157 157 157 156 156 156 156 156 156 156 156 156 156 156 156 155 155 155 155 155 155 155 155 155 155 155 154 154 154 154 154 154 154 154 154 154 154 154 154 153 153 153 153 153 153 153 153 153 154 154 153 154 154 154 152 152 152 152 152 152 153 153 153 153 152 153 153 153 152 152 152 151 151 151 152 152 151 152 151 151 151 151 151 151 151 151 151 150 150 149 150 150 149 150 150 150 149 149 149 149 149 167 173 185 189 190 192 193 189 202 190 190 154 147 148 149 149 148 147 148 147 148 148 147 147 147 147 147 147 147 147 148 147 148 148 147 148 146 146 146 146 146 146 146 146 146 146 146 146 146 146 146 146 146 146 146 146 146 146 146 145 145 145 145 145 145 145 145 145 145 145 145 145 145 145 145 145 145 145 145 145 145 145 145 145 145 145 145 145 145 145 145 145 145 145 145 145 145 145 145 145 145 145 145 145 145 145 145 145 145 145 145 145 145 145 145 145 145 145 145 145 145 145 145 145 146 146 146 146 146 146 146 146 146 146 146 146 146 146 146 146 146 146 146 146 146 147 147 147 147 147 147 147 147 147 147 147 147 147 147 147 148 148 148 148 148 148 148 148 148 149 149 149 149 149 149 148 149 149 149 150 149 149 149 149 150 149 149 150 151 151 150 150 150 150 150 150 150 150 150 151 151 151 151 151 151 152 153 153 153 153 153 153 153 153 154 154 154 154 154 155 155 155 155 155 155 155 155 155 156 156 156 156 156 156 156 156 157 157 157 157 157 157 158 158 158 158 158 158 159 159 159 159 159 160 159 160 160 159 160 160 160 161 161 161 161 161 161 161 161 161 161 161 162 162 162 162 163 164 163 164 164 164 165 164 164 165 165 166 165 165 165 166 166 166 166 166 166 166 166 167 167 167 167 168 168 168 169 169 169 168 169 170 170 170 170 172 172 170 172 172 173 173 173 173 173 173 172 173 174 173 174 173 174 174 174 175 175 175 175 176 176 176 176 176 177 177 177 177 177 177 178 178 178 178 179 178 178 179 179 180 179 179 180 180 180 181
159 159 159 158 158 158 158 158 158 158 158 158 158 158 158 157 157 157 157 157 157 157 157 157 157 157 156 156 157 156 156 156 156 156 156 156 156 156 156 156 155 155 155 155 155 155 155 155 155 154 154 154 154 154 154 154 154 154 154 155 153 153 153 153 153 153 153 153 153 153 153 154 154 154 154 153 153 153 152 152 152 153 152 153 153 153 152 152 152 151 152 152 152 152 152 152 151 151 151 151 150 151 150 151 151 151 150 151 150 151 150 150 150 154 161 170 190 195 202 198 192 203 212 217 225 222 212 183 151 148 149 148 148 148 148 148 148 148 149 148 148 148 148 148 147 147 147 147 147 147 147 148 148 147 147 147 147 147 147 147 147 147 147 147 147 147 147 147 147 147 147 146 146 146 146 146 146 146 146 146 146 146 146 146 146 146 146 146 146 146 146 146 146 146 146 146 146 146 146 146 146 146 146 146 146 146 146 146 146 146 146 146 146 146 146 146 146 146 146 146 146 146 146 146 146 146 146 146 146 146 146 146 146 146 146 146 146 146 146 146 146 146 147 147 147 147 147 147 147 147 147 147 147 147 147 147 147 147 147 147 147 147 148 148 148 148 148 148 148 148 148 148 148 148 148 148 149 149 149 149 149 149 148 149 149 149 150 150 150 149 150 150 150 150 150 151 150 150 151 150 151 150 150 150 151 151 150 151 151 151 151 151 151 151 152 153 153 153 153 153 153 154 154 154 154 154 154 154 155 155 155 155 155 155 156 156 156 156 156 156 156 156 156 156 156 157 157 157 157 157 157 157 158 158 158 158 158 158 159 158 159 160 160 160 160 160 159 161 160 161 161 160 161 161 161 161 161 161 161 162 162 162 162 162 162 162 163 163 164 163 165 165 165 165 165 164 166 166 166 166 166 166 166 166 166 166 166 166 167 167 167 167 168 168 168 168 168 169 169 169 169 170 171 170 170 171 171 171 171 172 173 173 173 173 173 173 173 174 174 174 174 174 174 174 175 175 175 175 175 175 175 176 176 177 177 177 177 177 177 177 178 178 178 178 178 178 179 179 180 180 180 180 180 180 180 181 181 181 181 181
160 160 160 160 160 160 160 159 159 159 159 159 159 159 159 159 159 159 159 158 158 158 158 158 158 158 158 158 157 157 157 157 157 157 157 157 157 157 157 157 156 156 156 156 156 156 156 156 156 156 156 156 155 155 155 155 155 155 155 155 154 154 154 154 154 154 154 154 154 154 154 154 153 153 153 153 153 153 154 153 153 154 153 152 152 153 153 152 153 153 153 151 151 151 151 151 152 152 152 152 151 152 152 152 152 152 152 151 151 150 150 149 163 163 190 196 184 200 213 207 218 222 223 227 230 228 227 224 211 202 189 153 154 150 150 150 149 150 149 149 149 149 149 149 149 149 150 150 149 149 149 148 148 148 148 148 148 148 148 148 148 148 148 148 148 148 148 148 148 148 147 148 147 147 147 147 147 147 147 147 147 147 147 147 147 147 147 147 147 147 147 147 147 147 147 147 147 147 147 147 147 147 147 147 147 147 147 147 147 147 147 147 147 147 147 147 147 147 147 147 147 147 147 147 147 147 147 147 147 147 147 147 147 147 147 147 147 147 148 148 148 148 148 148 148 148 148 148 148 148 148 148 148 148 148 148 148 148 149 149 149 149 149 149 149 149 149 149 149 149 149 149 150 151 150 150 150 150 150 150 150 150 150 151 150 150 151 150 150 151 151 151 151 152 152 151 151 151 152 152 152 151 152 152 151 152 152 153 152 152 153 152 153 153 154 154 153 154 154 154 155 155 155 155 155 155 156 156 156 156 156 156 156 156 156 156 157 157 157 157 157 157 157 158 158 158 158 158 158 158 159 159 159 159 159 160 160 160 160 160 160 160 161 160 160 162 161 162 161 161 162 162 162 162 162 162 162 162 161 162 163 163 163 163 164 164 165 165 165 166 165 166 165 166 167 166 166 166 166 167 167 167 167 167 167 167 167 167 168 168 168 169 169 169 169 169 170 170 170 170 171 171 171 171 172 173 173 173 173 173 173 174 174 174 174 173 174 175 175 175 175 176 176 175 176 176 177 176 176 177 177 177 178 178 178 178 178 178 179 179 178 179 179 179 180 180 180 180 180 180 182 181 181 181 182 182 182 182 182 182
161 161 161 161 161 160 160 160 161 161 160 160 160 160 160 160 160 159 159 159 159 159 159 159 159 159 159 159 158 158 158 158 158 158 158 158 158 157 157 157 157 157 157 157 157 157 157 157 156 156 156 156 156 156 156 156 156 156 156 156 155 155 155 155 155 155 155 155 154 154 154 154 154 154 154 154 154 154 153 153 153 153 153 154 153 153 153 152 152 152 152 152 152 152 152 152 153 153 152 152 153 151 152 152 151 151 151 151 151 151 158 170 179 190 195 206 208 211 210 209 211 211 211 212 216 219 223 225 221 216 207 191 161 153 154 152 150 150 150 150 150 150 150 150 149 149 150 150 149 150 149 149 149 149 149 149 149 149 149 149 149 149 149 149 149 149 149 149 149 149 149 148 148 148 148 148 148 148 148 148 148 148 148 148 148 148 148 148 148 148 148 148 148 148 148 148 148 148 148 148 148 148 148 148 148 148 148 148 148 148 148 148 148 148 148 148 148 148 148 148 148 148 148 148 148 148 148 148 148 148 148 148 148 148 148 148 148 148 148 149 149 149 149 149 149 149 149 149 149 149 149 149 149 149 149 149 149 149 149 150 150 150 150 150 150 150 150 150 150 150 150 150 150 150 150 151 151 151 151 151 151 151 151 151 152 152 152 152 151 151 152 152 152 152 151 152 152 153 153 152 152 152 153 153 153 153 152 153 153 154 154 154 154 154 154 155 155 155 155 155 155 156 156 156 156 156 156 157 157 157 157 157 157 157 157 157 157 158 158 158 158 158 158 158 159 159 159 159 159 159 160 160 160 160 160 160 160 161 161 160 161 161 161 162 162 162 162 163 162 162 162 162 162 162 163 163 163 164 164 164 164 165 165 165 165 165 166 166 166 167 166 167 167 167 168 167 167 167 167 167 168 168 168 168 168 168 168 168 169 169 169 169 170 170 170 170 170 171 172 171 172 172 173 173 174 174 174 174 174 174 174 174 174 175 175 175 175 176 176 176 176 177 177 176 176 178 178 177 177 177 178 178 178 179 179 179 179 179 179 179 180 180 180 181 180 181 181 181 181 181 182 182 182 182 182 183 183 183 183 183
162 162 162 162 162 162 162 162 161 161 161 161 161 161 161 161 161 161 161 160 160 160 160 160 160 160 160 160 160 160 160 160 160 159 159 159 159 159 159 159 158 158 158 158 158 158 158 158 158 158 158 157 157 157 157 157 157 157 157 157 156 156 156 156 156 156 156 156 156 156 155 155 155 155 155 155 155 154 154 154 154 154 154 154 154 154 154 154 153 153 153 153 153 153 153 153 153 153 153 153 153 152 152 152 152 152 152 153 157 160 159 159 164 172 180 180 192 193 198 197 196 196 195 196 203 208 206 211 215 220 220 194 172 176 170 151 151 150 151 150 150 149 151 150 150 150 151 151 150 150 150 150 150 150 150 150 150 150 150 150 150 150 150 150 150 150 150 150 150 150 150 150 150 150 150 150 150 150 149 149 149 149 149 149 149 149 149 149 149 149 149 149 149 149 149 149 149 149 149 149 149 149 149 149 149 149 149 149 149 149 149 149 149 149 149 149 149 149 149 149 149 149 149 149 149 149 149 149 149 149 149 149 149 149 149 150 149 150 150 150 150 150 150 150 150 150 150 150 150 150 150 150 150 150 151 151 150 151 151 151 151 151 151 151 151 151 151 151 151 151 151 151 152 152 152 152 152 152 152 152 152 152 152 153 153 153 153 152 153 153 153 153 152 153 153 154 154 153 154 153 154 153 154 154 153 155 155 155 155 155 155 155 155 156 156 156 156 156 156 157 157 157 157 157 157 157 157 157 158 158 158 158 158 158 158 159 159 159 159 159 159 160 160 160 160 160 160 160 160 161 161 161 161 161 162 163 162 162 162 161 162 163 162 162 163 163 163 163 163 163 163 163 163 164 164 164 164 165 164 165 166 166 166 166 167 167 167 167 168 168 168 168 167 168 168 167 169 168 168 168 168 169 169 169 169 169 170 170 170 170 171 171 171 171 172 172 172 173 173 174 174 174 174 174 174 174 175 175 174 175 175 175 176 176 176 176 176 177 176 176 177 177 177 177 177 178 178 178 178 179 179 180 179 180 180 180 181 180 180 180 180 182 181 181 181 182 182 183 182 183 183 183 183 183 183 183 184 184 184 184
163 164 163 163 163 163 163 163 163 163 163 162 162 162 162 162 162 162 162 162 162 161 161 161 161 161 161 161 161 161 161 161 161 160 160 160 160 160 160 160 160 160 160 159 159 159 159 159 159 159 159 159 159 159 158 158 158 158 158 158 158 158 157 157 157 157 157 157 157 157 156 156 156 156 156 156 156 156 156 155 155 155 155 155 155 155 155 155 155 155 154 154 154 154 154 154 154 154 154 154 154 153 153 153 153 153 153 153 153 153 153 153 163 174 179 178 180 193 195 194 194 190 188 181 188 193 193 195 195 199 205 206 207 200 183 188 174 159 157 167 171 167 159 152 151 151 151 151 151 151 151 151 151 151 151 152 151 151 151 151 151 151 151 151 151 151 151 151 151 151 151 151 151 151 151 151 151 151 151 151 151 151 151 151 151 151 151 151 150 150 151 150 150 150 150 150 150 150 150 150 150 150 150 150 150 150 150 150 150 150 150 150 150 150 150 150 150 150 150 150 150 150 150 151 151 151 151 151 151 151 151 151 151 151 151 151 151 151 151 151 151 151 151 151 151 151 151 151 151 151 151 151 151 152 152 152 152 152 152 152 152 152 152 152 152 152 152 152 153 153 153 153 153 153 153 153 153 153 153 153 154 154 154 154 153 153 154 154 154 153 154 154 154 155 154 155 154 154 155 155 155 155 156 156 156 156 156 156 156 156 157 157 157 157 157 157 157 157 158 158 158 158 158 158 158 158 159 159 159 159 159 159 159 160 160 160 160 160 160 160 161 161 161 161 161 162 162 162 162 162 162 162 162 163 163 163 163 163 163 163 163 163 163 163 164 165 164 164 164 164 164 164 166 166 166 165 166 166 167 167 167 167 168 167 168 167 168 168 168 168 169 168 168 169 169 170 170 169 169 170 170 170 170 170 170 171 171 171 172 172 172 172 172 174 174 174 174 175 175 175 175 175 175 175 175 175 176 176 176 176 177 177 177 177 178 177 177 177 178 178 178 178 179 179 179 179 179 179 180 181 180 181 180 181 181 181 182 181 181 182 182 182 182 183 183 183 183 183 183 184 184 184 184 184 184 184 185 185 186 187
164 164 164 165 164 164 164 165 165 164 165 164 163 163 163 163 163 163 163 163 163 163 162 162 162 162 162 162 162 162 162 162 161 161 161 161 161 161 161 162 161 161 160 160 160 160 160 160 160 160 160 160 160 158 159 159 159 159 159 159 158 158 158 158 158 158 158 158 158 157 157 157 157 157 157 157 157 156 156 156 156 156 156 156 156 156 156 156 156 156 155 155 155 155 155 155 155 154 154 154 154 154 154 154 154 154 154 156 160 158 156 160 183 200 202 201 210 213 207 199 197 194 196 191 179 182 189 189 192 193 201 199 197 185 197 199 186 168 155 162 165 155 153 153 153 152 153 153 152 151 152 152 152 152 152 152 152 152 152 152 152 152 152 152 152 152 152 152 152 152 152 152 152 152 152 152 152 152 152 151 152 151 151 151 151 151 151 151 151 151 151 151 151 151 151 151 151 151 151 151 151 151 151 151 151 151 151 151 151 151 151 151 151 151 151 151 151 151 151 151 151 151 151 151 151 151 152 152 152 152 152 152 152 152 152 152 152 152 152 152 152 152 152 152 152 152 152 152 152 152 152 152 152 152 153 153 153 153 153 153 153 153 153 153 153 153 153 153 153 153 154 154 154 154 154 154 154 154 154 154 153 155 155 155 154 154 155 155 155 154 155 155 154 156 155 155 156 156 156 156 156 157 157 157 157 157 157 157 157 157 157 158 158 158 158 158 158 158 158 159 159 159 159 159 159 159 160 160 160 160 160 159 160 161 161 161 161 161 161 161 162 161 162 162 161 161 161 163 163 163 163 163 163 164 163 163 163 163 163 163 164 164 164 164 164 164 165 166 166 166 166 167 167 166 167 167 167 168 168 168 168 169 169 169 169 169 169 168 168 170 170 170 169 170 171 171 171 170 170 171 171 171 172 171 172 172 172 173 172 173 174 173 173 175 174 175 175 175 175 175 175 176 176 176 176 177 177 177 177 178 178 178 177 176 178 178 178 178 179 179 179 179 179 180 182 180 181 180 180 180 181 181 182 182 182 183 183 182 183 183 183 184 184 184 184 184 184 184 184 184 184 184 184 185 185 185 185 186 186 186
167 166 166 166 166 166 166 166 166 165 165 165 166 165 165 165 164 165 164 164 164 164 164 164 164 163 163 163 163 163 163 163 163 163 162 162 162 162 162 161 161 162 161 161 161 161 161 161 161 161 161 161 161 160 160 160 160 160 160 160 160 160 159 160 159 159 159 159 159 159 158 158 158 158 158 158 158 158 158 158 157 157 157 157 157 157 157 157 157 157 156 156 156 156 156 156 156 156 155 155 155 155 155 155 155 154 155 155 158 169 184 196 207 212 211 208 205 201 202 196 198 195 193 187 185 189 193 194 187 184 185 189 173 169 175 176 175 186 195 205 210 210 203 182 169 191 167 156 154 154 153 153 154 153 153 153 153 153 153 153 153 153 153 153 153 153 153 153 153 153 153 153 153 153 153 153 153 153 153 153 153 153 153 153 153 153 153 153 153 153 153 153 153 153 153 153 152 153 152 153 153 153 153 152 153 152 153 153 153 153 153 153 153 153 153 153 153 153 153 153 153 153 153 153 153 153 153 153 153 153 153 153 153 153 153 153 153 153 153 153 153 153 153 153 153 153 153 154 154 154 154 154 154 154 154 154 154 154 154 154 154 154 154 154 155 155 155 155 155 155 155 155 155 155 155 155 155 156 156 156 156 156 155 156 156 156 156 156 157 157 157 157 157 157 157 157 157 157 158 158 158 158 158 158 158 158 158 158 158 159 159 159 159 159 159 159 160 160 160 160 160 160 160 161 161 161 161 161 161 161 161 162 162 162 162 162 162 162 162 163 163 163 163 163 163 164 164 164 164 163 163 164 164 164 164 164 164 165 165 165 165 165 166 166 166 167 167 167 167 167 168 168 168 168 168 169 169 169 169 169 169 170 169 169 170 169 170 170 170 170 171 170 171 171 171 171 172 172 172 172 172 173 173 173 173 174 174 174 174 175 175 175 175 175 176 176 176 176 176 177 177 177 177 177 178 178 178 178 178 178 178 178 179 178 178 179 179 179 180 180 181 181 181 180 181 181 182 182 182 183 182 183 183 183 183 184 184 184 184 184 184 184 184 184 185 185 185 185 185 185 185 186 186 186 186 187 186 187 187 187
168 167 168 167 166 167 166 167 167 166 167 167 166 165 165 166 165 166 165 166 166 165 166 166 165 164 164 165 163 165 164 165 165 164 164 163 163 163 163 163 162 162 162 162 162 162 162 162 162 162 162 161 161 161 161 161 160 161 161 162 160 160 160 160 160 160 160 160 160 159 159 159 159 159 159 159 159 159 159 158 158 158 158 158 158 158 158 158 157 157 157 157 157 157 157 157 156 156 156 156 156 156 156 156 169 175 187 183 173 193 195 207 208 207 205 205 203 194 192 187 199 176 163 201 211 192 183 188 185 177 172 175 177 159 163 175 191 196 197 197 198 198 193 192 187 184 174 173 174 156 154 155 154 154 154 154 154 154 154 154 154 154 154 154 154 154 154 154 154 154 154 154 154 154 154 154 154 154 154 154 154 154 154 154 154 154 154 154 154 154 154 154 153 154 154 154 154 153 153 153 153 153 153 154 154 153 153 153 153 153 153 153 153 153 153 153 154 154 154 154 154 154 154 154 154 154 153 154 154 153 154 154 154 154 154 154 154 154 154 154 154 154 154 154 154 154 154 155 155 155 155 155 155 155 155 155 155 155 155 155 155 155 155 155 156 156 156 156 156 156 156 156 156 156 156 156 156 156 157 157 157 157 157 157 157 157 157 157 157 157 158 158 159 158 158 158 158 158 158 159 159 159 159 159 159 159 159 159 160 160 160 160 160 160 161 161 161 161 161 161 161 161 161 162 162 162 162 162 162 162 162 163 163 163 163 163 163 163 163 164 164 164 164 164 164 163 164 164 164 164 164 165 165 165 165 166 165 166 167 167 167 167 167 168 169 168 168 168 168 169 169 169 169 169 169 170 170 170 169 170 171 171 171 171 171 170 172 171 171 171 171 171 172 172 172 172 172 172 174 173 173 175 176 175 175 175 175 176 176 176 176 176 175 177 177 177 177 177 177 178 177 178 178 178 179 179 178 178 179 178 179 180 180 180 180 181 181 181 182 182 182 182 182 182 183 182 183 182 182 183 183 184 183 184 184 184 184 184 184 184 184 185 185 186 185 185 185 186 186 186 186 187 187 187 187 188 189 189 189 189
169 169 169 169 169 168 168 168 168 167 168 167 168 167 167 168 168 167 166 167 167 166 166 166 167 166 165 166 165 166 166 165 165 165 165 164 165 164 164 164 164 165 164 164 164 163 163 163 163 163 163 163 163 162 162 162 162 162 162 161 162 161 161 161 161 161 161 161 161 161 161 161 160 160 160 160 160 160 160 160 159 159 158 159 159 159 159 159 158 158 158 158 158 158 158 158 158 157 157 157 161 169 172 195 200 190 176 182 185 203 208 207 206 204 204 205 206 203 200 203 204 200 197 209 212 204 201 198 181 178 169 172 172 175 172 169 169 173 171 171 170 166 161 161 163 160 158 157 156 156 156 156 156 156 156 156 156 156 156 156 156 155 156 155 155 155 155 155 155 155 155 155 155 155 155 155 155 155 155 155 155 155 155 155 155 155 155 155 155 155 155 155 155 155 155 155 155 155 155 155 155 155 155 155 155 155 155 155 155 155 155 155 155 155 155 155 155 155 155 155 155 155 155 155 155 155 155 155 155 155 155 155 155 155 155 155 155 155 156 156 156 156 156 156 156 156 156 156 156 156 156 156 156 156 156 156 156 156 156 157 157 157 157 157 157 157 157 157 157 157 157 157 157 157 158 158 158 158 158 158 158 158 158 158 158 158 159 159 159 159 159 159 159 159 159 160 160 160 160 160 160 160 160 160 161 161 161 161 161 160 161 161 162 162 162 162 162 162 162 162 162 163 163 163 163 163 163 163 164 164 164 164 164 164 164 165 165 164 164 164 164 164 165 165 165 165 165 165 165 166 166 166 166 167 167 167 167 167 168 168 168 169 169 169 169 169 169 170 170 170 170 170 171 171 171 171 171 171 172 172 171 172 172 171 172 172 172 172 172 174 173 173 173 173 173 173 175 174 174 175 176 176 176 176 176 176 177 177 177 177 177 177 178 178 178 178 178 179 179 179 178 178 179 179 179 179 180 181 180 180 180 180 181 181 182 182 182 182 182 183 183 183 183 183 183 183 184 184 184 185 184 184 185 185 186 186 185 185 185 185 186 186 186 186 186 187 188 187 187 187 189 188 188 189 189 190 190 190 190 190
169 168 168 169 168 168 168 169 169 168 168 168 168 169 169 168 167 168 167 168 168 168 167 167 166 167 167 167 166 167 166 167 167 166 165 165 166 165 166 166 166 166 165 165 164 164 164 164 165 164 164 164 164 163 163 164 164 163 163 163 162 164 164 162 162 162 162 162 162 162 162 161 161 161 161 161 161 161 161 160 160 160 160 160 160 160 159 159 159 159 159 159 159 159 159 159 159 160 164 163 167 167 174 177 168 180 182 183 187 194 194 195 195 193 193 195 192 190 192 193 194 184 186 189 192 189 182 176 174 174 166 166 165 167 162 159 162 166 156 157 157 157 157 158 157 157 157 157 157 157 157 157 157 157 157 157 157 157 156 156 157 156 156 156 156 156 156 156 156 156 156 156 156 156 156 156 156 156 156 156 156 156 156 156 156 156 156 156 156 156 156 156 156 156 156 156 156 156 156 156 156 156 156 156 156 156 156 156 156 156 156 156 156 156 156 156 156 156 156 156 156 156 156 156 156 156 156 156 156 156 156 156 156 156 156 156 156 156 156 157 155 157 158 157 157 157 157 157 157 157 157 157 157 157 157 157 157 158 158 158 158 158 158 158 158 158 158 158 158 158 158 158 158 158 159 159 159 159 159 159 160 160 159 159 160 160 160 160 160 160 160 160 160 160 160 161 161 161 161 161 161 161 161 161 162 162 162 162 162 162 162 162 162 164 163 163 163 163 163 163 164 164 164 164 164 164 164 164 165 165 165 165 165 165 165 166 166 166 166 166 165 166 166 166 166 166 166 166 168 167 168 168 168 168 168 168 169 169 169 169 169 170 170 170 170 170 171 171 171 171 171 171 172 172 172 171 171 172 173 174 172 173 173 172 174 173 173 173 175 175 174 174 174 175 175 175 176 176 176 176 176 177 177 177 177 177 177 178 178 179 178 178 179 179 179 179 179 180 179 179 179 179 181 180 180 181 181 182 181 182 182 182 183 182 183 182 182 183 184 184 183 184 184 183 185 185 184 185 185 186 186 185 185 185 185 186 186 186 186 186 186 187 187 187 187 188 189 188 189 189 190 190 190 190 190 191 191 191 191 191
170 170 170 170 169 170 169 170 170 169 169 169 169 169 169 169 168 169 168 169 169 168 169 168 168 168 168 168 167 167 167 167 167 167 167 167 167 166 166 167 166 166 166 166 166 165 165 165 165 165 165 165 165 166 165 164 164 164 165 165 169 170 164 164 164 163 163 163 163 163 163 163 162 162 162 162 161 162 161 161 161 161 161 161 161 160 160 160 160 160 160 160 160 160 160 160 160 160 161 165 173 174 171 177 180 169 165 167 170 168 167 172 175 186 182 177 176 170 169 168 167 163 163 163 162 162 163 160 160 159 159 159 159 159 159 159 159 159 159 159 159 159 159 158 158 158 158 158 158 158 158 158 158 158 158 158 158 158 158 157 158 158 158 158 158 158 158 158 158 158 158 158 158 158 158 158 158 158 158 158 158 158 157 157 157 157 157 157 157 157 157 157 157 157 157 157 157 157 157 157 157 157 157 157 157 157 157 157 157 157 157 157 157 157 157 157 157 157 157 157 157 157 157 157 157 157 157 158 157 158 158 158 158 158 158 158 158 158 158 158 158 158 158 158 158 158 158 158 158 158 159 159 159 159 159 159 159 159 159 159 159 159 159 159 159 159 160 160 160 160 160 160 160 160 160 160 160 160 160 160 161 161 161 161 161 161 161 161 161 161 162 162 162 162 162 162 162 162 162 162 163 163 163 163 163 163 163 163 163 164 164 164 164 164 164 164 165 165 165 165 165 165 165 165 165 166 166 166 166 166 166 166 166 166 166 166 167 166 167 167 167 167 168 168 168 168 169 169 169 169 169 169 170 170 170 170 171 170 171 171 171 171 171 172 172 172 172 172 172 172 173 173 173 173 173 173 173 174 174 174 174 174 174 174 174 174 174 175 175 175 175 176 177 177 177 177 177 177 177 178 178 178 178 178 178 179 179 179 179 179 180 180 180 179 180 180 180 180 180 180 181 181 182 182 182 182 183 182 183 183 183 184 184 184 184 184 184 185 185 185 185 184 185 185 185 185 185 185 186 186 186 186 186 186 187 187 187 187 187 187 188 188 189 189 190 190 190 190 190 190 190 190 191 191 190 191 190 191 191 191
171 171 171 171 171 171 170 170 170 170 170 170 170 170 170 169 169 170 169 170 170 169 169 168 170 168 168 168 168 168 168 168 168 168 168 168 167 167 167 168 167 168 167 167 166 166 166 166 166 166 166 166 166 166 165 166 165 165 165 165 166 165 165 165 164 164 164 164 164 164 164 163 163 163 163 163 162 161 162 162 162 162 161 161 161 161 161 161 161 161 161 161 161 161 161 161 161 161 161 161 161 161 161 161 165 168 176 177 175 175 175 174 170 175 174 163 161 161 161 161 161 161 161 160 160 161 160 160 160 160 160 160 160 160 160 160 160 160 160 160 160 160 160 159 160 160 159 159 159 159 159 159 159 159 159 159 159 159 159 159 159 159 159 159 159 159 159 159 159 159 159 159 159 159 159 159 159 159 159 158 158 157 158 158 158 158 158 158 158 158 158 158 158 158 158 158 158 158 158 158 158 158 158 158 158 158 158 158 158 158 158 158 158 158 158 158 158 158 158 158 158 158 158 158 158 158 158 158 158 159 159 159 159 159 159 159 159 159 159 159 159 159 159 159 159 159 159 159 160 160 160 160 160 160 160 160 160 160 160 160 160 160 160 160 160 160 161 161 161 161 161 161 162 161 161 161 161 161 161 162 162 162 162 162 162 162 162 162 163 162 163 162 163 163 163 163 163 163 163 164 164 164 164 164 163 164 164 164 165 165 165 165 165 165 165 165 164 166 166 166 166 166 166 167 167 167 166 166 167 167 166 168 167 167 168 167 168 167 169 169 168 169 169 169 169 170 170 170 170 170 170 171 171 171 171 171 170 171 172 172 172 172 172 172 172 173 173 173 173 174 174 174 174 174 174 174 175 175 174 175 174 175 176 175 176 175 176 177 177 177 177 177 177 177 178 178 178 178 178 178 178 178 179 179 179 180 179 180 179 180 179 180 180 181 180 182 182 181 182 183 183 183 183 183 183 183 184 184 183 184 184 184 185 185 185 185 185 186 185 185 185 185 185 185 186 186 186 186 187 186 187 187 187 186 188 188 189 189 189 189 189 190 190 190 190 191 191 190 191 190 191 191 191 191 191 191 191 191 191 192
173 172 172 172 172 172 172 172 172 171 171 171 171 171 171 172 171 171 170 171 171 170 170 170 170 170 170 170 169 170 169 169 169 169 170 169 169 168 168 168 168 168 168 168 168 168 168 168 167 167 167 167 167 167 167 167 167 166 166 166 166 166 166 166 165 165 165 165 165 165 165 164 164 164 164 164 164 163 163 163 163 163 163 163 163 163 162 162 162 162 162 162 162 162 162 162 162 162 162 162 162 162 162 162 162 161 161 164 170 178 170 163 163 162 162 162 162 161 162 162 162 162 162 162 162 161 162 162 162 161 161 161 161 161 161 161 161 161 161 161 161 161 161 161 161 161 161 161 161 160 160 160 160 160 160 160 160 160 160 160 160 160 160 160 160 160 160 160 160 160 160 160 160 160 160 160 160 160 160 160 159 159 159 159 159 159 159 159 159 159 159 159 159 159 159 159 159 159 159 159 159 159 159 159 159 159 159 159 159 159 159 159 160 159 160 159 160 160 160 160 160 160 160 160 160 160 160 160 160 160 160 160 160 160 160 159 160 160 161 160 161 161 161 161 161 161 161 161 161 161 161 161 161 161 161 161 161 161 161 162 161 161 162 162 162 162 162 162 162 162 162 162 162 162 163 163 163 163 163 163 163 163 163 163 163 164 164 164 163 164 164 164 164 164 165 165 165 165 165 165 165 165 165 165 165 165 166 166 166 166 166 166 167 167 167 167 167 167 167 168 168 168 167 167 168 167 168 168 169 169 168 169 169 169 169 169 170 170 170 170 170 170 171 171 171 171 170 172 172 172 172 172 172 172 173 173 173 173 173 173 174 174 174 174 174 174 174 175 174 175 175 175 176 176 176 176 176 176 177 177 176 176 177 177 177 176 178 178 178 178 178 178 179 178 179 179 179 179 179 179 179 179 180 181 180 181 181 180 182 181 182 181 182 182 182 183 183 183 183 184 184 184 184 185 185 185 185 185 185 185 186 185 185 185 185 185 186 186 186 186 186 186 186 186 187 187 187 187 188 188 188 189 188 189 190 190 190 190 190 190 191 191 191 191 190 191 191 191 192 191 191 191 192 193 193 192 192 192 192 193
173 173 173 173 173 173 173 173 173 172 173 172 172 172 172 172 172 172 171 171 171 171 171 171 172 171 171 171 170 170 170 170 170 170 170 170 171 169 169 169 169 169 169 169 169 169 169 168 168 168 168 168 168 168 168 168 167 167 167 167 167 167 166 166 166 166 166 166 166 165 165 165 165 165 165 164 164 165 164 164 164 164 164 164 164 164 164 164 164 164 164 163 163 163 163 163 164 164 164 163 163 163 164 163 163 165 167 164 167 175 170 165 169 174 200 197 187 188 178 181 164 163 163 163 163 163 163 163 163 164 162 162 162 162 162 162 162 162 162 162 162 162 162 162 162 161 161 161 161 161 161 161 161 161 161 161 161 161 161 161 161 161 161 161 161 161 161 161 161 160 160 160 160 160 160 160 160 160 160 160 160 160 160 160 160 160 160 160 160 160 160 160 160 160 160 160 160 160 160 160 160 160 160 160 160 160 160 160 160 160 160 160 160 160 160 160 160 160 160 161 161 161 161 161 161 161 161 161 161 161 161 161 161 161 161 161 162 161 161 162 162 162 162 162 162 162 162 162 162 162 162 162 162 162 162 162 162 162 162 161 162 162 162 164 163 163 163 163 163 163 163 163 164 164 164 164 164 164 164 164 164 164 164 165 165 165 165 165 165 165 165 165 165 165 166 166 166 166 166 166 166 166 166 167 167 167 167 167 167 167 167 168 168 168 168 168 167 168 167 169 169 169 169 169 169 168 170 170 170 170 170 170 170 170 171 171 171 171 171 171 171 172 172 172 172 172 173 173 173 173 173 173 173 173 174 174 174 174 174 175 175 175 175 175 175 176 176 176 176 176 176 177 177 176 176 177 177 177 178 177 178 178 178 178 177 178 178 179 179 179 179 179 179 179 180 180 180 179 180 180 180 180 181 181 181 181 181 182 183 183 183 183 183 182 184 184 184 184 184 185 185 185 185 185 186 185 186 186 186 185 185 186 186 186 186 186 187 185 187 187 187 187 187 188 188 188 188 188 188 189 189 190 189 190 190 190 190 190 191 192 192 192 191 191 191 191 192 193 192 193 193 193 194 204 195 219 224 228 233 227
176 176 175 175 174 175 175 175 174 174 174 174 174 174 174 174 173 174 173 173 173 173 173 173 173 172 172 172 172 172 172 172 171 171 171 171 171 171 171 171 170 170 170 170 170 170 170 170 170 170 169 169 169 169 169 169 169 168 168 168 168 168 168 167 167 167 167 167 167 166 166 166 166 166 166 166 166 165 166 166 165 165 165 165 165 165 165 165 165 165 165 165 165 165 165 165 165 165 165 165 165 167 167 170 183 186 176 168 173 178 176 176 183 185 182 187 189 186 184 185 181 172 164 164 164 164 164 164 164 164 164 164 164 164 164 164 164 164 163 163 163 163 163 163 163 164 163 163 162 163 163 163 163 163 163 163 163 163 162 162 162 162 162 162 162 162 162 162 162 162 162 162 162 162 162 162 162 162 162 161 162 161 162 162 162 162 162 162 162 162 162 162 162 162 162 162 162 162 162 162 162 162 162 162 162 162 162 162 162 162 162 162 162 162 162 162 162 162 162 162 162 162 162 162 162 162 163 163 163 163 163 163 163 163 163 162 163 163 163 163 163 163 163 163 163 163 163 163 163 163 163 163 163 163 163 163 164 163 163 164 164 164 164 164 164 163 164 164 164 165 165 165 165 165 165 165 165 166 166 166 166 166 166 166 166 166 166 166 166 166 167 167 167 167 167 167 167 167 168 168 168 168 168 168 168 168 169 168 169 169 169 169 169 169 169 169 170 170 170 170 170 170 171 171 171 171 171 171 171 171 172 172 172 172 172 172 172 173 173 173 173 173 173 173 174 174 174 174 174 174 174 175 175 175 175 175 176 176 176 176 176 176 177 177 177 177 177 177 177 177 178 178 177 178 178 178 178 178 178 178 178 179 179 179 179 179 179 179 179 179 180 179 180 180 180 180 180 181 181 185 203 216 209 183 182 183 183 184 184 184 184 184 185 185 185 185 185 185 185 186 185 185 185 186 186 186 186 186 186 186 187 187 187 187 187 188 188 188 188 188 188 189 189 189 190 190 190 190 191 190 190 196 222 221 215 192 191 191 192 192 194 192 192 192 193 193 193 195 196 196 216 231 242 242 242 236 233 234 236 238
176 176 176 175 176 176 175 176 176 176 175 175 175 174 174 175 175 175 174 175 175 175 174 173 174 173 173 175 174 174 173 174 174 173 173 172 172 172 172 172 172 171 171 171 171 171 171 172 171 170 171 170 170 170 170 169 169 170 169 169 169 169 169 168 168 168 168 168 168 167 167 167 167 167 167 167 167 167 167 167 167 167 167 167 167 167 167 167 167 166 167 167 166 166 167 167 166 167 166 175 169 177 173 166 168 168 170 173 170 167 172 168 167 166 166 166 167 166 167 166 167 168 168 167 165 165 165 165 165 164 165 165 165 165 165 165 164 165 165 164 165 164 165 164 164 164 164 163 164 164 164 164 164 164 164 164 164 164 163 163 164 164 163 163 163 163 163 163 163 163 163 163 163 163 163 163 163 163 163 163 163 163 163 163 163 163 163 163 163 163 163 163 163 163 163 163 163 163 163 163 163 163 163 163 163 163 163 163 163 163 163 163 163 163 163 163 163 163 163 163 163 163 163 163 163 163 163 163 163 163 163 163 163 163 163 164 164 164 162 164 164 164 164 164 164 164 164 164 164 164 164 164 164 165 164 165 165 165 165 165 165 165 165 166 166 166 166 166 166 166 166 166 166 166 166 167 167 167 167 167 167 167 167 167 167 167 167 168 168 168 168 168 168 168 168 168 168 168 168 169 169 169 169 169 169 170 170 170 170 170 170 169 171 170 171 171 171 171 171 171 171 172 172 172 172 172 172 172 172 172 173 172 172 173 173 173 174 174 174 174 174 174 174 175 175 175 175 176 175 176 176 176 176 176 176 176 177 177 177 177 177 177 177 178 178 177 178 178 177 179 179 179 178 179 179 179 179 179 179 179 178 179 180 179 180 179 179 228 226 240 215 222 233 220 226 198 183 183 183 184 188 192 199 194 196 184 183 185 185 185 184 185 184 184 186 185 185 186 186 186 186 186 186 186 186 186 187 187 186 187 188 188 188 189 189 188 190 190 190 189 190 206 197 203 196 195 202 221 231 229 232 235 239 236 238 237 195 194 194 206 196 195 195 195 226 238 209 227 241 240 236 239 240 239 238 238 237 232 234 237
176 176 176 176 176 177 176 176 176 176 177 176 176 176 176 176 176 176 175 175 176 175 175 175 175 175 175 175 174 175 175 175 174 174 175 174 174 173 173 173 173 174 173 173 172 172 172 172 172 172 171 171 171 171 171 171 170 170 170 170 170 170 170 170 169 169 169 169 169 169 169 169 169 169 169 169 169 169 169 169 168 169 169 169 169 168 169 168 168 168 168 168 169 168 168 168 170 180 183 181 176 174 170 169 168 168 168 168 168 168 167 168 168 168 168 169 169 170 171 172 170 170 170 169 169 167 167 167 167 167 167 166 166 166 166 167 166 166 166 166 166 166 166 166 166 166 166 166 166 166 166 165 165 165 165 165 165 165 165 165 165 165 165 165 165 165 165 165 165 165 165 165 165 164 165 165 164 165 165 165 164 165 164 165 165 164 164 165 165 165 165 165 165 165 165 165 165 165 165 165 165 165 164 164 165 164 164 165 164 164 164 164 164 164 164 164 164 164 164 164 164 164 164 164 164 164 165 165 165 165 165 165 165 165 165 165 165 165 165 165 165 165 165 165 166 165 166 166 166 166 166 166 166 166 166 166 166 167 166 167 167 167 166 167 167 167 167 167 168 168 168 168 168 168 168 168 168 168 168 169 169 169 169 169 169 169 169 169 169 168 169 169 169 169 170 170 170 170 170 170 170 171 171 171 171 171 171 170 171 172 172 172 172 172 172 172 173 173 173 173 172 173 173 173 173 173 173 174 174 174 174 175 175 175 175 175 175 175 175 176 176 176 176 176 176 177 177 177 177 177 177 177 178 178 178 178 178 178 178 178 178 179 179 179 179 179 179 180 180 180 180 180 180 180 180 180 180 180 180 180 180 195 210 206 204 215 210 226 228 235 237 234 239 240 232 229 227 211 207 220 221 229 224 221 215 203 207 205 191 185 185 186 186 187 187 190 187 187 187 187 187 187 188 188 188 188 188 188 188 189 189 189 215 207 199 195 208 202 206 215 228 230 233 234 237 235 240 241 241 242 242 241 240 241 240 241 232 232 232 238 237 238 238 237 237 232 233 230 230 229 229 231 232 232 232 231 230 231 230 228
177 177 177 177 177 177 177 177 177 177 176 177 176 176 176 176 177 177 176 176 175 176 176 175 176 175 175 176 175 175 175 174 175 174 175 174 175 174 174 174 174 173 173 174 174 173 174 173 173 172 172 173 172 172 172 171 171 171 171 171 171 171 171 171 170 170 170 170 170 170 170 170 170 170 170 170 170 170 169 170 170 170 170 170 170 170 170 170 170 170 170 170 170 170 170 170 170 170 172 170 170 171 172 170 170 169 169 169 169 169 169 169 169 169 169 169 169 169 169 168 168 169 169 168 168 168 168 168 168 168 168 168 168 168 167 168 166 167 167 167 167 167 167 167 167 167 167 167 167 167 167 167 166 166 166 166 166 166 166 166 166 166 166 166 166 166 166 166 166 166 166 166 166 167 166 166 166 165 166 166 166 165 166 165 165 166 164 165 165 165 165 165 165 165 165 165 165 165 165 165 165 165 165 165 165 165 166 165 165 165 165 165 165 165 165 165 165 165 165 165 165 166 165 165 166 166 166 166 166 166 166 166 166 166 166 166 167 166 166 166 166 167 167 166 167 167 167 167 167 167 167 167 167 167 168 167 167 168 168 168 168 168 167 168 168 169 168 169 169 169 169 169 169 169 169 169 169 169 169 169 169 169 169 169 169 170 170 170 170 170 171 170 171 171 171 171 171 171 171 172 172 172 172 172 172 172 172 173 173 173 173 173 173 173 173 173 173 173 174 174 174 174 174 175 175 175 175 175 175 175 175 176 176 176 176 176 176 177 177 177 177 177 177 177 178 178 178 178 178 178 178 179 179 179 179 179 179 179 179 179 180 180 180 180 181 182 180 180 181 180 181 181 181 182 181 180 180 181 180 187 216 199 212 237 232 232 226 223 241 239 236 237 238 236 235 233 230 225 222 223 222 214 205 202 206 210 204 194 192 189 190 190 190 190 214 225 233 229 212 212 204 188 188 189 189 190 190 190 189 191 192 223 231 236 242 242 240 238 238 238 243 239 242 242 242 241 241 239 238 239 239 238 236 239 240 241 240 241 241 239 233 235 232 230 227 220 216 219 221 221 221 221 222 223 225 225 225 220 215 212
178 178 178 178 178 178 178 178 178 178 178 178 178 178 178 178 177 177 177 177 177 177 177 177 176 176 177 176 176 176 176 176 176 176 176 175 175 175 175 175 175 175 175 175 174 174 174 174 174 174 173 174 173 173 173 173 173 173 173 173 172 172 172 172 172 172 172 172 172 171 172 172 172 172 172 172 172 172 172 172 172 172 172 172 173 172 172 172 172 172 172 172 172 172 172 172 172 172 172 172 172 171 171 171 171 171 171 171 171 171 171 170 170 171 171 170 170 170 170 170 170 170 170 170 169 170 170 169 169 169 169 169 169 169 169 169 169 169 169 169 169 169 169 169 169 168 169 168 168 168 168 168 168 168 168 168 168 168 168 168 168 168 168 168 168 168 168 167 168 167 167 167 167 167 167 167 167 167 167 167 167 167 167 167 167 167 167 167 167 167 167 166 167 167 167 167 167 167 167 167 167 167 167 167 167 167 167 167 167 167 167 167 167 167 167 167 167 167 167 167 167 167 167 167 167 167 167 167 167 168 168 168 168 168 168 168 168 168 168 168 168 168 168 168 168 168 169 169 169 169 169 169 169 169 169 169 169 169 169 170 169 170 170 170 170 170 170 170 169 170 170 170 170 170 170 170 170 171 171 171 171 171 171 171 171 172 172 172 172 172 172 172 172 173 173 173 173 173 173 173 173 173 173 173 174 174 174 174 174 174 174 174 174 175 175 175 175 175 175 176 175 175 176 176 177 177 177 177 177 177 177 177 177 178 178 178 178 178 178 179 179 179 179 179 179 179 180 180 180 180 180 179 180 180 180 180 180 181 180 181 182 182 182 182 182 182 182 182 182 182 181 181 182 181 181 182 182 188 185 200 225 229 225 232 230 233 229 219 220 216 219 219 225 225 224 227 227 226 221 220 220 214 219 223 227 223 202 200 203 212 225 235 238 233 234 234 235 237 233 218 229 216 194 212 201 202 202 195 195 221 235 237 240 239 240 241 235 232 227 231 229 229 228 231 222 223 223 226 225 230 232 232 229 232 231 232 230 230 228 227 226 225 225 225 224 225 224 225 226 225 224 213 205 205 203 205 200 194 196 195
181 179 179 180 179 179 179 179 178 178 178 178 178 178 178 178 178 178 178 178 178 178 178 178 178 178 177 177 177 177 177 178 177 178 176 176 176 176 176 176 176 176 175 175 175 175 175 175 175 174 175 174 174 174 174 174 174 174 174 175 174 174 174 173 173 174 173 174 173 174 173 174 173 173 173 173 173 173 173 175 174 172 173 173 174 173 173 173 173 174 173 174 174 174 174 173 173 173 173 174 173 173 173 172 172 172 172 172 172 172 172 172 172 172 172 172 171 171 171 171 171 171 171 171 171 171 171 171 171 171 171 171 171 170 171 170 170 170 170 170 170 170 170 170 170 169 170 170 170 170 169 169 169 169 169 169 169 169 169 169 169 169 169 169 169 169 169 169 169 169 169 169 169 169 169 169 168 169 169 168 168 168 168 168 168 168 168 168 168 168 168 168 168 168 168 168 168 168 168 168 168 168 168 168 168 168 168 168 168 168 168 168 168 168 168 168 168 168 168 168 168 168 168 168 168 168 169 169 169 169 169 169 169 169 169 169 169 169 169 169 169 169 169 170 170 170 170 170 170 171 170 170 170 170 170 170 170 170 170 170 170 171 171 171 171 171 171 171 171 171 171 171 171 171 172 172 172 172 172 172 172 172 172 173 172 173 173 173 173 173 174 174 174 174 174 174 174 174 174 174 174 174 174 174 175 175 175 175 175 175 175 176 177 176 176 176 177 177 177 177 177 177 177 178 178 178 178 178 178 178 178 179 180 179 179 179 179 179 179 180 180 180 180 180 180 181 181 181 181 181 181 180 181 181 182 182 182 182 182 182 182 182 182 182 184 185 191 197 197 201 204 196 206 195 183 186 187 184 205 226 222 216 216 211 211 216 213 212 212 215 216 216 215 215 218 219 222 226 226 228 228 231 234 235 235 236 236 235 231 233 229 233 235 233 234 236 236 237 238 238 235 235 240 240 240 239 237 236 236 226 230 232 232 224 227 221 223 223 218 218 216 217 217 220 220 220 220 221 224 222 224 224 225 225 225 226 226 221 215 216 221 219 218 216 216 217 220 216 220 222 221 200 195 196 195 196 196 196 196 195
183 181 181 182 181 181 181 180 180 180 181 180 179 179 179 179 179 179 179 179 179 179 178 178 178 178 178 178 178 178 178 178 178 178 178 177 177 177 177 177 178 177 177 177 177 177 177 176 176 177 177 176 176 176 176 176 176 176 176 175 176 175 176 176 175 176 176 175 176 175 175 175 175 175 175 175 175 176 175 175 175 175 176 175 175 175 175 175 175 175 175 175 175 174 175 174 175 174 174 174 175 175 174 174 174 174 174 174 175 174 174 175 174 174 173 173 173 173 173 173 173 173 173 173 173 173 172 173 172 172 172 172 172 172 172 172 172 172 172 172 171 172 172 172 172 172 171 171 171 171 171 171 171 171 171 171 171 171 171 171 171 171 171 171 171 171 171 171 171 171 170 170 170 170 170 170 170 170 170 170 170 170 170 170 170 170 170 170 170 170 170 170 170 170 169 170 170 170 170 170 170 170 170 170 170 170 170 170 170 170 170 170 170 170 170 170 170 170 170 170 170 170 170 170 170 170 171 171 171 171 171 171 171 171 171 171 171 171 171 171 171 171 171 171 171 171 171 171 171 171 171 171 171 172 171 172 172 172 172 172 172 172 172 172 172 172 173 173 173 173 173 173 173 173 173 174 174 174 174 174 174 174 174 174 174 174 175 174 175 175 175 175 175 175 175 175 175 175 176 175 176 176 176 176 177 177 177 177 177 177 177 178 178 178 178 178 178 178 179 179 179 178 179 179 179 179 180 180 180 180 180 180 180 180 180 181 181 181 181 181 182 182 182 182 182 182 182 182 182 182 182 183 182 182 184 184 183 183 184 185 186 183 188 205 207 208 213 214 209 213 216 214 207 196 198 212 214 215 214 213 215 216 215 215 216 216 215 214 215 216 216 217 219 218 219 220 220 222 225 225 227 228 229 233 231 231 228 227 224 220 220 227 225 224 224 226 228 228 232 232 232 234 232 232 233 232 225 223 222 220 221 221 222 222 220 219 220 221 219 218 218 217 214 215 217 217 218 219 220 222 224 225 225 226 225 213 210 207 198 199 196 196 197 197 196 196 196 196 196 196 196 196 196 196 196 196 196 196 196 197
222 202 200 184 184 182 181 182 182 181 182 181 182 182 181 181 181 180 181 181 181 180 181 181 181 179 179 180 179 180 179 178 178 178 178 178 178 179 178 178 177 177 177 177 177 179 180 178 178 178 177 177 177 177 177 177 177 177 177 177 177 177 177 177 177 177 177 177 177 177 177 177 177 177 177 177 177 177 177 177 177 177 177 176 176 176 177 177 176 176 176 176 176 176 176 176 176 175 176 176 175 176 175 176 176 175 175 175 175 175 175 175 174 175 174 175 175 174 174 175 174 174 175 175 174 174 174 174 174 173 173 173 173 173 173 173 173 173 173 173 173 173 173 173 173 173 173 173 172 172 172 172 172 172 172 172 172 172 172 172 172 172 172 172 172 172 172 172 172 172 172 172 172 173 172 172 171 171 171 171 171 171 171 171 171 171 171 171 171 171 171 171 171 171 171 171 171 171 171 171 171 171 171 171 171 171 171 171 171 171 171 171 171 171 171 171 172 172 172 172 172 172 172 172 172 172 172 172 172 172 172 172 172 172 172 172 172 172 172 171 172 172 172 172 172 172 172 172 172 172 173 173 173 173 173 173 173 173 173 173 173 173 174 175 173 174 175 174 174 174 174 174 175 175 175 175 175 175 175 175 175 175 175 175 175 175 175 175 175 176 176 176 176 176 176 176 177 177 177 177 177 177 178 178 178 178 178 178 178 179 179 179 179 179 180 180 180 180 180 180 180 180 180 180 180 180 180 181 181 181 181 181 182 182 182 182 182 182 182 183 183 182 183 183 182 183 183 183 184 184 184 184 191 196 217 222 204 200 213 226 210 204 212 214 215 205 192 202 184 188 191 192 203 203 206 207 209 211 208 207 209 211 216 214 214 209 211 219 221 220 221 220 213 219 215 217 217 211 211 216 218 217 221 218 224 225 224 221 221 222 220 221 220 217 220 219 219 219 217 220 226 223 224 221 221 223 223 223 222 221 223 220 220 219 220 215 207 198 216 201 205 200 204 206 206 202 200 201 209 228 220 219 219 198 198 199 198 197 198 197 197 197 197 197 197 196 196 196 198 197 197 197 197 197 197 197 197 198 203 207
230 234 232 206 211 208 201 198 188 183 182 186 183 183 183 182 183 182 182 182 183 182 182 182 181 181 181 182 181 181 181 181 181 181 180 181 181 182 182 181 180 180 180 179 180 180 180 180 184 190 179 179 179 179 179 179 178 178 178 178 178 178 178 178 178 178 178 178 178 178 178 178 178 178 178 178 178 178 178 178 178 178 178 178 178 178 178 178 178 178 178 178 178 178 178 178 178 177 177 177 177 177 177 177 177 177 177 177 177 177 176 176 176 176 176 176 176 176 176 176 176 176 176 176 176 176 176 176 175 175 175 175 175 175 175 175 175 175 175 175 175 175 175 175 174 174 174 174 174 174 174 174 174 174 174 174 174 174 174 174 174 174 174 174 174 174 174 174 174 174 174 173 173 173 173 173 173 173 173 173 173 173 173 173 173 173 173 173 173 173 173 173 173 173 173 173 173 173 173 173 173 173 173 173 173 173 173 173 173 173 173 173 173 173 173 173 173 173 173 173 173 173 173 173 173 173 173 173 173 174 174 174 174 174 174 174 174 174 174 174 174 174 174 174 174 174 174 174 174 174 174 175 175 175 174 175 175 175 175 175 175 175 175 175 175 175 175 176 176 176 176 176 176 176 176 176 176 176 176 177 177 177 176 177 177 177 177 177 178 178 178 178 178 178 178 179 179 179 179 179 179 179 180 180 180 180 180 180 180 180 180 180 180 181 181 181 181 181 181 181 181 182 182 182 182 182 182 183 183 183 183 183 183 184 184 184 184 183 183 184 184 184 184 184 184 185 185 185 184 185 190 192 206 218 215 211 221 215 204 219 221 219 217 213 213 211 219 209 215 212 202 197 194 194 194 193 192 190 193 200 208 202 215 217 226 228 224 222 224 223 223 224 225 223 222 224 221 216 215 217 213 217 217 216 219 220 219 221 219 219 219 221 221 219 218 218 219 220 220 221 221 220 222 220 220 214 211 208 207 202 201 202 200 206 214 214 209 217 205 202 203 199 199 199 200 201 204 214 220 217 215 207 206 200 198 198 198 197 197 197 197 197 197 197 197 198 198 198 198 198 198 198 198 198 206 211 210 232 238 239
234 236 236 235 228 220 204 215 198 206 198 194 191 207 208 185 183 183 183 183 183 183 182 183 181 183 183 182 182 182 182 182 182 181 181 182 182 182 182 181 182 181 182 180 182 182 183 186 188 181 181 181 180 181 181 181 181 180 181 181 181 181 181 181 181 181 181 181 181 181 181 181 180 179 180 180 179 180 179 180 180 179 179 179 179 179 179 179 179 179 179 179 178 178 178 178 178 178 178 178 178 178 178 178 178 178 178 178 178 178 178 178 178 178 178 177 177 177 177 177 177 177 177 177 177 177 177 177 177 178 176 176 176 176 176 176 176 176 176 176 176 176 176 176 176 176 176 176 176 176 176 175 175 175 175 175 175 175 175 175 175 175 175 175 175 175 175 175 175 175 175 175 175 175 175 175 175 175 175 175 175 175 175 175 174 174 173 175 174 175 174 174 174 174 174 175 174 174 174 174 174 174 174 174 174 174 174 174 174 175 174 174 174 174 174 174 175 175 175 175 175 175 175 175 175 175 175 175 175 175 175 175 175 175 175 175 175 175 175 175 175 175 175 175 175 176 176 176 176 176 176 176 176 176 176 176 176 176 176 176 176 176 177 177 177 177 177 177 177 177 177 177 177 177 177 177 178 179 178 178 178 178 178 178 179 179 179 179 179 179 179 179 180 180 180 180 180 180 180 180 181 181 181 181 181 181 181 181 181 181 181 181 181 182 182 182 182 183 183 183 183 183 183 183 184 183 184 184 184 184 185 185 185 185 185 185 185 185 185 185 185 185 185 185 185 185 185 188 188 189 204 216 193 188 189 190 196 195 191 190 191 191 188 189 189 187 188 203 204 201 214 205 195 196 190 189 188 189 193 202 201 199 220 226 226 227 228 228 226 221 224 226 226 226 226 219 211 212 215 212 212 214 215 216 215 217 218 221 224 221 220 219 218 220 220 222 222 222 222 216 218 218 211 208 203 203 209 228 217 204 201 207 201 218 220 220 219 202 206 203 215 214 221 225 201 200 201 201 201 200 199 199 199 199 198 198 198 198 198 198 198 198 198 198 199 199 200 199 200 199 198 206 221 222 210 235 238 236 236 232
234 233 232 230 229 229 228 230 227 227 224 219 220 220 224 220 210 202 183 184 184 184 183 183 183 183 183 183 183 183 183 183 183 186 188 184 183 183 183 183 183 183 183 184 183 183 183 182 183 183 183 183 183 183 183 183 183 183 183 183 183 183 183 182 183 183 183 183 183 183 183 183 183 183 183 182 182 182 182 182 182 182 182 182 181 181 182 182 182 181 182 181 181 181 181 180 181 180 180 180 180 181 180 179 180 178 179 179 179 179 179 179 179 179 179 179 179 179 178 178 178 178 178 178 178 178 178 178 178 178 178 178 178 178 178 178 178 178 178 178 178 178 178 178 178 178 178 178 178 177 178 177 177 177 177 177 177 177 177 177 177 177 177 177 177 177 177 177 177 177 177 177 177 177 177 177 177 177 177 177 176 176 176 176 176 176 176 176 176 176 176 176 176 176 176 176 176 176 176 176 176 176 176 176 176 176 176 176 176 176 176 176 176 176 176 176 176 176 176 177 177 176 177 177 177 177 177 177 177 177 177 177 177 177 177 177 177 177 177 177 177 177 177 177 177 177 178 178 178 178 178 178 178 178 178 178 178 178 178 178 178 178 179 179 179 179 179 179 179 179 179 179 179 179 180 180 180 180 180 180 180 180 180 181 181 181 181 181 181 181 181 181 181 181 181 181 181 182 182 182 182 182 182 182 182 183 183 183 183 183 184 184 184 184 184 184 185 185 185 185 185 185 186 186 186 186 186 186 186 186 186 185 186 185 185 197 200 207 202 191 187 187 187 187 188 203 231 231 217 232 227 228 217 215 210 201 193 194 188 189 189 188 188 188 188 188 188 189 189 189 189 189 189 189 189 190 190 190 191 192 199 200 212 228 231 227 223 221 214 213 216 217 218 218 216 217 217 216 217 215 217 215 218 221 221 223 223 224 225 226 226 212 205 210 208 205 204 203 205 203 200 198 204 201 201 225 226 227 225 216 219 221 218 209 216 218 215 217 213 215 220 216 209 203 203 203 201 200 200 200 200 199 199 199 200 201 199 199 200 199 199 200 199 199 207 221 211 207 202 210 212 211 218 224 231 234 230 225 225 223
219 221 221 222 222 223 222 222 222 222 223 222 220 230 232 233 234 231 202 189 186 185 187 184 183 184 184 185 186 184 187 184 186 195 193 183 188 194 201 191 184 183 183 183 183 184 183 184 184 184 183 183 184 184 184 184 184 185 184 184 185 184 184 185 184 184 184 184 183 183 183 184 183 184 184 184 184 183 184 183 183 184 183 182 183 183 183 183 183 183 183 183 183 183 183 182 183 183 183 182 181 182 182 182 183 182 182 182 181 182 181 181 181 181 181 181 181 181 181 181 181 180 181 181 180 181 180 180 180 179 180 179 179 179 180 180 179 180 179 180 180 179 180 179 180 178 180 180 178 179 178 178 178 178 178 178 178 178 178 178 178 178 178 178 178 178 178 178 178 178 178 178 178 178 179 178 178 178 178 178 179 178 178 178 178 179 178 179 179 178 179 178 179 178 179 179 178 179 178 179 178 178 179 178 179 178 179 179 178 179 178 179 178 178 179 178 178 178 178 178 178 178 178 178 178 178 178 178 178 178 178 178 178 178 178 178 178 178 179 179 179 179 179 179 179 179 179 179 179 179 179 179 179 179 179 179 179 179 180 180 180 180 180 180 180 180 180 180 180 180 181 182 181 181 181 181 181 181 180 181 181 181 182 182 182 182 182 182 182 182 182 182 182 183 183 183 183 183 183 183 183 183 184 184 184 184 184 185 185 185 185 185 185 185 186 186 185 186 186 185 186 185 185 185 185 186 186 186 186 186 186 188 186 188 189 189 198 203 192 188 189 188 189 193 207 217 222 222 218 217 215 216 215 217 217 211 206 207 199 218 222 210 193 195 190 189 190 191 190 190 190 190 190 190 191 192 192 193 193 194 203 213 211 210 211 212 210 202 207 211 213 214 216 216 217 219 219 218 215 219 219 218 218 220 223 224 227 227 228 221 216 202 198 199 198 199 198 199 199 199 200 199 199 200 202 201 204 204 201 201 201 204 205 206 210 208 213 212 204 202 203 203 203 201 201 201 201 201 200 200 199 199 200 200 201 208 207 206 205 206 215 201 210 217 220 231 226 221 212 229 224 233 230 226 224 224 224 222 220 221
212 213 214 216 216 217 217 218 220 221 224 224 224 229 228 233 232 225 226 215 193 186 194 203 203 207 202 202 211 219 217 215 204 202 196 200 204 205 206 205 211 207 196 197 189 198 190 189 188 185 185 185 185 185 186 185 185 185 185 185 185 185 185 185 185 185 185 185 185 184 184 184 184 184 184 184 184 184 184 184 184 184 184 184 184 184 184 184 184 184 184 184 184 184 184 184 183 184 183 183 184 183 184 184 183 183 183 183 183 183 183 183 183 183 182 182 183 183 182 183 182 183 182 182 183 182 183 183 183 183 183 182 182 182 182 182 182 182 182 182 182 182 182 182 182 181 181 181 181 182 182 182 182 182 182 182 182 182 181 181 181 181 181 181 182 181 181 181 181 181 181 181 181 181 181 181 181 181 181 181 181 181 180 181 180 181 181 181 180 180 181 180 181 180 180 180 180 180 180 180 180 180 180 180 180 180 180 180 180 180 180 180 180 180 180 180 180 180 180 180 180 180 180 180 180 180 180 180 180 180 180 180 180 180 180 180 180 180 181 181 181 181 181 181 181 181 181 181 181 181 181 181 181 181 181 181 181 182 182 182 182 182 182 182 182 182 182 182 182 182 183 182 182 183 183 183 183 183 183 183 183 183 183 183 184 184 184 184 184 184 184 185 185 185 185 185 185 185 185 186 186 186 186 186 187 186 187 186 186 186 186 186 187 186 186 187 187 186 187 187 187 187 187 187 188 187 187 187 187 187 189 188 188 188 189 189 190 189 188 189 188 189 196 198 198 198 198 202 198 197 198 197 194 191 193 190 190 190 192 193 191 192 192 192 191 191 193 194 191 191 193 193 193 193 193 194 194 195 194 194 194 195 195 195 195 196 196 196 195 201 204 207 212 215 208 208 210 212 214 211 210 204 207 208 210 221 222 221 213 209 199 200 200 200 209 211 209 218 214 202 203 205 201 201 202 202 202 202 203 202 203 203 207 205 204 204 204 204 204 204 204 203 203 203 202 201 202 201 201 201 200 201 201 201 202 202 202 201 202 202 202 202 206 218 222 231 232 233 227 231 230 228 225 221 221 216 217 217 214 215
209 210 210 211 212 213 215 216 217 217 223 224 229 230 231 234 234 231 231 213 197 206 200 199 200 203 201 198 196 205 203 202 197 195 201 197 208 208 211 214 206 194 198 192 193 190 190 190 187 187 187 187 187 187 187 187 187 187 187 187 187 187 187 187 187 187 186 186 186 186 186 186 186 186 186 186 185 186 185 185 186 185 185 185 185 185 185 185 185 184 185 184 184 184 184 184 184 184 184 184 184 184 184 184 184 184 184 184 184 184 184 184 184 184 184 184 184 184 184 184 183 183 183 183 183 183 183 184 183 183 183 183 183 183 183 183 183 183 183 181 183 182 182 183 182 183 183 182 183 182 183 182 183 183 182 183 183 183 183 183 183 183 182 183 182 182 183 181 181 180 181 181 181 181 181 182 182 181 182 181 181 181 181 181 181 181 181 181 181 181 181 182 181 181 181 181 181 181 181 181 181 181 181 181 181 181 181 181 181 181 181 181 181 181 181 181 181 181 181 181 181 181 181 181 182 181 181 182 182 182 182 182 182 182 182 182 182 182 182 182 182 182 182 182 182 182 182 183 182 183 183 183 183 183 183 183 183 183 183 183 183 183 183 183 184 184 184 184 184 184 184 184 184 184 184 184 184 185 185 185 185 185 185 185 185 185 185 186 186 186 186 186 186 186 186 186 187 187 186 186 187 187 186 186 186 187 186 186 187 187 187 187 187 187 187 189 189 189 188 188 188 188 189 188 189 189 189 189 188 190 190 190 190 190 190 189 190 189 189 189 188 190 190 190 190 190 190 190 190 190 190 191 191 190 191 191 191 192 192 192 193 192 193 193 193 191 204 215 211 198 196 203 199 195 194 196 195 195 196 196 196 196 196 198 200 199 200 197 197 197 198 198 199 201 200 205 204 202 200 201 203 218 208 208 219 221 217 207 207 206 210 204 205 214 211 226 232 223 221 214 204 204 204 206 211 209 204 204 205 205 205 203 205 205 204 205 205 204 204 204 204 204 203 203 203 202 202 202 202 201 202 202 203 203 203 203 203 203 203 202 204 209 214 215 214 220 221 219 214 213 210 203 207 207 205 198 198 198 198 199
207 206 206 207 207 207 206 207 208 208 208 208 212 213 216 217 220 217 218 212 203 200 199 198 197 194 192 190 191 190 190 189 188 189 189 190 189 190 192 192 190 191 190 189 189 189 189 189 189 189 189 189 189 189 189 189 189 189 189 189 189 189 189 189 189 188 189 189 188 188 188 188 188 188 188 188 188 188 188 188 188 188 187 187 187 187 187 187 187 187 186 187 187 187 186 186 186 186 186 186 186 186 186 186 186 186 186 186 186 185 185 186 185 185 185 185 185 185 185 185 185 185 185 185 185 185 185 185 185 184 184 184 184 184 184 184 184 184 184 184 184 184 184 184 184 184 184 184 184 184 184 184 184 184 184 183 183 184 184 184 184 183 183 183 183 183 183 183 183 183 183 183 183 183 183 183 183 183 182 183 183 183 183 183 183 183 183 183 183 183 183 183 183 183 183 183 183 183 183 183 183 183 183 183 183 183 183 183 183 183 183 183 183 184 184 183 184 184 184 183 183 183 184 183 183 184 184 184 184 184 184 184 184 184 184 184 184 184 184 184 184 184 184 184 184 184 184 185 185 185 185 185 185 185 185 185 185 184 185 185 185 185 185 185 186 186 186 186 186 186 186 186 186 186 186 187 187 187 187 186 187 187 187 186 186 186 187 186 187 188 188 187 186 187 187 187 188 188 188 188 188 188 188 188 188 188 189 189 189 189 190 190 190 191 189 189 190 190 189 190 190 190 190 190 190 190 190 190 191 192 191 192 191 191 191 191 191 191 191 190 191 192 191 191 191 191 191 191 191 191 192 192 193 192 193 193 194 194 194 194 194 195 194 203 220 218 224 218 215 209 206 202 201 197 196 196 197 197 197 197 197 198 198 204 206 199 200 199 199 200 200 199 200 199 199 200 199 201 204 201 202 206 214 217 219 222 234 234 227 219 216 209 210 208 209 208 213 219 217 214 217 211 210 206 205 206 206 206 206 206 206 205 205 206 206 206 205 205 204 204 203 204 204 203 203 204 204 204 204 204 204 204 205 204 204 204 206 206 206 204 204 204 203 202 203 206 202 204 201 201 203 203 201 200 200 199 200 200 200 199
212 210 208 207 208 206 206 204 203 203 202 199 203 204 209 211 206 200 201 194 192 194 197 194 192 191 192 191 191 191 191 191 191 191 191 191 191 191 191 191 191 191 191 191 190 190 191 192 190 190 190 190 190 190 190 190 190 190 190 190 190 190 190 190 190 190 189 189 189 189 189 189 189 189 189 189 189 189 189 189 189 189 189 189 189 189 189 189 189 188 189 188 188 188 188 188 188 188 188 188 187 188 188 188 188 188 187 187 187 187 187 188 187 187 187 187 187 187 187 187 187 186 187 187 186 187 186 186 186 186 186 186 186 186 186 186 186 186 186 186 186 186 186 185 186 185 185 185 184 185 185 185 185 185 185 185 185 185 185 185 185 185 185 185 185 185 185 185 185 185 185 185 185 185 185 185 185 185 185 185 185 185 185 185 185 185 185 185 185 185 185 184 185 185 185 185 185 185 185 185 185 185 185 185 185 185 185 185 185 185 185 185 185 185 185 185 185 185 185 185 185 185 185 185 185 186 185 185 185 185 185 185 185 185 185 186 186 186 186 186 186 186 186 186 186 186 186 186 186 186 185 187 186 187 186 186 187 186 187 187 187 187 187 187 187 187 187 187 187 187 188 188 188 188 188 188 188 187 187 188 188 188 188 189 188 188 189 188 188 188 188 189 189 188 188 190 189 190 190 189 189 189 191 191 191 191 190 191 190 191 191 191 191 191 191 191 191 191 191 191 191 191 191 191 192 192 192 192 193 192 192 192 192 192 191 191 192 192 191 191 192 193 193 193 193 193 193 193 193 193 194 194 194 194 195 195 194 194 195 195 195 195 196 203 203 198 198 196 198 197 198 197 197 199 221 233 227 200 199 199 201 200 201 204 201 219 210 205 208 203 202 202 203 201 201 202 207 221 214 213 218 226 227 228 231 231 233 230 233 232 221 213 210 211 205 206 205 208 213 206 206 206 206 207 207 207 207 207 207 207 210 215 212 206 207 206 206 206 205 205 205 205 205 204 205 204 204 204 204 204 205 205 204 204 204 205 205 204 205 204 203 203 203 203 202 202 202 201 201 201 201 201 201 201 200 201 200 201 201 200
206 205 205 203 203 204 202 199 196 196 196 196 195 196 196 195 194 194 193 194 194 193 194 195 197 193 192 192 192 192 192 192 193 192 193 193 193 193 193 193 193 192 193 193 193 193 193 193 193 193 193 193 192 193 193 192 191 192 192 192 192 192 192 192 192 192 191 191 191 191 191 191 191 191 191 191 191 191 191 190 191 191 190 190 189 190 189 190 190 190 190 190 189 190 190 189 189 190 189 189 189 189 189 189 189 189 189 189 189 189 189 189 189 189 189 189 189 189 189 189 189 189 189 189 189 189 189 189 188 188 189 189 188 189 188 188 188 188 188 188 188 188 188 187 188 188 188 188 188 188 188 188 188 188 188 188 188 188 188 187 187 187 187 187 187 187 187 187 187 187 187 187 187 187 187 187 187 187 187 187 187 187 187 187 187 187 187 187 187 187 187 187 187 187 187 187 187 187 187 187 187 187 187 187 187 187 187 187 187 186 186 187 187 187 187 187 187 187 187 187 187 187 187 187 187 187 187 187 187 187 187 187 188 188 188 188 188 188 188 188 188 188 188 188 188 188 188 188 188 188 187 188 188 188 189 188 188 189 189 189 189 189 189 189 188 188 188 188 188 189 190 190 189 189 189 189 189 190 190 190 189 190 191 190 190 190 190 190 191 191 191 191 192 192 191 191 191 192 192 192 192 192 192 192 192 193 192 193 192 192 192 192 192 192 191 192 192 192 193 193 192 193 193 193 194 194 194 194 194 194 193 194 194 193 193 194 193 194 194 194 194 194 194 194 194 194 194 195 195 195 195 195 195 196 195 195 200 203 196 197 196 197 197 197 198 198 198 198 199 199 199 207 225 230 232 235 230 225 222 217 208 210 209 208 205 205 204 204 203 204 205 205 205 204 205 213 215 213 213 216 217 217 218 217 219 222 221 223 224 221 217 207 206 207 206 207 207 207 208 208 208 207 208 208 208 207 207 208 207 208 208 207 207 206 205 205 206 206 205 206 205 205 205 205 205 205 206 206 206 206 205 205 206 206 206 206 206 204 205 204 203 203 203 203 202 202 202 201 202 201 201 201 201 201 201 201 201 202 202 202
196 196 197 196 196 195 195 195 196 196 197 196 195 194 194 194 194 195 194 195 194 195 198 200 200 194 195 195 194 194 194 194 194 194 194 194 194 194 194 194 194 194 194 195 194 194 194 194 194 194 194 193 193 193 193 193 193 193 193 193 193 193 193 193 192 192 193 192 192 193 192 192 192 192 192 193 192 192 192 192 192 192 192 192 192 192 192 191 191 191 191 191 191 191 191 191 191 191 191 191 191 191 191 191 191 191 191 191 190 190 191 190 190 190 190 190 190 190 190 190 190 190 190 190 190 189 190 189 190 189 189 189 189 189 189 189 189 189 189 189 189 189 189 189 189 189 189 189 189 189 189 189 189 189 189 189 189 189 189 189 189 189 189 189 189 189 189 189 189 189 189 189 189 189 189 188 189 188 188 188 188 188 188 188 188 188 189 188 188 188 188 188 188 188 188 188 188 188 188 188 188 188 188 188 188 188 188 188 188 189 188 188 188 188 189 188 188 188 189 189 189 189 189 190 189 189 189 189 189 189 189 189 189 189 189 189 189 189 189 190 189 189 189 189 190 190 190 190 190 190 190 190 190 190 190 190 190 190 189 190 190 191 190 191 191 191 191 191 191 191 191 191 192 192 191 192 191 192 192 192 191 192 192 191 192 192 192 192 192 193 193 193 192 193 193 193 193 193 193 193 193 193 193 193 193 193 194 194 193 193 193 193 194 193 193 194 194 194 194 195 195 195 195 195 195 195 195 198 205 200 194 194 194 194 195 195 197 205 208 210 199 195 196 194 204 203 195 196 197 217 223 212 220 221 215 207 204 201 197 205 213 213 209 222 208 205 201 207 201 201 200 207 209 214 223 223 226 224 229 224 222 211 204 203 204 204 204 204 204 204 205 205 205 205 205 206 206 206 205 205 206 206 205 206 207 207 206 206 208 210 211 209 208 208 209 208 208 209 208 209 208 209 208 209 209 208 209 208 208 208 208 209 207 207 207 206 206 206 206 207 207 207 207 207 208 208 207 207 207 207 207 207 207 207 206 206 207 206 205 204 203 204 204 204 203 203 203 202 203 203 203 203 203 203 203 203 202 204 204 204
197 197 198 197 198 199 198 199 200 199 200 197 196 196 196 196 196 196 196 196 196 196 196 196 197 196 197 197 197 197 196 196 197 197 197 197 197 197 197 197 197 196 196 196 196 196 196 196 196 196 196 196 195 196 196 195 195 195 195 195 195 195 195 195 195 194 194 194 195 194 194 194 194 194 193 194 193 194 194 193 193 194 193 193 193 193 193 193 193 193 192 193 193 193 193 193 193 193 193 193 193 193 193 193 193 193 192 193 193 192 192 192 192 192 192 192 192 192 192 192 192 192 192 191 192 192 192 192 191 192 192 192 192 192 192 192 192 192 192 192 191 191 192 191 191 191 191 191 190 191 191 191 191 191 191 191 191 191 191 191 191 191 191 191 190 190 191 191 191 191 191 191 191 191 191 191 191 191 191 191 191 191 191 191 191 190 190 191 191 191 191 191 191 191 191 191 191 191 191 191 191 191 191 191 191 191 191 190 191 191 191 191 191 191 191 191 191 191 191 191 190 191 191 191 191 191 191 191 191 191 191 191 191 191 191 191 191 192 191 192 192 192 191 191 192 192 192 192 192 192 192 192 192 192 192 192 192 192 192 193 193 193 193 193 192 193 193 193 193 193 194 194 194 194 194 194 194 194 194 194 194 194 194 195 195 194 194 194 194 194 194 194 194 195 195 195 195 194 195 195 195 195 196 196 195 196 195 195 195 195 195 195 195 196 196 196 196 197 197 197 197 196 201 208 211 221 225 232 232 221 217 215 209 211 230 217 222 233 237 226 227 232 234 231 219 219 217 222 231 237 232 233 235 236 234 231 229 218 213 210 204 220 225 226 221 212 221 227 218 210 209 208 214 215 219 212 217 225 218 214 212 209 206 206 206 207 207 207 206 206 206 207 207 207 207 206 207 208 208 209 212 213 210 210 207 207 209 209 209 209 209 209 209 210 210 209 211 210 211 211 211 210 211 211 210 210 209 209 209 209 208 208 208 208 207 207 208 208 208 208 208 208 209 209 209 208 209 209 208 208 208 208 208 208 207 207 206 206 206 206 205 205 205 205 205 204 204 205 203 204 205 205 205 205 205 205 205 205 206 206
198 198 198 198 198 198 198 199 198 197 198 198 198 198 198 198 198 198 198 198 198 198 198 198 198 198 198 198 198 198 198 198 198 198 198 198 198 198 198 197 198 198 197 197 197 197 197 197 197 197 197 197 197 197 197 197 197 195 197 197 197 196 197 197 196 196 196 196 196 196 196 196 196 195 196 196 196 196 195 195 196 195 195 196 195 195 195 195 195 195 195 195 195 194 195 195 194 195 194 194 194 194 194 194 194 194 194 194 194 194 194 193 194 193 194 194 193 193 193 193 193 193 193 194 193 194 194 193 193 193 193 193 193 193 193 193 192 192 192 192 192 192 192 192 191 191 192 192 193 192 192 192 192 192 192 192 192 192 192 192 192 192 192 192 192 192 192 192 192 192 192 192 192 192 192 192 192 192 192 192 192 192 192 192 192 192 192 192 192 192 192 192 192 192 192 192 192 192 192 192 192 192 192 192 192 192 192 192 192 192 192 192 192 193 192 192 192 192 192 192 194 193 193 192 193 193 193 193 193 193 193 193 193 193 193 193 193 193 193 193 193 193 193 193 193 194 194 194 194 195 194 194 194 194 194 194 194 194 194 194 194 194 195 195 195 195 195 195 195 195 194 195 194 194 195 194 196 194 195 195 195 195 195 195 195 196 196 197 197 196 197 197 196 197 197 197 197 197 197 197 197 197 197 197 197 197 197 197 197 197 197 198 198 198 199 199 199 198 198 198 198 197 198 215 229 230 231 231 224 221 224 225 220 222 230 224 229 228 229 233 234 235 234 236 235 232 233 229 227 226 226 228 231 232 234 235 236 235 235 221 225 226 231 233 233 230 231 224 222 217 225 215 214 227 226 231 226 233 216 207 207 207 207 207 207 206 207 208 208 208 208 208 208 208 207 209 209 209 209 209 209 209 210 209 210 210 210 210 211 211 211 211 211 212 212 211 212 212 212 212 212 211 211 211 211 210 210 210 209 211 211 212 210 209 209 209 209 209 209 211 209 210 211 210 210 210 209 209 209 209 208 208 208 207 207 206 206 206 206 206 206 206 205 205 205 205 205 205 205 205 205 206 206 206 206 206 207 207 207 207
200 200 199 200 200 199 199 200 200 200 199 200 200 200 199 200 200 200 199 200 200 200 200 200 200 200 200 200 200 200 200 200 200 200 200 200 200 200 200 200 200 200 200 200 200 200 199 199 199 199 199 199 199 199 199 199 199 198 198 199 198 198 198 198 198 198 198 197 198 198 198 197 198 198 197 197 197 197 197 197 197 197 197 197 197 197 197 197 197 197 197 198 197 197 196 196 197 197 197 197 197 197 197 197 196 197 197 196 197 197 196 197 196 196 196 196 196 196 196 196 196 196 196 196 196 196 196 196 195 195 196 195 195 195 195 195 195 196 195 195 195 195 195 195 195 195 195 195 195 195 195 195 195 195 195 195 195 195 195 194 195 194 194 195 194 195 194 194 194 194 194 194 194 194 194 194 194 194 194 194 194 194 194 194 195 194 194 194 194 194 194 194 194 194 194 194 195 195 194 195 194 194 195 194 194 194 195 194 195 195 195 195 195 195 195 195 195 195 195 195 195 195 195 195 195 194 195 195 195 194 195 195 195 195 195 195 195 194 194 194 194 195 195 195 196 196 196 196 195 195 196 195 195 195 195 195 195 195 195 196 196 196 196 196 196 196 196 196 197 197 197 197 197 197 198 197 197 197 198 198 198 198 198 198 198 198 198 198 198 198 199 199 199 199 199 200 199 199 198 198 198 198 198 199 198 198 198 198 199 199 199 199 199 199 199 198 199 198 206 211 214 208 209 213 214 213 218 220 220 215 206 207 205 203 202 202 207 208 215 222 225 226 227 225 226 223 222 221 222 221 222 222 223 224 225 225 226 227 227 225 218 219 222 223 223 222 221 219 218 219 210 208 215 219 226 227 228 231 230 229 222 212 209 209 208 209 209 209 210 209 209 209 210 210 210 211 210 210 210 210 211 211 212 212 212 212 212 213 212 213 213 213 212 212 213 213 212 212 212 213 212 211 210 211 211 211 210 210 210 210 210 210 210 211 210 210 210 210 210 210 210 210 210 210 210 210 209 209 210 208 209 208 208 208 208 207 207 207 207 207 207 207 206 207 206 206 206 206 207 207 206 207 207 207 208 207 208 208 208 208
201 202 202 202 201 201 202 202 202 200 202 202 203 201 202 202 202 202 201 202 202 202 202 202 202 202 202 202 201 202 201 201 201 201 201 201 201 201 201 201 201 201 200 200 200 200 200 200 200 200 200 200 200 200 200 199 200 200 200 200 200 199 200 200 199 200 200 199 199 199 199 199 199 200 199 199 199 199 199 199 199 199 199 199 199 199 199 198 198 199 198 198 198 198 198 198 198 199 198 198 198 199 198 198 197 198 198 198 198 198 198 197 197 197 198 197 197 197 197 197 197 197 197 197 197 197 197 197 197 197 197 197 197 197 197 197 197 197 197 197 197 197 197 197 197 197 197 197 197 197 196 197 196 197 196 196 197 196 196 196 196 196 196 196 196 197 196 197 196 196 196 196 196 196 196 197 197 196 196 196 196 196 196 198 199 198 196 196 196 196 196 196 196 196 196 196 196 196 196 196 196 196 196 196 196 196 196 196 196 196 196 197 196 196 196 196 196 196 196 195 196 196 196 195 196 196 197 197 197 197 197 197 197 197 197 197 197 197 197 196 197 196 197 197 196 198 196 197 197 197 198 198 198 198 198 198 198 198 198 198 198 198 198 198 199 199 199 199 199 199 199 199 199 199 199 200 199 200 200 200 200 200 199 200 200 201 201 199 200 200 201 201 200 200 200 199 199 199 199 199 199 199 199 200 200 197 196 196 197 197 198 197 198 198 193 186 169 144 140 141 144 163 174 174 192 197 203 192 208 201 201 202 203 202 204 217 221 213 191 184 185 198 212 214 221 223 225 226 227 226 221 230 233 235 234 234 234 234 234 231 232 230 226 225 225 221 209 209 207 208 209 209 209 210 210 209 210 211 210 210 210 210 210 209 210 211 211 211 210 211 211 211 212 212 212 212 212 212 212 213 213 213 213 212 212 213 213 213 213 213 214 214 213 214 213 214 214 214 213 212 212 212 211 211 211 211 210 211 210 211 211 211 211 211 212 212 211 211 211 211 212 212 212 211 211 210 210 210 209 210 208 208 208 208 207 208 207 207 207 207 208 207 207 207 207 208 208 208 209 208 209 209 209 210 210 210 210 210 210 210
203 204 204 204 204 203 204 204 204 203 203 204 204 204 203 204 204 204 204 204 204 204 205 204 204 204 204 204 204 204 204 204 204 204 204 203 203 203 204 203 203 203 203 203 203 203 203 203 203 203 203 202 202 202 202 202 202 202 202 202 202 200 201 202 202 201 202 202 201 201 201 201 201 201 201 201 201 201 201 201 201 201 201 200 200 201 201 200 200 200 200 200 201 200 200 200 200 200 200 200 200 200 200 200 200 200 200 200 200 200 200 200 200 200 200 200 200 200 200 200 200 200 200 200 200 199 199 199 199 198 199 199 199 199 199 199 199 199 199 199 199 199 199 199 199 199 199 199 199 199 199 199 199 199 199 199 199 199 198 198 198 198 198 197 199 198 198 198 198 198 198 198 198 198 198 198 198 198 198 198 198 198 198 198 198 198 198 198 198 198 198 198 198 198 198 198 199 198 197 198 197 197 199 198 198 198 198 198 199 199 197 198 198 199 199 199 199 199 199 199 199 199 199 199 199 199 199 199 199 199 199 199 198 199 199 200 199 199 200 199 199 200 199 199 200 200 200 199 200 200 200 200 200 200 200 200 200 200 200 200 200 201 201 201 201 201 201 201 201 200 200 200 200 200 202 201 202 202 202 201 201 201 201 201 201 202 202 202 203 202 196 173 156 160 160 158 158 158 156 156 152 148 147 141 141 140 131 140 136 132 129 128 130 132 136 145 143 140 139 139 144 145 135 133 139 140 145 135 141 143 152 172 170 160 134 134 134 137 132 137 138 143 142 138 144 149 161 173 211 226 226 225 225 227 227 228 227 228 227 225 224 222 213 208 211 209 211 210 210 209 209 211 211 212 211 212 211 212 212 211 212 212 212 213 213 213 213 213 213 213 213 214 214 214 214 213 213 213 214 214 214 215 214 214 215 215 215 214 215 216 216 215 216 215 215 215 214 214 214 214 212 213 213 212 212 212 212 213 213 213 213 212 213 214 213 213 213 213 213 213 213 212 212 212 212 211 211 211 210 210 210 210 209 209 209 209 209 209 209 209 209 209 209 210 209 210 210 211 211 211 211 211 211 211 211 211 212 211 196 167
205 205 205 206 205 205 205 206 206 206 206 206 204 205 206 205 206 206 206 206 206 207 207 208 207 206 205 205 205 205 205 206 207 217 216 214 212 205 204 204 204 204 204 204 204 204 204 204 204 204 204 203 203 203 203 203 203 204 203 203 203 202 203 203 203 203 203 203 203 203 203 203 203 203 203 203 203 203 203 203 203 203 203 203 203 202 202 202 202 202 202 202 202 202 202 202 202 202 202 202 202 202 202 202 202 201 201 201 201 201 202 201 201 201 201 201 201 201 201 201 201 201 201 201 200 200 200 200 200 200 201 201 200 200 200 200 200 200 200 200 200 200 200 200 200 200 200 200 200 200 200 200 200 200 200 200 200 200 200 200 200 200 200 200 200 200 200 200 200 200 200 200 200 200 200 200 200 200 200 200 200 200 200 200 200 200 200 200 200 200 200 200 200 200 200 200 200 200 200 200 200 200 200 200 200 200 200 200 200 200 200 200 200 200 200 200 200 200 200 200 200 201 200 201 201 201 201 201 201 201 201 201 201 201 201 201 201 201 201 201 201 201 201 201 201 201 202 201 202 202 203 202 202 202 202 202 202 202 202 201 201 202 202 202 202 201 203 203 203 203 202 202 203 203 203 203 203 204 204 204 204 204 204 205 199 195 193 194 153 130 132 130 137 127 126 127 137 133 134 132 136 131 125 132 142 129 140 126 125 129 139 136 126 124 125 127 134 142 142 137 132 133 135 135 139 141 143 143 143 139 143 138 132 129 130 130 127 129 135 145 144 136 133 134 136 135 129 129 137 143 163 192 223 227 228 231 236 235 233 231 231 230 226 223 217 213 211 211 212 212 213 212 212 212 213 213 213 213 213 213 212 213 214 214 214 213 213 213 213 214 215 215 214 215 215 214 216 216 216 216 216 216 216 216 217 217 217 217 217 216 216 216 216 216 215 215 215 215 214 214 214 213 214 214 214 214 214 215 215 215 214 215 215 214 215 215 213 213 214 214 214 213 213 212 212 212 211 211 211 211 211 211 211 210 210 211 210 210 211 211 211 211 212 211 210 212 212 210 213 212 212 212 212 207 176 147 147 145 145 145
208 207 207 207 207 207 208 207 207 208 208 208 207 207 207 207 208 207 208 207 207 207 207 207 207 207 207 207 207 207 206 206 215 217 220 219 210 212 212 209 207 209 206 206 205 206 205 205 205 205 205 205 205 206 207 206 206 205 205 205 205 205 204 205 205 205 205 205 205 205 205 205 204 205 205 206 204 205 205 205 205 205 204 205 204 205 205 203 204 204 204 204 204 204 204 204 204 204 204 204 204 204 204 204 204 204 204 204 204 204 204 204 204 204 204 203 203 204 203 203 203 203 203 202 203 203 203 203 203 203 203 203 203 202 202 203 203 203 203 202 203 203 203 203 203 203 203 203 203 203 203 203 203 203 203 202 201 202 203 202 203 202 202 202 202 202 202 202 202 202 202 202 203 202 202 202 202 201 204 203 202 201 202 202 203 202 202 202 201 201 202 202 202 202 202 202 202 202 202 202 202 203 202 202 202 203 202 203 203 203 203 203 203 203 203 203 203 203 203 203 203 203 203 203 203 203 203 203 203 203 203 203 203 203 203 203 202 202 203 203 204 204 204 204 204 204 203 204 203 203 204 203 204 204 204 204 206 205 204 203 204 204 204 205 205 204 204 204 204 204 204 204 204 205 206 205 205 205 205 180 151 142 131 130 141 139 137 127 120 123 120 121 121 120 122 121 121 132 129 131 128 126 124 125 130 138 135 144 149 133 139 133 132 129 124 130 136 152 148 139 135 130 125 130 132 133 133 130 135 133 130 129 132 134 137 128 127 128 129 133 133 133 127 127 127 132 143 141 136 137 144 149 150 164 210 226 227 227 229 230 231 234 235 232 233 229 226 226 226 217 214 213 214 214 215 214 214 215 215 215 215 215 216 216 216 216 215 215 216 216 216 216 217 217 218 217 217 218 217 217 218 218 218 218 218 218 217 218 217 218 217 217 216 216 215 215 215 215 215 215 215 215 216 215 216 217 216 217 216 216 216 216 216 216 216 216 215 216 214 214 212 213 213 213 213 212 212 212 213 212 211 212 212 212 212 212 213 212 212 213 213 213 213 213 214 214 214 214 215 215 213 181 152 146 145 145 145 144 144 144
208 209 209 208 209 208 209 209 209 209 209 209 209 209 209 209 209 209 209 208 208 207 208 208 208 209 209 209 209 209 209 209 208 210 212 215 213 213 212 210 208 208 208 208 208 207 207 207 207 207 207 207 208 208 208 210 211 212 210 207 207 207 207 207 207 207 207 207 209 217 212 211 206 207 206 217 218 216 214 206 207 206 206 207 211 231 209 207 207 206 206 206 206 206 206 206 206 206 205 205 205 204 207 205 206 206 205 205 205 205 205 205 205 205 205 205 205 205 205 205 205 205 205 205 204 205 205 204 205 204 205 205 203 205 204 204 204 204 204 204 205 204 203 204 204 204 204 204 204 204 204 204 204 204 204 204 204 204 204 204 203 204 204 204 204 204 204 204 204 204 204 204 205 205 204 204 204 204 205 204 205 204 204 204 204 204 204 204 205 204 204 204 204 204 204 204 204 204 204 204 204 204 204 203 204 204 204 204 204 204 204 204 204 204 204 204 204 204 204 204 205 205 204 204 204 204 205 205 205 204 205 205 204 205 204 205 205 208 207 205 205 204 204 205 205 204 205 206 206 206 205 205 205 206 205 206 206 205 206 205 205 205 205 205 207 206 206 207 206 207 206 206 207 207 208 200 151 122 123 124 133 131 125 122 125 121 120 120 120 121 120 120 121 121 121 122 126 126 121 124 129 123 121 133 135 128 124 139 123 123 123 123 123 123 122 124 125 126 124 126 126 131 140 133 131 133 131 124 124 124 125 126 126 125 126 136 125 132 134 143 141 128 126 126 126 128 131 132 130 134 137 139 145 153 153 159 221 227 228 229 230 232 232 234 236 236 236 236 235 232 220 216 216 216 216 216 216 216 217 217 217 217 217 217 217 217 218 218 218 218 217 218 218 219 219 218 219 219 219 219 219 219 219 219 219 219 219 218 218 218 218 217 217 217 216 217 216 216 217 217 217 217 217 217 217 217 217 217 217 217 217 217 217 217 216 216 216 215 215 215 213 214 214 213 214 213 214 212 212 213 213 213 213 213 214 214 214 214 214 214 215 215 215 215 215 216 216 216 210 178 145 145 145 145 144 144 144 144 143 143
210 210 211 210 209 210 210 210 210 210 210 210 211 210 210 210 210 210 210 210 210 210 210 210 210 210 210 210 209 209 209 209 209 209 209 209 210 209 208 209 209 209 209 209 209 209 209 209 209 209 209 209 209 209 209 209 210 209 209 209 208 209 209 208 208 209 209 215 221 220 221 219 219 223 228 230 229 224 219 223 225 223 225 229 227 228 228 227 219 208 208 208 207 207 208 208 208 208 208 208 208 208 207 212 213 211 208 206 206 207 207 207 207 207 207 207 207 207 207 207 207 207 207 207 207 207 207 207 207 207 207 207 207 207 206 207 207 206 207 206 207 207 207 206 206 206 206 206 206 206 206 206 206 206 206 206 206 206 206 206 206 206 206 206 206 206 206 205 206 206 206 206 206 206 206 205 206 206 206 205 206 206 206 206 206 206 205 206 205 205 206 206 206 205 205 206 207 206 204 206 206 206 207 207 207 207 207 206 207 207 207 207 207 207 207 207 207 207 206 206 206 207 206 206 206 206 206 206 206 206 206 206 207 206 206 206 206 207 207 207 208 206 208 209 209 208 209 208 207 208 208 208 207 207 208 208 208 209 208 208 208 209 209 209 209 209 209 209 209 209 210 209 203 163 140 125 131 132 128 127 125 140 134 128 121 120 120 120 121 122 121 121 121 121 125 123 143 149 128 122 125 127 121 124 131 127 123 132 126 124 122 122 122 122 124 125 127 126 123 124 124 124 131 126 124 124 124 124 123 124 124 124 124 124 125 124 124 125 125 125 126 124 126 125 126 128 133 138 134 132 130 127 132 140 143 148 152 185 225 224 226 228 228 228 227 226 226 230 229 224 220 218 217 217 217 218 219 219 218 219 217 218 219 219 219 218 219 220 220 220 220 221 221 221 221 221 221 221 221 221 221 221 220 221 220 220 220 219 219 219 218 219 218 218 218 219 219 219 219 219 219 219 218 218 218 219 218 219 218 218 218 218 218 218 216 216 217 217 216 216 216 216 215 215 215 215 215 215 215 214 215 215 216 216 216 216 216 215 216 215 216 216 216 216 216 216 214 187 148 145 144 144 144 143 144 143 142 143 143 143
212 212 211 211 211 211 212 211 211 211 211 212 211 212 211 211 211 211 211 211 211 210 211 210 211 211 211 211 211 211 211 211 211 210 210 209 210 210 210 210 210 210 210 210 210 210 210 210 210 210 210 210 210 210 210 210 210 210 210 210 210 210 212 216 211 210 210 212 214 223 223 225 223 223 227 225 228 228 224 224 225 222 225 227 231 231 230 226 228 221 210 209 209 209 209 209 209 209 209 209 209 217 218 217 221 222 216 209 209 208 209 209 209 208 208 208 208 209 208 208 208 208 208 208 208 208 208 208 208 208 208 208 208 208 208 207 208 208 207 208 208 208 208 209 208 207 208 208 208 208 208 208 208 208 208 208 208 208 208 208 208 208 208 208 208 208 208 208 209 208 209 209 208 208 207 208 208 208 208 208 208 208 208 208 208 208 208 208 208 208 208 208 208 208 209 217 220 220 216 214 208 208 208 210 209 213 214 208 209 209 211 213 209 208 208 208 208 209 212 209 208 208 208 208 208 208 208 208 208 208 208 208 208 209 209 209 209 209 209 209 209 209 209 209 209 210 209 209 209 210 210 211 212 211 210 210 210 210 211 210 210 210 210 210 211 211 211 211 211 210 194 123 122 122 122 120 118 119 132 142 135 131 126 122 132 139 125 121 121 120 119 119 121 122 131 136 133 135 132 122 121 124 123 121 123 121 122 122 125 123 123 122 122 123 124 127 124 123 123 123 123 123 123 125 124 126 139 129 129 127 129 129 128 127 128 126 125 126 125 125 124 126 126 126 124 124 126 125 125 125 125 128 128 128 128 136 152 151 153 170 207 219 217 219 218 219 219 218 218 219 219 218 219 219 219 220 219 221 220 220 220 220 221 221 221 221 221 222 222 222 222 222 221 222 222 221 222 221 222 221 221 221 220 220 220 219 219 219 219 219 219 218 218 218 219 219 219 219 220 219 219 220 219 219 219 219 219 219 218 219 218 218 218 217 216 216 216 217 216 215 215 216 216 215 215 215 216 215 215 216 216 216 216 216 216 216 217 217 217 217 217 217 218 219 218 202 145 145 144 144 144 144 144 143 143 143 143 143 142 143
212 212 212 213 212 212 212 212 212 212 213 212 212 213 213 212 212 211 211 212 212 213 212 213 212 212 212 212 213 213 212 212 212 212 212 212 212 212 212 212 212 212 212 212 212 212 212 212 211 212 212 212 211 212 212 212 212 212 212 212 212 212 212 213 212 212 212 212 212 213 212 212 212 213 216 216 214 216 216 214 217 216 220 220 220 220 222 223 221 220 214 212 212 213 211 211 211 210 211 211 211 211 212 211 210 210 213 212 210 209 210 211 210 210 209 210 211 210 210 209 209 209 210 210 209 210 209 210 210 210 209 210 210 209 209 210 209 209 209 210 209 210 211 210 210 209 209 210 209 210 209 209 209 209 210 209 210 210 209 210 209 210 210 210 209 209 210 209 210 208 209 210 215 219 214 209 209 209 210 209 209 209 210 210 209 210 209 210 209 209 210 210 210 211 210 210 211 211 211 210 210 210 213 216 217 219 215 214 213 212 213 214 213 210 212 216 221 223 220 215 211 211 211 211 210 210 210 210 211 210 210 210 210 211 210 211 210 211 211 211 211 212 212 212 211 212 211 212 211 212 213 214 215 214 213 213 212 212 213 213 213 214 214 213 214 214 214 214 191 138 120 119 119 119 118 119 121 120 130 129 132 135 136 125 132 133 125 128 121 120 120 120 120 121 123 131 133 142 124 126 121 121 122 122 122 122 121 122 122 122 123 123 122 123 124 125 124 124 123 123 124 124 123 124 124 124 129 133 132 128 139 148 148 150 148 147 142 132 126 125 125 125 124 124 125 125 125 126 125 125 128 129 127 129 128 128 133 136 145 147 157 152 181 220 220 221 220 221 220 220 221 220 220 220 220 221 220 221 221 221 221 221 222 222 222 222 223 224 223 223 223 223 223 223 223 223 223 223 222 222 223 222 221 222 221 221 220 220 221 221 222 221 221 221 222 222 222 221 222 222 222 221 221 222 221 221 220 220 219 219 219 218 219 219 218 218 217 217 217 218 217 217 217 217 218 218 218 218 218 219 218 218 218 218 218 219 219 219 219 219 219 219 219 191 153 144 143 143 143 143 143 143 143 143 143 143 142 142 142 142
215 215 215 215 213 214 214 215 214 214 214 214 214 214 214 214 214 214 214 214 214 213 213 213 213 213 213 213 212 212 212 212 212 212 212 212 212 212 212 212 213 212 212 212 212 212 212 212 212 212 212 212 212 212 212 212 212 212 212 212 212 212 213 213 212 213 212 213 213 212 213 212 213 212 212 211 212 214 212 212 212 213 213 214 214 213 213 212 213 213 212 212 212 212 212 212 212 212 213 212 212 212 212 212 212 212 212 212 212 212 212 212 212 212 212 212 212 211 211 212 212 211 211 212 211 212 212 211 211 211 210 211 211 211 211 211 212 213 212 211 211 215 219 214 212 214 216 215 211 211 212 212 211 211 211 211 211 211 211 211 211 211 210 211 211 211 211 211 211 211 212 213 224 227 226 222 216 212 212 212 212 212 212 211 212 212 212 212 212 212 212 212 212 212 212 212 212 212 212 212 212 212 212 213 213 212 212 212 212 212 212 212 212 213 212 213 213 213 215 214 213 213 213 213 213 213 213 213 213 213 213 213 214 213 213 214 214 214 213 214 214 214 213 213 213 215 217 213 213 213 213 214 213 213 214 214 215 215 215 214 214 214 214 214 214 203 137 122 120 119 118 120 119 127 131 124 134 130 123 128 126 125 124 121 123 120 119 120 120 120 119 120 121 120 121 120 134 129 120 121 121 121 121 121 121 121 122 121 122 122 122 124 123 122 123 124 124 123 123 123 123 123 122 122 124 123 123 122 123 122 123 126 124 136 140 126 124 125 123 126 128 124 124 124 124 124 124 127 125 124 125 125 123 131 130 126 136 129 140 154 153 152 151 159 215 222 221 221 223 222 222 221 223 223 223 224 224 223 223 224 223 224 224 223 224 224 225 225 224 224 225 224 224 224 224 223 224 223 224 222 222 222 222 222 222 221 221 222 223 223 223 222 222 222 222 222 222 222 222 222 222 222 221 221 221 220 220 220 219 219 219 220 219 220 219 219 219 218 218 218 218 218 218 218 218 218 217 219 219 219 219 219 219 220 220 220 221 220 220 220 218 169 144 144 144 143 143 143 143 143 142 142 142 142 142 141 142 142 142 142
216 216 215 216 215 215 216 215 215 216 215 215 215 215 215 215 215 215 216 215 215 215 215 215 215 215 215 215 214 215 215 215 215 215 215 215 216 215 216 216 216 216 216 216 216 216 216 216 216 216 216 216 216 216 216 216 216 216 216 216 216 216 216 215 216 216 214 215 215 216 215 214 215 214 215 214 215 215 215 215 214 214 215 214 215 214 214 215 214 215 214 214 214 214 214 213 213 214 213 213 212 213 213 213 213 213 213 213 213 213 213 213 213 213 213 213 213 213 212 213 213 212 212 213 213 213 212 212 213 212 213 212 212 213 213 214 216 219 221 221 224 225 223 222 223 225 225 226 220 215 213 213 213 212 213 212 212 212 212 212 212 212 214 214 214 214 214 213 213 213 216 223 226 228 228 224 223 218 216 213 213 214 213 213 213 213 213 214 214 213 213 214 214 215 214 214 214 214 214 214 214 214 214 214 214 214 214 214 214 214 214 214 214 214 214 214 214 214 214 214 214 214 214 215 215 215 215 215 215 215 216 216 215 215 216 216 215 215 215 216 215 215 215 216 217 217 216 217 217 217 217 217 217 217 217 217 217 217 217 218 217 217 216 187 135 122 122 120 119 118 119 119 120 121 131 121 128 122 126 129 133 123 125 125 126 122 119 119 120 120 122 122 120 121 121 120 122 125 122 122 121 122 124 122 122 121 121 122 123 123 122 123 123 123 123 123 123 123 123 122 123 122 122 122 123 122 122 122 122 122 123 127 127 150 139 125 123 123 123 123 123 123 124 124 125 125 131 125 125 125 125 124 125 127 126 132 134 132 139 140 143 150 151 153 145 158 208 224 224 223 223 224 224 224 225 224 225 226 226 225 225 225 225 225 225 225 225 226 225 225 225 225 225 225 224 224 224 224 224 223 223 223 223 223 223 223 223 223 223 224 224 224 224 224 224 223 224 223 223 223 223 223 222 222 221 222 222 220 220 220 220 220 220 220 220 220 220 219 220 220 220 220 220 220 220 221 222 221 221 221 222 221 222 222 222 222 221 222 221 182 150 144 143 143 143 143 143 142 142 142 141 142 142 141 142 142 141 141 141 141
217 217 217 216 217 216 216 216 216 217 216 216 216 216 216 216 216 216 215 216 215 215 215 215 215 215 216 216 215 215 215 215 216 215 216 217 217 217 216 217 217 216 217 216 217 217 216 216 216 216 216 217 216 216 217 217 217 217 216 216 216 217 216 217 216 217 217 216 217 217 216 216 217 216 216 216 216 216 216 216 216 216 216 216 216 216 216 216 216 216 216 216 216 216 216 216 216 215 216 216 216 216 216 216 216 216 216 215 216 215 215 215 215 215 215 215 215 215 215 216 216 215 216 216 215 216 215 215 215 215 215 216 215 216 216 216 216 217 222 225 224 224 224 224 226 226 228 228 225 219 218 217 215 215 215 215 215 216 216 216 215 216 216 216 216 215 216 215 216 216 216 216 216 216 216 216 216 217 216 216 216 215 216 217 216 216 216 216 216 216 216 217 217 216 217 217 217 217 217 217 217 217 217 217 217 217 217 217 217 217 217 217 217 217 217 217 217 217 217 217 217 217 217 217 217 217 217 217 216 217 217 218 218 218 217 218 218 218 218 218 218 218 218 218 218 218 218 218 218 219 219 219 218 219 218 218 218 218 218 219 217 187 122 119 119 119 119 119 118 119 118 118 119 119 126 124 130 132 127 132 123 123 122 127 145 122 121 120 120 120 121 121 120 120 121 124 120 121 121 121 122 122 122 122 123 122 122 122 122 122 122 123 123 124 128 123 122 122 123 123 122 123 123 122 122 125 123 122 123 124 122 125 129 134 128 124 123 122 124 124 123 122 123 124 125 126 132 124 124 126 124 124 124 125 126 125 141 138 140 138 135 136 146 148 151 149 147 154 206 225 225 225 225 225 225 226 226 226 226 226 227 227 226 227 227 227 227 227 227 226 226 227 227 225 225 225 224 224 224 224 225 224 224 224 225 225 225 225 226 226 226 225 224 225 225 224 224 224 224 223 224 224 222 222 222 221 221 221 221 221 222 221 222 221 220 221 221 221 221 221 221 221 221 221 222 222 221 222 222 222 222 224 228 225 224 222 215 190 145 143 143 143 143 142 143 142 142 142 142 141 142 141 141 141 142 141 141 141 141 141
217 217 217 217 217 217 217 217 217 217 218 217 218 217 217 216 217 216 217 217 217 217 217 217 216 216 216 217 217 218 217 218 217 217 218 217 218 217 218 218 218 218 217 218 217 218 217 217 218 218 218 217 218 217 218 218 218 218 218 217 217 217 217 217 217 217 218 217 217 217 217 217 217 217 217 217 217 217 217 217 217 217 217 217 217 217 217 217 217 217 217 217 217 216 217 217 217 217 217 216 217 217 217 216 216 216 216 217 216 217 216 216 217 216 217 216 216 217 217 217 216 217 216 216 217 216 217 216 217 217 216 217 216 217 216 216 217 218 218 217 218 218 217 218 218 219 219 218 217 219 218 217 217 217 216 217 218 218 217 217 217 217 217 218 217 218 217 218 217 218 218 217 218 217 218 217 217 218 217 218 217 218 217 218 218 217 218 218 218 217 218 219 219 219 218 218 218 218 219 219 218 218 218 219 218 219 218 218 218 218 219 218 219 218 218 218 218 219 219 219 219 219 218 219 219 219 219 221 220 219 220 220 220 219 220 220 220 220 219 219 219 220 220 220 220 219 219 220 220 220 220 220 221 220 220 220 219 220 220 177 128 120 119 119 118 118 119 119 119 119 118 121 125 122 121 123 130 131 132 132 128 123 121 124 132 139 124 120 123 120 121 121 121 121 121 121 121 122 122 121 121 121 121 121 121 121 122 121 122 122 122 124 125 130 131 127 123 122 122 122 123 122 122 126 122 126 124 123 123 122 124 123 132 124 123 122 123 123 123 123 123 123 124 125 124 124 125 124 124 124 124 124 124 124 125 125 129 147 135 129 143 136 135 143 148 150 155 151 153 187 228 227 227 227 227 227 226 227 227 227 228 228 228 228 228 228 227 227 227 227 226 226 226 226 225 225 225 225 225 225 225 226 226 226 226 226 226 226 226 226 226 225 226 226 225 225 224 224 224 223 223 223 223 223 223 222 222 222 222 222 222 222 222 222 222 222 222 222 222 223 223 223 223 223 223 223 223 224 223 225 226 227 234 234 209 161 144 143 143 143 142 142 142 142 142 142 141 141 141 141 141 141 141 141 141 141 141 141 141 141
219 219 219 219 218 219 219 219 219 218 219 219 219 218 218 218 218 217 217 218 217 217 217 217 218 218 218 218 218 218 219 219 219 219 219 219 219 219 219 219 218 219 219 219 219 219 219 219 219 219 219 219 219 219 219 219 219 219 219 219 219 219 219 219 219 219 219 218 218 218 219 217 218 218 218 219 218 219 218 219 219 218 219 218 219 217 217 218 218 219 217 218 218 217 218 218 217 218 218 218 218 217 218 218 218 218 218 218 218 218 218 218 218 218 218 218 218 218 218 217 218 218 218 218 218 218 217 218 218 219 219 218 219 218 219 219 218 219 218 219 218 218 219 218 218 217 218 218 218 218 218 218 219 219 219 218 219 218 219 219 219 219 219 219 218 219 219 219 219 219 219 219 218 219 219 219 219 218 218 218 219 218 218 219 220 220 219 220 219 219 220 219 220 220 220 220 220 220 220 220 220 220 220 220 220 219 220 220 219 219 219 220 220 220 220 219 220 219 219 220 219 219 219 220 221 220 220 221 221 224 224 225 226 226 223 221 221 221 221 221 222 221 222 222 221 222 222 222 222 222 222 223 223 223 222 222 213 164 120 120 120 118 118 119 119 119 119 119 120 119 119 120 127 129 137 120 127 130 136 138 123 124 120 124 131 132 144 127 122 121 122 123 120 120 121 121 122 122 120 122 121 122 121 122 121 121 121 123 122 122 123 124 126 121 126 127 124 122 123 123 122 121 122 123 122 124 122 126 122 130 126 121 123 123 124 124 123 125 123 124 125 123 124 125 124 124 124 124 124 125 127 126 125 124 124 124 125 128 141 143 132 133 144 151 151 149 155 155 151 148 187 229 228 228 228 229 229 229 229 229 229 229 229 229 229 228 228 228 227 227 227 227 227 226 226 226 226 226 227 227 227 227 227 227 227 227 227 226 226 226 226 226 226 226 225 225 225 224 224 224 224 224 223 223 223 223 223 224 223 223 223 223 223 223 223 224 224 223 224 225 224 224 225 225 225 225 225 225 225 225 226 227 228 167 144 143 142 142 143 142 142 142 142 142 141 142 142 142 140 141 142 141 140 142 140 140 140 140 140 140
220 219 219 220 219 220 219 219 219 219 220 219 220 219 219 220 219 220 220 219 219 219 220 219 219 220 220 220 219 220 219 220 220 218 220 219 220 219 220 220 220 219 220 220 220 220 220 220 220 220 220 220 220 220 220 220 220 220 220 220 220 220 220 220 220 220 220 220 220 220 220 220 220 220 220 220 220 220 220 220 220 219 220 220 220 220 220 220 220 220 220 220 220 219 220 220 220 220 220 220 220 220 220 220 220 220 220 220 220 220 220 220 220 220 219 220 220 219 219 219 220 219 218 219 220 220 220 220 221 220 221 220 221 221 221 220 221 221 220 221 220 219 219 219 219 219 220 220 220 220 221 221 221 220 221 221 221 221 221 220 221 221 221 220 220 221 221 221 221 221 221 221 220 221 220 222 221 221 222 222 222 222 222 222 222 222 222 222 222 222 222 222 222 222 222 222 222 222 222 223 222 222 222 222 222 221 222 222 221 222 222 222 222 222 222 222 222 222 222 223 222 222 222 223 222 222 223 224 224 224 226 228 229 229 227 226 224 225 226 226 226 226 223 223 223 224 223 224 223 223 224 222 222 222 215 142 120 121 120 119 119 118 117 119 118 119 118 119 118 119 119 122 119 121 125 135 133 133 136 139 134 120 124 121 124 124 143 128 123 120 121 121 122 121 121 121 121 121 121 121 121 121 122 122 122 121 121 121 122 121 121 125 126 122 122 122 121 122 122 121 122 123 122 123 121 122 123 129 123 125 124 122 123 123 123 123 123 125 122 123 128 126 124 125 124 125 125 124 125 125 124 126 125 124 124 125 127 129 132 125 129 132 137 147 148 150 142 148 153 149 153 145 161 168 220 230 231 230 230 230 230 230 230 230 229 229 229 229 228 228 228 228 228 228 228 228 228 228 229 229 229 229 229 229 228 228 229 228 228 228 228 227 227 227 226 226 226 225 225 225 225 225 225 225 225 225 225 225 225 225 225 225 225 225 225 225 225 225 226 226 226 226 226 226 226 227 227 226 226 226 226 203 144 142 142 143 142 142 141 141 141 141 142 142 142 142 141 140 141 141 141 140 140 138 140 140 140 140 140 141
219 219 219 219 219 219 219 219 219 219 219 219 219 219 219 219 220 219 220 220 220 220 220 220 220 220 220 220 220 220 220 220 220 221 220 220 220 220 220 220 220 220 220 220 220 220 220 220 220 220 220 220 220 220 220 220 220 220 221 220 220 220 220 220 220 220 220 220 220 220 220 220 220 220 220 220 220 221 220 221 221 220 221 221 221 220 220 221 220 220 220 220 220 220 221 220 220 220 220 220 219 220 219 220 220 220 221 220 220 220 220 220 220 220 220 221 220 221 221 221 220 220 221 221 221 221 220 221 221 221 221 221 221 221 221 221 220 220 220 221 221 220 221 220 221 222 221 221 222 221 221 221 221 221 221 221 222 221 221 221 221 222 221 222 222 221 221 221 221 222 222 222 223 222 222 222 222 222 223 222 223 222 223 223 222 223 222 222 222 222 222 222 222 222 222 222 222 222 222 222 222 223 223 222 223 222 222 222 222 223 223 223 223 223 223 223 223 223 223 224 223 223 223 223 224 223 224 224 225 224 226 228 228 229 229 228 230 230 232 233 232 229 226 224 224 224 225 225 225 224 225 223 218 188 120 121 120 119 119 119 118 118 118 118 118 119 118 119 121 118 124 133 120 119 126 136 140 136 136 134 129 123 122 129 123 122 126 123 120 121 122 122 121 122 121 122 122 121 121 121 121 122 122 121 121 122 121 122 121 122 123 125 122 121 122 121 122 122 122 121 122 123 122 123 122 122 130 125 123 122 123 123 123 122 122 122 125 123 123 127 126 123 124 123 123 124 124 124 123 124 124 126 123 124 124 124 125 133 141 143 133 133 132 144 145 141 146 140 145 142 136 129 129 129 131 132 132 166 210 226 231 230 230 230 230 229 229 229 229 229 229 228 229 230 229 229 230 229 229 229 229 229 229 229 229 229 229 229 229 228 227 227 227 227 226 226 226 226 226 226 225 225 226 226 225 225 225 225 226 225 226 226 226 227 226 226 226 226 227 228 227 227 227 227 228 227 228 228 222 190 143 143 142 142 142 141 142 141 140 141 142 142 141 141 140 140 139 137 137 138 138 137 136 136 138 139 140 142 143 141
220 220 220 220 220 220 220 220 220 220 221 220 220 220 220 220 220 220 220 221 221 221 221 221 221 221 220 220 221 221 221 221 221 221 221 221 221 221 221 221 221 221 221 221 221 221 221 221 222 221 221 221 221 221 221 221 221 221 221 221 221 221 221 221 221 221 222 221 221 221 221 221 221 221 221 221 221 221 221 221 221 221 221 221 221 221 221 221 221 221 221 221 221 221 220 221 220 220 221 221 221 221 221 221 221 221 221 221 221 221 221 221 222 221 222 222 221 221 221 222 221 221 221 221 221 222 222 222 222 222 222 222 222 222 222 221 222 221 222 221 221 222 222 222 222 222 222 222 223 222 222 222 222 221 222 222 222 222 222 222 222 222 222 222 222 223 222 223 223 223 223 223 223 223 223 223 223 223 223 223 223 223 223 223 223 223 223 223 223 223 223 223 224 223 223 223 223 223 223 223 223 223 223 224 224 224 224 224 224 224 224 224 224 224 224 224 224 224 224 224 224 225 225 225 225 225 225 225 225 225 225 225 225 225 226 227 228 231 231 231 232 231 231 229 226 227 227 226 224 224 203 156 121 120 120 120 118 119 119 118 118 118 118 118 119 119 119 118 119 118 123 132 128 123 131 139 147 144 138 133 135 123 121 119 120 121 122 120 121 121 121 121 121 122 121 121 120 120 122 122 122 120 121 121 121 127 122 121 121 122 124 123 121 123 123 122 122 121 122 124 122 123 122 124 122 122 123 122 123 124 123 123 122 123 125 125 126 124 123 124 123 124 125 123 125 125 126 124 123 122 124 124 124 125 125 125 126 125 125 125 131 138 137 131 134 138 145 150 149 151 150 146 132 128 132 132 131 132 137 147 157 193 230 230 230 230 230 230 230 230 230 231 230 230 230 231 231 230 230 230 230 230 230 230 229 229 228 228 228 227 227 227 227 227 227 226 226 226 226 226 226 226 226 226 226 226 226 227 227 227 227 227 227 227 227 227 227 227 228 228 228 228 228 228 228 228 228 184 143 142 142 141 142 141 141 141 141 141 140 141 141 141 139 137 137 137 137 136 136 136 136 135 135 135 136 136 136 136 135 136
220 220 220 220 221 220 220 220 220 220 220 220 221 221 220 221 221 221 221 221 221 221 221 221 221 221 221 221 221 221 221 221 221 221 221 221 221 221 221 221 221 221 221 221 221 221 221 221 221 221 221 221 221 221 221 221 221 221 221 221 221 221 221 221 221 221 221 221 221 221 221 221 221 221 221 221 221 221 221 221 221 221 221 221 221 221 221 221 221 221 221 221 221 221 221 221 221 221 221 221 221 221 221 221 221 221 221 221 221 221 221 221 221 222 222 222 222 222 222 222 222 222 222 222 222 222 222 222 222 222 222 222 222 221 221 222 222 222 222 222 222 222 223 222 222 223 223 223 223 223 223 223 223 223 223 223 223 223 223 223 223 222 223 224 224 223 223 224 223 224 224 223 224 224 224 224 224 224 224 224 224 224 224 224 224 224 224 224 224 224 225 224 224 224 224 224 224 224 225 225 224 224 225 225 225 225 225 225 225 225 225 225 225 225 225 225 225 225 225 225 225 225 225 225 225 225 225 226 226 226 226 227 227 227 227 227 228 228 229 229 230 230 230 230 229 228 226 213 168 120 120 120 120 119 118 118 118 118 117 117 118 117 120 118 118 119 119 119 118 118 119 119 132 123 127 129 141 140 134 141 131 123 121 121 122 121 120 120 121 121 121 121 121 122 122 120 122 120 120 122 122 121 122 120 120 120 121 122 122 121 122 121 121 123 122 121 121 122 123 122 122 123 123 122 122 122 124 124 122 122 122 123 123 123 122 123 124 124 122 123 122 123 123 124 124 124 123 125 124 123 124 124 126 127 127 126 124 125 126 128 126 128 127 125 126 129 140 142 139 147 152 153 155 147 139 129 128 137 141 141 142 144 140 143 213 231 231 230 230 231 230 231 231 231 231 231 231 231 231 231 231 229 230 230 230 229 229 228 228 228 227 227 227 227 227 227 227 227 227 227 227 227 227 227 227 227 227 227 227 227 227 221 212 196 191 198 210 209 209 222 222 222 223 228 228 228 172 143 142 142 142 141 141 141 141 140 140 140 140 139 138 137 136 137 136 137 136 135 136 136 136 135 135 136 136 135 135 134 135 136
220 220 220 220 221 221 221 221 221 221 221 218 203 170 157 152 164 166 162 162 161 162 203 202 212 221 221 221 221 221 221 221 221 221 221 221 221 221 222 221 222 222 221 222 222 221 222 222 222 222 222 222 222 222 222 222 222 222 222 222 222 222 222 222 222 222 222 222 222 222 222 222 222 222 222 222 222 222 222 222 222 222 222 222 222 222 222 222 222 222 222 222 222 222 222 222 222 222 222 222 222 222 222 222 222 222 222 222 222 222 222 222 222 223 223 223 223 223 223 223 223 223 223 223 223 223 223 223 223 223 223 223 223 223 223 223 223 223 223 222 223 223 223 224 224 224 224 224 224 224 224 224 224 224 224 224 224 224 224 224 224 224 224 224 225 225 225 225 225 225 225 225 225 225 225 225 225 225 225 225 225 226 225 225 225 225 225 225 225 225 225 225 225 225 225 225 225 225 226 226 226 226 226 226 226 226 226 226 226 226 226 226 226 226 226 226 226 227 227 227 227 227 227 227 227 227 227 227 227 227 227 227 227 227 227 227 227 227 226 226 228 229 228 228 227 221 141 122 121 119 119 119 118 118 120 120 117 118 118 118 118 117 118 119 119 118 117 119 117 117 119 117 120 119 120 119 124 139 136 132 127 122 122 122 121 120 120 120 121 121 120 121 120 121 120 120 122 121 123 120 120 122 121 121 120 121 121 121 122 122 121 121 122 122 122 122 123 123 127 123 122 131 127 122 122 123 122 125 123 122 125 123 122 122 123 122 125 122 125 123 123 122 122 123 122 123 123 124 124 123 123 124 124 125 125 127 126 125 124 127 127 125 124 125 124 124 125 130 126 136 141 137 134 141 148 139 132 130 137 136 151 151 146 146 140 152 190 227 231 231 231 231 231 231 232 233 232 231 232 232 231 231 230 229 229 228 228 228 228 228 228 228 228 227 227 227 227 227 227 227 227 228 228 228 228 228 228 226 191 155 142 134 133 133 133 133 133 133 136 135 135 140 151 150 162 166 146 136 135 137 137 136 137 139 139 138 137 136 136 136 136 136 136 135 136 136 136 136 136 135 135 134 134 134 134 134 134 134 135 135
220 220 220 220 216 212 199 194 165 136 138 138 138 137 140 126 139 142 140 143 143 141 139 134 135 139 144 147 144 145 144 148 155 185 202 215 221 221 221 221 221 221 221 221 221 221 221 221 221 221 221 221 221 221 222 222 222 222 222 222 222 222 221 222 222 222 222 222 222 222 222 222 222 222 222 222 222 222 222 222 222 222 222 222 222 222 222 222 222 222 222 222 222 222 222 222 222 222 222 222 222 222 222 222 222 222 222 222 223 223 223 223 223 223 223 223 223 223 223 223 223 223 223 223 223 223 223 223 223 223 223 223 223 223 223 223 223 223 223 223 223 223 224 224 224 224 224 224 224 224 224 224 224 224 224 224 224 224 224 224 224 224 224 225 225 225 225 225 225 225 225 225 225 225 225 225 225 225 225 225 225 225 225 225 225 225 225 225 225 225 225 225 225 225 225 225 226 226 226 226 226 226 226 226 226 226 226 226 226 226 226 226 226 226 226 226 226 226 227 227 227 227 227 227 227 227 227 227 227 227 227 227 227 227 227 227 227 227 226 225 225 224 224 218 175 125 120 121 120 119 118 118 119 120 119 118 117 117 118 118 118 117 118 118 117 117 118 119 117 118 118 119 119 120 118 120 119 120 134 141 124 121 121 122 122 120 122 120 120 121 120 121 120 120 120 120 120 120 120 120 121 121 122 121 120 121 121 121 121 121 122 122 123 122 127 122 122 125 122 128 129 130 127 124 123 123 123 122 123 121 121 120 122 122 123 124 126 128 123 122 123 122 123 122 122 122 123 123 124 123 123 123 124 124 124 125 124 124 124 124 124 124 124 124 126 127 125 125 124 127 136 131 143 142 148 148 152 144 148 140 135 137 145 155 150 136 142 146 185 229 232 232 231 231 231 231 231 231 230 230 230 230 229 229 228 228 228 228 228 228 228 228 228 227 227 227 227 228 228 228 228 228 228 224 220 186 133 132 132 132 132 134 136 136 137 134 133 132 133 134 134 134 132 134 138 140 143 142 148 141 137 139 137 135 137 139 136 136 136 136 136 136 136 136 136 136 136 135 136 135 135 135 134 135 136 136 135 136 136 136
220 203 153 137 127 136 144 138 132 132 129 129 136 133 139 143 142 143 145 138 128 130 137 139 145 148 150 150 144 134 134 145 151 151 151 150 147 159 181 214 220 221 221 221 221 221 220 220 220 221 221 221 221 221 221 221 221 221 221 221 221 221 221 221 221 221 221 221 221 221 221 221 221 221 221 221 221 221 221 221 221 221 221 221 221 221 221 221 221 221 221 221 221 221 221 221 221 221 221 221 222 222 222 222 222 222 222 222 222 222 222 222 222 222 222 222 222 222 222 222 222 222 222 222 222 222 222 223 223 223 223 223 223 223 223 223 223 223 223 223 223 223 223 223 223 223 223 224 224 224 224 224 224 224 224 224 224 224 224 224 225 225 225 225 225 225 225 225 225 225 225 225 225 225 225 225 225 225 225 225 225 225 225 225 225 225 225 225 225 225 225 225 225 226 225 225 226 226 226 226 226 226 226 226 226 226 226 226 226 226 226 226 226 226 226 226 226 225 226 227 227 227 227 227 227 227 227 227 227 227 227 227 227 227 226 226 225 225 224 224 224 223 194 130 121 120 122 120 119 119 120 119 119 119 118 118 118 118 118 117 118 117 118 119 118 119 119 125 133 119 119 124 119 119 119 120 120 119 119 128 122 124 121 125 124 120 120 120 120 120 121 121 121 120 121 122 122 121 121 122 120 121 121 121 122 121 123 123 125 122 127 121 127 130 126 128 127 121 122 123 131 127 122 122 125 123 121 122 125 121 121 121 124 124 121 126 124 124 122 122 123 122 122 123 122 123 123 124 124 124 123 123 124 124 124 124 124 124 124 124 124 124 124 125 125 125 124 125 124 125 125 128 133 133 142 142 138 147 149 141 142 146 141 142 143 142 145 149 147 154 228 231 231 231 231 230 230 229 229 229 228 228 228 228 227 227 227 227 227 227 227 227 227 227 227 227 227 227 227 228 228 223 163 137 132 132 132 133 132 133 133 141 133 132 132 133 134 136 132 134 134 134 133 133 132 134 136 136 137 139 142 140 136 140 137 138 136 135 135 135 135 135 135 136 135 136 135 134 135 134 135 135 135 134 135 135 135 135 135 134
128 127 127 126 130 136 130 129 127 125 126 132 133 132 140 146 143 140 145 134 126 132 138 143 145 141 144 147 136 131 137 137 150 157 157 145 144 146 151 153 154 166 204 213 220 220 220 221 220 220 220 220 220 220 220 220 220 220 220 220 217 209 202 194 183 183 184 185 185 183 184 185 186 200 208 215 220 221 221 220 221 221 221 221 221 221 221 221 221 221 221 221 221 221 221 221 221 221 221 221 222 222 222 222 222 222 222 222 222 222 222 222 222 222 222 222 222 222 222 222 222 222 222 222 222 223 223 223 223 223 223 223 223 223 223 223 223 223 223 223 223 223 223 223 223 223 223 224 224 224 224 224 224 224 224 224 224 224 224 224 224 224 224 224 224 225 225 225 224 224 224 224 224 224 224 225 225 224 225 225 225 225 225 225 225 225 225 225 225 225 225 225 224 226 225 225 225 225 225 225 225 225 225 226 226 226 226 226 226 226 226 226 226 226 226 226 226 226 227 227 227 227 227 227 227 227 227 227 227 227 226 226 226 225 224 225 223 223 224 223 218 154 122 119 120 120 119 119 119 119 119 120 119 118 118 118 119 118 119 120 120 118 118 118 118 119 121 122 121 126 119 120 120 120 121 120 123 118 120 120 122 121 121 122 127 123 123 122 120 121 120 120 120 122 120 121 124 121 122 122 120 122 121 121 121 121 122 124 124 130 127 130 133 128 127 128 125 122 122 123 131 122 122 122 122 121 121 123 122 120 127 121 122 122 124 124 122 122 122 122 122 122 122 123 123 122 123 124 123 123 123 123 123 123 124 125 124 124 124 126 126 124 124 124 124 124 130 133 133 141 139 137 136 136 135 135 130 131 134 133 141 148 141 139 140 139 138 145 148 145 163 226 229 229 229 229 228 228 228 227 227 227 227 227 226 226 226 226 226 226 226 226 226 226 227 227 227 227 226 206 149 135 133 132 132 132 132 132 132 131 132 134 132 132 132 133 132 135 139 133 132 134 134 135 134 132 140 137 136 135 135 132 133 132 137 142 137 134 134 135 136 135 135 134 135 135 135 135 134 135 133 134 134 133 135 134 134 134 133 134
131 129 129 126 130 127 128 125 124 125 142 127 123 125 138 143 136 128 130 136 137 148 138 139 148 144 138 142 143 149 143 144 147 149 147 144 150 158 154 154 150 152 152 156 152 166 191 209 220 220 220 219 220 220 220 220 211 179 155 146 145 142 135 137 147 147 145 143 139 144 144 145 148 150 146 147 150 163 169 198 216 220 220 220 220 220 220 220 220 220 221 221 221 221 221 221 221 221 220 221 221 221 221 221 221 221 221 221 221 221 221 221 221 221 221 221 221 222 221 222 222 222 222 223 222 222 222 222 222 222 222 222 222 222 222 222 222 222 222 222 222 222 223 223 223 223 223 223 223 223 223 223 223 223 223 223 223 223 223 223 224 223 223 223 223 223 223 224 224 224 224 224 224 224 224 224 224 224 224 224 224 224 224 225 224 224 224 224 224 224 224 224 224 221 220 220 221 221 221 220 220 221 221 220 221 221 221 221 221 221 221 221 221 221 221 222 222 222 221 221 221 221 221 221 222 222 221 221 221 220 219 219 219 218 218 219 218 218 218 189 129 121 122 121 120 119 119 120 119 119 118 119 119 118 118 118 120 121 121 118 120 118 119 118 118 119 127 123 139 148 131 121 119 120 121 122 121 121 120 120 121 121 121 121 122 123 125 122 121 121 120 120 120 120 120 121 122 121 121 121 122 121 122 121 123 121 122 121 127 130 129 132 132 128 125 124 124 122 122 121 121 121 121 123 121 121 123 123 122 121 123 121 122 121 122 122 123 123 123 123 123 123 123 123 124 124 124 126 122 123 124 123 124 124 123 123 123 123 124 123 124 125 125 124 124 124 125 125 126 123 123 123 123 123 123 123 124 124 125 127 130 128 141 148 145 140 152 141 149 147 147 153 214 227 227 226 226 226 226 226 226 225 225 225 225 225 225 225 226 225 225 226 226 226 226 214 161 150 131 132 131 132 132 132 132 132 131 130 132 132 132 132 132 132 138 145 144 139 133 133 133 136 133 135 133 133 134 133 134 133 132 134 135 133 134 134 134 135 135 137 138 135 136 135 135 135 135 135 134 135 134 134 135 136 133 132 134 132 136 137
171 148 147 145 145 147 147 151 151 148 145 143 141 142 140 138 145 147 150 148 150 150 146 147 148 146 151 154 159 156 149 156 158 158 158 159 172 175 175 175 171 187 190 189 189 185 194 194 194 203 207 205 205 204 204 205 206 205 203 203 205 205 204 204 205 205 205 205 204 204 205 205 206 206 206 206 205 205 206 206 206 205 205 204 205 205 205 205 204 205 204 204 204 204 205 204 204 205 204 204 204 204 204 204 204 204 204 204 204 204 206 205 205 206 205 205 205 206 206 205 206 206 205 205 205 205 204 206 205 206 206 206 207 206 206 205 206 204 205 205 206 207 206 207 207 207 206 206 205 205 205 206 207 204 204 206 206 206 206 207 207 207 207 207 207 207 208 207 208 207 206 207 208 208 207 207 208 207 208 206 206 206 205 208 209 206 206 206 208 207 207 206 209 209 209 209 209 209 209 209 208 210 211 208 207 207 207 207 208 208 209 210 208 207 206 208 208 210 209 210 209 208 208 209 209 209 209 210 209 209 209 210 209 209 207 208 210 209 209 207 207 207 202 184 159 159 155 148 148 141 118 117 118 117 117 117 119 119 118 119 117 116 117 118 117 118 119 120 121 129 119 119 124 124 118 120 121 121 121 121 121 121 120 121 121 121 121 120 121 121 121 120 120 119 120 120 120 120 120 121 121 120 120 120 121 121 121 122 122 125 124 128 128 127 124 124 122 121 122 122 122 122 122 121 121 125 126 122 122 122 121 121 121 122 123 123 122 122 122 122 122 123 122 122 122 123 122 122 122 123 124 123 124 124 123 123 123 123 123 123 123 130 142 141 147 133 133 133 130 132 128 126 127 126 126 126 126 126 126 128 138 137 137 141 148 150 148 153 161 163 163 173 165 195 198 199 214 215 215 214 214 215 215 215 213 213 214 213 213 213 215 185 154 153 153 151 151 150 149 149 148 147 143 140 140 141 141 141 137 131 130 132 132 132 140 137 139 144 137 132 132 135 137 134 132 133 132 133 134 134 135 136 135 134 135 138 135 134 134 137 138 135 135 134 135 134 134 134 134 133 133 133 132 132 132 133 133 132 132 133
200 200 200 201 200 199 199 200 199 199 199 199 200 200 199 200 201 202 201 201 201 201 201 200 200 201 201 202 202 202 202 203 202 201 201 201 201 201 201 201 200 201 201 200 201 199 200 200 201 201 200 200 200 200 201 202 201 200 201 200 201 201 201 203 203 203 203 201 200 201 201 201 201 203 203 203 203 203 204 203 202 200 200 199 198 198 198 198 198 199 200 202 204 203 204 204 203 202 203 203 204 204 204 204 201 200 199 199 202 202 203 202 202 203 200 200 200 199 200 199 200 200 203 203 203 203 202 204 205 201 201 201 201 202 203 203 202 202 201 201 201 201 202 203 203 202 203 203 203 202 203 203 203 203 202 202 201 202 202 201 202 201 201 201 202 202 202 202 202 204 203 203 204 202 203 202 203 203 204 203 204 203 203 204 204 204 204 204 205 203 204 204 204 205 202 202 203 202 202 201 202 202 202 203 204 205 205 205 205 205 205 205 205 204 203 204 205 206 205 205 206 206 205 205 205 205 205 205 205 204 205 205 205 206 207 207 207 208 207 206 208 209 208 208 208 208 209 207 207 206 204 203 200 192 184 184 158 136 134 125 117 116 116 116 115 116 117 117 119 121 120 120 120 124 127 134 134 133 134 134 129 128 125 125 124 124 123 122 122 122 122 122 119 119 119 120 120 120 119 120 119 119 120 119 119 120 121 121 122 122 122 122 122 121 120 120 120 120 121 120 120 121 121 121 120 120 120 120 120 120 120 120 122 122 123 122 122 123 123 123 123 123 124 123 122 122 122 121 122 122 122 122 122 123 124 127 127 127 127 127 127 127 127 131 133 133 135 136 137 138 138 138 148 146 135 147 174 174 174 177 203 207 208 208 207 208 208 210 211 214 212 213 212 213 213 212 215 215 215 214 213 213 213 213 213 211 211 211 211 210 210 210 210 211 210 211 212 212 212 211 211 210 210 208 207 207 207 207 204 203 200 197 196 190 187 186 186 188 195 196 196 198 197 193 193 195 195 195 196 198 197 197 195 190 183 166 165 159 160 159 159 159 138 138 136 136 137 137 137 136 138 134 134 134 132 133 132 133 133 132
197 196 196 196 196 195 201 198 195 194 193 194 197 201 202 200 200 199 199 197 196 196 195 197 198 197 195 199 201 201 201 197 196 195 194 199 200 198 197 198 197 197 197 200 200 199 199 199 199 199 199 198 198 199 199 197 197 198 198 199 199 200 200 200 199 200 200 199 199 202 202 201 199 198 199 198 202 201 201 199 198 200 200 198 197 199 198 197 198 198 199 199 198 197 197 197 198 198 196 195 198 200 200 201 203 203 203 202 201 197 195 197 200 200 199 199 199 198 197 197 197 198 199 201 202 202 201 200 198 197 198 196 194 197 196 195 198 197 196 197 197 200 202 199 198 197 198 198 201 199 199 199 198 198 199 198 199 199 199 199 199 199 198 198 199 198 200 195 197 196 202 203 203 201 200 200 199 200 200 202 203 203 202 203 201 197 196 197 197 197 198 198 204 204 204 201 196 195 199 200 200 199 198 198 199 200 206 209 209 206 202 201 201 201 201 201 200 201 200 201 202 203 205 204 202 200 200 200 200 199 204 205 200 199 199 200 200 201 196 197 197 197 200 202 201 201 201 201 202 202 201 202 202 201 202 194 189 186 186 185 186 158 139 131 137 139 139 123 116 116 117 117 118 120 127 127 131 133 133 127 126 125 125 126 126 126 125 121 118 118 117 118 117 117 117 117 118 118 118 119 119 119 119 119 119 119 119 120 119 119 120 120 120 121 121 120 120 122 121 119 119 119 119 119 120 119 120 119 119 121 120 120 121 121 120 120 120 121 121 120 120 121 121 121 121 121 121 121 123 122 123 123 123 123 126 127 127 127 129 132 134 134 134 137 150 157 163 162 168 176 185 205 207 207 205 204 210 210 206 209 209 210 209 209 211 208 208 210 211 212 211 211 211 211 211 210 212 213 213 213 213 214 213 214 214 212 212 211 211 208 209 208 208 210 209 210 210 209 209 209 211 210 210 211 210 208 208 208 207 206 205 205 205 205 206 206 204 205 205 205 205 205 205 204 204 204 203 203 204 203 204 203 201 197 195 189 188 192 175 175 171 158 154 154 154 154 157 152 140 138 143 146 146 146 139 139 138 139 137 135
197 196 196 197 195 194 194 194 191 190 190 190 191 191 191 194 194 193 193 193 194 194 195 195 196 195 196 197 196 194 193 193 192 192 192 193 194 195 194 193 194 193 194 196 195 194 194 195 201 201 200 199 195 194 189 189 191 195 194 192 192 192 192 193 193 195 194 193 194 195 191 186 187 195 199 200 199 195 192 192 192 195 197 198 199 200 199 200 199 192 192 192 195 192 192 195 196 196 196 196 195 195 196 198 198 199 196 194 193 193 193 194 195 197 197 199 199 198 199 193 189 189 189 191 191 194 196 195 195 199 198 195 193 190 192 194 195 195 194 201 200 201 197 197 197 197 196 197 197 195 191 193 192 192 195 196 196 196 194 194 197 198 200 200 201 202 202 196 200 198 198 198 198 197 197 197 200 194 194 193 192 197 198 197 196 195 195 196 189 189 189 190 193 197 202 202 201 199 200 199 199 195 195 196 195 196 200 199 200 200 200 197 196 193 200 203 205 205 206 205 201 199 200 199 198 197 197 201 203 204 205 202 201 201 197 194 194 195 200 199 200 200 196 195 195 197 200 201 200 197 193 192 196 200 199 198 198 192 189 187 183 178 157 156 166 159 140 119 119 116 120 121 120 123 126 127 127 126 125 124 125 132 133 126 126 130 128 120 119 118 118 118 117 117 116 116 117 118 118 118 118 118 117 118 118 118 119 119 120 120 118 119 119 119 119 119 120 121 120 118 119 118 118 118 119 119 118 118 118 118 120 121 120 121 121 121 121 121 121 120 120 120 120 120 125 132 133 133 123 122 122 122 122 124 124 151 151 156 155 146 154 152 152 166 176 193 196 198 201 203 202 202 203 204 206 206 207 207 207 208 204 202 203 210 209 208 208 210 209 209 206 206 210 210 211 211 211 209 209 210 211 211 210 209 209 212 212 206 206 211 212 214 213 210 205 205 205 210 211 210 211 208 207 207 207 207 206 207 206 206 206 205 206 205 204 203 202 203 206 205 204 204 203 202 203 203 203 202 202 200 200 200 200 198 196 195 195 195 195 199 195 194 194 193 187 170 171 177 177 172 172 173 163 160 160 155 144 144 138 140
193 193 194 195 195 191 191 192 192 187 185 189 193 188 183 184 187 184 189 195 200 200 201 199 198 198 196 193 193 190 194 194 193 193 195 194 195 195 194 195 194 194 195 191 190 194 202 204 205 203 193 189 191 192 194 194 195 195 196 195 193 192 194 202 199 196 195 194 194 192 191 191 190 190 191 191 191 193 192 194 194 194 195 195 194 199 193 189 188 188 185 196 197 197 196 193 193 193 195 198 200 198 196 194 192 194 195 195 189 191 193 193 194 194 193 194 196 195 195 198 195 197 197 196 188 191 195 195 193 195 197 196 195 191 191 191 192 192 191 184 184 185 186 189 190 194 198 198 196 193 194 194 193 192 195 194 193 194 194 194 198 196 195 196 195 194 193 193 192 192 194 195 195 198 204 204 203 198 199 201 202 202 200 199 198 195 190 188 185 184 186 186 186 193 195 196 193 197 198 196 194 193 192 192 188 187 190 190 193 192 195 194 191 190 189 193 193 193 192 193 192 193 200 200 196 197 194 194 193 196 200 199 196 196 192 189 192 195 197 196 199 202 199 202 202 200 197 202 199 191 190 185 178 184 194 191 181 179 184 191 180 181 179 181 179 175 176 160 142 133 128 126 125 125 127 137 137 118 121 124 124 127 128 129 133 136 133 128 125 120 119 119 117 120 118 119 119 118 117 123 126 136 134 135 120 120 121 120 120 120 119 119 124 123 124 123 121 118 118 118 118 118 119 118 119 127 129 124 128 141 142 140 123 123 124 125 121 120 120 121 122 136 137 137 138 120 120 119 119 120 128 129 132 134 144 149 149 146 154 167 168 169 175 181 187 190 184 181 193 195 197 197 199 204 204 204 202 203 206 209 212 211 209 206 205 204 206 208 210 207 206 208 208 209 208 207 209 209 210 208 206 204 211 213 214 208 205 204 209 211 215 208 205 204 204 203 204 204 204 205 206 206 207 207 205 205 203 202 204 205 204 205 204 204 205 202 203 205 205 206 203 200 199 203 202 202 202 201 200 199 198 197 198 198 195 197 198 197 197 195 193 190 184 181 176 176 177 177 174 172 174 178 184 177 163 157 157 156 156 156
191 195 194 194 193 190 185 185 183 183 191 194 196 196 194 190 188 188 188 188 186 186 186 186 187 186 186 192 192 192 192 190 193 198 199 197 194 191 193 193 194 196 196 195 188 193 193 192 190 189 192 199 199 198 194 193 191 195 201 200 196 194 194 194 195 196 192 189 193 196 195 194 196 197 198 197 191 189 187 189 188 187 191 195 195 195 197 200 194 192 191 189 189 189 190 190 186 187 185 187 190 190 190 192 191 192 197 197 198 198 197 195 195 194 192 192 188 188 190 192 193 191 191 190 191 194 191 189 187 186 186 187 184 182 182 182 186 191 192 192 193 192 192 192 191 191 194 198 190 185 185 185 188 194 193 192 192 192 198 200 200 200 200 191 184 186 187 186 189 193 197 197 197 199 194 191 191 191 190 187 183 183 183 183 190 200 200 201 201 199 187 185 186 186 188 190 189 191 194 193 194 190 189 188 189 189 193 195 186 185 186 193 192 203 207 209 204 202 196 186 184 188 191 192 190 189 189 185 185 192 197 197 197 199 198 194 194 190 195 196 196 200 198 196 196 197 192 200 196 193 189 186 182 183 187 190 194 192 191 185 182 185 182 187 178 172 166 160 170 157 152 153 135 126 142 151 149 155 153 143 132 132 143 150 142 125 127 120 116 118 128 129 130 122 130 132 123 121 121 120 122 128 134 133 134 137 136 132 132 131 131 146 149 150 149 147 131 129 130 130 125 123 129 130 129 129 134 134 133 133 133 127 136 156 156 156 153 130 120 120 120 122 120 134 143 144 143 131 143 131 132 132 136 136 155 165 166 176 181 180 174 172 172 175 181 182 185 188 184 186 189 190 192 192 197 198 198 200 200 197 205 206 206 206 206 199 197 197 197 196 201 203 203 205 206 205 204 204 206 205 205 204 204 203 203 204 205 205 205 204 204 204 204 204 203 205 204 202 204 205 209 208 207 208 204 201 201 199 198 201 205 203 203 204 205 198 201 200 200 199 198 197 196 195 195 196 199 200 200 200 197 196 196 195 193 193 187 186 185 188 188 185 182 187 185 187 187 187 183 171 170 169 169 169 174 171 172 172 168 161
186 192 193 193 192 191 190 192 187 178 181 180 178 190 192 192 192 193 190 188 188 189 191 190 193 193 192 191 190 192 189 190 190 194 194 193 189 194 194 193 191 190 191 188 187 185 187 185 186 184 185 186 195 194 193 188 189 188 187 186 186 187 187 186 187 189 191 189 188 188 187 185 185 190 189 191 187 186 184 177 175 178 178 180 181 183 185 186 186 192 194 194 194 195 195 192 189 186 184 183 184 187 182 185 185 186 192 195 185 183 183 183 189 189 187 190 189 188 188 185 189 192 194 194 191 188 187 186 191 194 188 190 189 188 189 187 185 178 177 179 177 179 181 185 185 187 185 185 195 187 185 186 188 187 187 191 192 194 195 192 184 184 184 190 189 190 195 191 192 192 186 182 179 189 197 199 190 187 185 181 181 182 189 191 193 196 196 193 193 193 195 195 195 191 189 184 186 186 186 188 185 188 193 196 197 196 193 186 184 185 184 186 187 192 186 187 179 187 187 188 188 190 190 190 192 191 197 194 185 181 187 191 191 191 194 196 194 189 189 188 189 189 184 188 187 186 186 187 188 194 200 204 202 197 193 187 181 179 179 175 164 163 172 174 171 158 168 170 158 150 147 151 152 152 165 165 163 162 166 154 155 152 151 150 150 155 157 150 154 160 156 140 131 128 129 131 128 127 138 139 138 135 135 132 119 120 124 130 134 138 145 141 137 133 131 128 122 118 120 124 122 121 121 120 143 162 145 145 138 139 134 148 146 146 146 142 141 137 144 145 142 139 132 133 138 140 149 154 154 156 154 156 158 165 147 149 161 159 161 180 185 183 171 178 179 183 181 184 202 202 203 194 190 192 194 195 199 201 200 200 200 200 204 201 204 206 204 203 202 200 195 198 198 198 203 198 196 199 198 201 201 207 207 209 208 202 205 207 204 204 205 203 203 199 200 199 196 199 205 200 202 204 205 205 206 206 203 203 203 203 202 201 201 203 203 202 201 197 188 187 200 201 202 201 197 195 193 193 194 200 197 197 197 194 197 193 187 186 178 169 168 176 187 187 187 187 189 184 177 176 177 176 175 166 172 172 177 175 175 176
190 197 196 192 186 185 186 188 193 193 186 184 187 186 187 192 192 197 192 191 191 202 202 202 202 198 191 193 173 185 184 185 186 182 184 185 197 196 196 194 193 190 180 176 179 190 195 195 191 181 181 191 176 177 187 192 193 191 191 189 190 184 182 186 192 194 194 185 182 183 185 185 183 183 185 186 184 184 182 192 200 199 186 186 187 192 192 188 179 176 177 183 188 187 187 189 187 186 182 186 185 188 187 182 182 184 188 188 190 190 196 195 196 185 179 179 178 183 185 180 179 177 176 181 184 183 187 184 182 183 182 190 192 190 174 173 173 179 180 178 183 188 188 184 190 190 192 191 191 190 181 173 173 175 197 187 186 182 175 176 176 176 177 177 179 184 185 189 194 183 181 188 181 181 183 187 187 187 187 182 181 183 190 191 189 188 187 187 189 193 194 192 198 197 198 196 195 182 181 190 193 193 192 192 197 199 182 172 199 202 186 184 181 183 183 184 185 186 181 179 184 187 185 183 184 197 192 184 185 185 189 188 187 184 184 184 183 185 187 193 194 200 188 181 186 192 186 187 198 195 187 188 188 192 187 186 187 188 181 177 164 167 166 169 170 172 173 186 175 162 156 156 154 160 156 160 160 155 159 159 157 145 139 139 133 131 129 142 142 144 141 120 120 118 142 136 129 131 124 124 124 121 132 132 136 142 142 141 141 138 139 155 137 116 121 141 149 149 139 137 135 143 158 148 148 123 123 122 122 123 128 133 158 159 157 151 146 143 137 128 129 129 129 130 144 148 140 135 142 149 162 160 159 164 167 170 171 168 165 167 169 169 166 167 172 175 176 172 179 179 188 182 182 183 186 182 185 192 192 196 199 190 185 188 195 193 207 206 195 192 196 195 193 199 201 196 195 207 210 203 200 200 200 200 201 203 200 199 199 199 200 200 200 201 202 201 203 196 194 202 203 203 203 202 199 197 201 201 203 204 202 198 193 192 195 200 201 203 202 202 199 195 193 192 194 196 194 188 188 192 201 202 190 191 190 185 185 188 189 195 193 190 183 182 192 189 169 170 172 172 173 177 179 181 178 167 159 159 165 177
177 178 182 187 192 192 191 190 184 178 179 181 188 190 186 184 178 178 179 175 187 187 184 178 176 179 185 187 189 182 180 193 191 192 192 183 187 187 191 195 188 183 176 171 189 188 190 191 186 183 171 181 185 178 183 187 187 187 186 180 186 192 191 186 192 190 195 188 192 188 186 185 183 180 179 180 182 187 187 182 180 178 175 182 184 184 184 185 188 186 178 177 190 194 191 195 199 194 185 181 186 191 196 196 195 189 187 188 190 188 185 185 180 181 183 187 185 193 195 183 176 182 185 186 188 188 187 180 191 192 184 177 187 187 188 189 179 181 186 187 177 178 185 184 182 181 183 184 186 184 184 178 181 176 178 178 177 182 186 184 184 192 182 183 183 182 176 178 183 178 176 181 200 199 193 184 181 195 194 186 179 184 184 185 189 178 177 191 185 192 192 185 184 182 181 185 179 173 175 180 181 183 184 186 186 185 185 189 190 190 191 188 186 182 185 189 187 181 183 178 184 185 179 188 199 205 195 195 191 183 183 185 185 188 198 199 203 205 197 196 194 190 187 185 185 183 184 188 178 173 174 177 169 182 172 180 182 179 185 173 174 169 169 169 173 168 160 163 182 161 149 147 160 145 146 151 161 142 152 152 149 154 149 150 148 148 144 152 147 137 121 121 122 123 123 126 151 149 147 155 151 148 150 146 140 145 142 137 146 150 151 146 134 130 130 132 136 133 131 130 136 135 135 137 138 139 152 136 141 145 145 138 140 138 130 128 121 124 135 138 139 146 143 140 150 152 153 154 154 153 157 157 151 150 149 149 159 163 163 178 182 187 189 188 189 188 188 190 191 190 188 189 189 188 189 187 191 192 190 190 198 199 204 196 195 194 196 193 193 192 205 212 209 206 187 188 187 198 208 210 212 205 200 199 194 190 201 205 206 201 194 197 200 200 201 202 201 199 195 195 198 203 199 198 197 196 199 197 197 196 193 193 193 191 187 184 192 193 194 197 199 200 188 187 188 196 194 195 196 207 200 191 192 196 195 195 193 186 188 188 186 186 185 185 184 190 180 173 173 170 176 183 173 176 176 175 172 172 170 165
182 183 182 180 182 184 181 182 184 192 188 185 185 174 184 185 186 182 177 165 166 166 169 166 174 181 179 172 182 188 191 191 185 189 191 181 175 185 187 188 185 172 175 184 187 187 185 181 186 190 190 184 187 182 180 184 186 171 174 175 176 190 193 193 185 189 188 189 185 189 186 187 184 189 187 185 180 176 183 188 186 178 189 188 185 186 192 200 198 177 173 180 186 182 181 177 178 180 184 189 188 190 189 194 199 195 175 177 184 199 200 200 192 179 186 184 178 174 176 171 171 177 182 188 188 186 190 181 180 182 181 178 181 200 196 184 165 170 180 198 195 193 188 174 174 181 181 180 186 182 181 172 183 187 186 185 188 189 198 201 196 174 176 185 191 179 177 182 192 178 169 170 175 181 184 186 189 184 177 177 176 178 182 182 183 182 180 183 184 183 182 180 181 184 186 181 188 189 190 178 189 193 194 182 167 165 163 166 180 180 177 174 182 186 185 178 171 185 186 185 180 182 182 181 178 177 165 166 169 176 184 190 189 186 187 191 193 199 199 187 185 189 189 184 177 165 164 165 187 183 187 186 181 182 182 179 172 174 179 181 172 173 177 181 179 180 177 168 173 174 175 169 171 173 172 165 147 148 146 144 142 137 134 135 155 141 158 157 151 130 134 138 141 137 128 129 139 157 164 161 160 158 152 149 147 131 127 135 136 135 138 126 122 124 135 147 145 144 141 150 146 146 145 145 146 148 143 136 154 152 151 158 157 167 164 159 160 161 167 164 157 141 136 143 138 132 128 138 153 151 166 172 160 173 170 175 174 182 183 185 181 182 180 182 186 187 188 189 180 181 192 197 195 194 188 192 199 201 202 203 200 189 185 188 192 183 186 194 199 202 200 196 192 187 191 199 201 198 209 201 197 193 192 195 194 194 203 208 213 210 206 202 203 203 206 209 206 206 202 196 198 198 199 191 195 195 194 190 194 191 192 200 199 198 197 195 192 182 180 185 200 192 193 191 191 193 194 196 191 192 193 193 193 189 189 187 188 181 196 197 198 195 188 187 185 185 184 182 181 179 179 181 182 182 184 176 171 171 169 172
198 198 194 192 183 174 172 174 174 172 170 169 169 173 183 185 192 197 191 184 181 180 185 185 184 184 184 178 187 185 184 187 184 181 179 178 179 178 178 186 180 180 179 175 175 176 167 168 173 186 182 191 189 187 181 171 170 169 173 174 173 173 179 182 192 190 188 177 178 180 178 177 170 165 174 178 182 185 185 188 189 189 186 176 177 191 188 163 166 170 176 186 185 181 177 177 181 182 180 185 177 184 187 182 190 183 177 188 198 186 180 182 182 180 173 186 181 180 186 186 184 185 184 187 184 186 182 181 188 185 181 178 185 182 180 183 181 174 174 173 176 183 183 182 177 179 190 191 195 179 186 186 187 188 187 181 179 166 192 181 179 182 185 181 167 167 173 185 188 189 182 182 182 179 176 180 193 190 183 173 175 183 183 179 169 170 174 193 188 185 182 182 183 181 177 177 189 191 167 166 183 185 185 171 174 177 175 178 174 175 171 172 171 180 185 186 179 169 182 182 181 177 188 187 183 180 178 181 181 184 184 180 176 176 178 177 177 178 178 177 185 185 185 184 185 189 198 199 177 176 186 187 190 189 190 181 182 169 171 170 166 167 170 167 165 166 171 175 163 148 148 149 142 143 143 138 146 148 148 146 144 137 135 135 133 144 155 153 152 146 145 141 150 141 137 138 128 144 143 157 148 145 144 140 142 155 155 156 145 140 133 137 147 155 153 148 145 146 152 159 163 158 146 136 130 126 133 150 151 153 146 148 160 158 158 159 158 160 161 158 160 161 157 153 149 152 165 164 159 158 149 139 140 156 161 168 167 165 163 155 163 165 172 174 171 168 166 165 171 185 188 189 183 178 184 192 192 193 183 197 195 197 200 195 199 200 194 190 193 196 194 200 194 193 190 188 202 206 200 194 194 184 188 192 195 196 196 198 199 195 195 195 191 188 191 194 198 202 201 200 198 182 183 196 199 183 183 192 192 198 194 192 191 190 192 196 202 204 193 189 185 182 194 199 194 194 200 197 199 200 200 198 192 195 193 191 191 192 190 186 185 184 184 184 182 183 170 168 183 181 177 176 177 176 175 179 171 167 165 168
184 186 178 180 181 175 169 182 190 170 186 198 185 177 186 178 165 179 179 177 180 189 192 193 191 186 176 180 181 180 171 178 180 180 180 177 172 175 181 186 185 175 177 177 174 160 167 178 188 187 188 188 181 180 187 186 179 168 163 164 163 172 172 172 168 167 171 167 168 166 172 180 173 173 172 170 180 166 171 169 169 176 177 176 176 183 185 187 184 181 183 179 167 160 170 172 174 178 180 180 180 182 175 170 168 171 173 168 177 178 170 162 167 176 178 170 167 168 176 184 183 171 171 162 159 167 180 181 173 169 166 158 159 172 164 195 192 182 192 190 189 184 180 179 181 181 177 175 177 173 172 172 169 164 159 159 168 165 167 172 184 177 168 166 173 181 182 179 170 173 173 187 189 174 177 180 175 166 178 164 160 159 168 173 187 179 182 189 181 177 178 177 175 167 173 180 183 185 187 199 193 173 185 195 193 200 181 169 171 176 179 177 178 173 161 174 174 175 179 179 180 174 168 157 166 171 173 174 171 174 176 177 180 190 188 191 197 189 184 167 171 187 186 188 170 171 179 187 184 182 177 180 186 163 166 168 165 181 172 169 171 169 165 170 171 164 160 154 157 158 163 168 154 158 165 165 151 138 154 158 158 151 140 141 157 158 171 168 170 176 170 148 141 140 137 139 154 141 142 143 135 132 155 157 159 157 155 138 137 141 154 152 153 155 160 159 146 151 152 148 147 157 157 153 151 149 140 154 160 146 145 142 149 150 131 148 147 141 142 155 156 157 161 159 167 169 166 166 165 160 163 162 156 151 157 146 138 145 160 159 175 174 171 169 172 185 195 193 191 186 178 187 186 184 186 178 183 184 184 192 186 190 197 191 191 190 188 186 196 192 191 193 194 186 189 186 184 184 187 185 187 194 190 191 193 191 191 193 186 195 191 191 193 184 188 192 190 194 199 191 191 194 196 196 198 196 197 198 196 194 193 185 178 185 193 197 196 197 196 193 178 188 185 160 188 195 195 195 184 183 178 183 194 196 192 183 182 173 173 180 186 187 164 160 179 184 186 176 179 175 170 168 167 172 173 169 166 166 167 170
177 178 177 171 174 180 174 174 174 173 166 176 176 171 170 175 185 189 178 175 177 171 183 186 178 172 172 179 177 180 163 162 168 181 179 180 182 185 163 167 164 160 168 170 162 164 170 171 175 159 165 172 176 175 184 187 186 184 182 174 176 171 173 170 174 175 175 177 188 194 184 166 168 171 180 176 172 182 180 176 178 181 185 176 177 177 163 160 157 157 161 170 173 174 167 162 161 161 163 163 160 153 167 171 171 173 173 171 168 172 172 180 182 176 167 163 176 174 170 166 163 164 161 162 164 171 169 175 182 175 175 176 176 182 175 173 189 184 170 166 164 171 179 183 189 181 177 180 171 168 178 183 177 166 178 180 184 186 189 179 179 167 166 166 171 163 169 181 179 171 170 175 178 178 180 179 182 189 188 182 173 175 172 178 178 177 172 167 161 162 170 180 182 173 173 174 184 176 172 168 162 177 182 177 174 176 179 178 170 173 175 176 176 177 184 185 185 182 180 177 173 175 176 171 177 185 189 190 178 176 179 194 197 187 180 184 188 188 189 172 168 171 172 164 160 160 168 169 166 165 162 172 174 172 173 176 163 173 175 172 166 171 173 166 164 167 167 156 155 156 160 131 142 166 173 175 169 164 163 154 152 151 139 132 145 144 142 158 161 159 159 158 160 165 163 154 151 141 139 148 143 146 162 159 156 150 142 141 145 136 128 149 146 140 151 144 134 141 150 153 144 146 155 157 158 162 156 152 145 144 148 160 149 140 138 156 164 161 157 145 149 153 148 153 170 170 165 160 154 152 147 149 156 160 163 167 170 158 156 152 149 155 160 179 178 180 178 177 180 182 185 183 183 181 181 180 182 184 182 184 186 187 190 195 181 181 190 192 194 189 187 186 184 184 185 190 192 190 183 183 189 188 187 189 193 190 204 204 203 196 170 180 187 194 191 196 198 189 184 192 194 195 195 186 189 193 193 192 187 183 181 185 185 187 192 192 197 195 191 194 189 185 185 191 196 181 195 193 187 183 184 183 178 178 180 183 189 187 180 181 181 183 182 178 178 181 185 182 184 185 185 183 182 184 169 162 163 165 166 167
178 178 177 169 169 172 168 185 181 184 162 164 176 179 179 165 181 180 184 167 162 163 168 171 172 168 166 167 166 164 162 163 169 172 160 161 163 175 178 177 168 162 161 170 175 172 173 173 177 179 177 172 171 174 170 168 170 166 167 170 166 164 166 174 172 172 177 177 170 168 164 168 174 174 176 176 174 170 168 163 168 173 169 163 165 166 168 169 168 174 175 177 179 178 177 179 182 177 177 178 179 178 175 177 176 178 169 178 186 180 172 188 170 161 167 173 181 176 176 172 168 166 171 183 186 185 183 184 178 176 175 168 164 162 176 173 178 168 171 174 172 170 165 168 172 167 169 173 175 174 189 195 191 175 187 189 187 181 179 188 193 186 177 169 165 162 159 170 167 158 172 173 171 177 167 168 190 187 164 161 160 174 168 165 156 152 162 191 197 196 196 196 190 172 189 186 173 179 172 158 159 168 176 184 177 160 157 174 181 176 184 187 185 188 173 178 176 181 179 187 167 171 169 166 172 175 171 171 167 156 169 176 165 160 160 169 174 178 184 181 181 183 175 172 172 174 168 164 159 160 159 175 171 167 169 179 184 174 172 173 163 167 166 161 172 173 170 161 159 160 170 170 176 174 162 152 155 161 158 148 140 141 144 139 146 152 157 133 128 153 124 119 138 155 162 162 146 142 135 142 139 135 132 139 143 141 140 144 158 159 159 152 154 157 163 152 151 151 157 159 158 153 145 146 149 148 148 153 156 156 154 162 158 159 150 157 158 153 143 141 141 142 144 150 165 168 175 170 170 163 166 169 171 173 171 162 161 162 172 173 171 167 171 173 178 177 180 182 169 171 172 175 175 169 172 171 176 175 173 190 185 185 196 196 194 189 192 184 163 168 180 191 189 177 168 170 179 184 189 186 189 198 194 192 187 179 180 183 180 176 187 197 198 188 189 190 200 204 204 204 204 201 192 193 191 183 179 176 195 196 189 176 183 185 184 183 190 187 185 188 192 191 192 195 189 180 191 188 179 187 191 192 179 186 193 189 182 180 184 183 184 173 191 193 188 184 184 182 179 179 181 182 182 181 178 177 177 173 173 176
168 176 177 177 179 180 190 192 192 177 169 169 178 169 171 166 170 168 175 171 174 178 168 167 169 181 181 183 179 178 180 168 168 170 169 168 172 188 189 181 176 166 174 163 160 164 166 174 175 173 166 161 166 168 168 162 168 166 163 179 178 175 164 170 169 170 170 169 175 182 179 184 180 178 168 160 163 165 164 160 177 168 171 165 173 183 185 181 177 182 182 185 191 191 192 189 185 185 179 177 179 180 182 176 174 170 181 184 190 189 186 179 174 168 166 167 167 166 162 168 173 160 154 166 170 172 172 171 170 171 173 182 167 177 182 165 173 179 179 176 187 180 177 169 171 184 176 172 169 170 168 166 161 162 162 176 181 179 163 162 172 170 160 160 162 168 164 165 164 162 170 174 167 166 167 182 181 188 184 180 181 190 193 186 184 183 189 176 162 162 162 164 160 171 170 166 180 176 170 156 162 164 163 160 161 168 166 166 170 159 157 153 159 160 153 159 162 163 171 173 173 178 185 185 193 194 194 186 180 180 178 174 175 173 167 167 167 172 172 171 162 157 156 170 172 169 154 156 156 171 178 178 158 158 158 166 167 162 166 172 168 166 155 157 159 162 163 164 161 160 156 160 164 166 167 158 155 135 135 133 135 133 135 136 135 137 137 132 134 139 148 146 148 137 139 137 136 138 149 143 140 140 147 151 156 159 158 151 152 147 145 147 150 146 139 136 136 135 129 132 146 159 158 147 143 140 150 155 153 144 150 154 151 148 153 159 160 158 154 159 159 161 156 152 151 140 141 153 166 158 155 152 153 152 154 158 163 156 156 164 166 170 166 163 162 166 174 182 182 184 186 186 185 190 188 181 186 188 180 175 173 176 180 190 189 189 185 183 186 191 190 182 184 177 179 183 180 176 174 180 189 193 196 191 192 199 201 197 199 204 208 204 196 194 199 201 198 193 188 188 191 181 177 177 181 183 180 183 182 183 183 182 185 186 187 183 193 194 193 193 194 195 186 192 190 189 188 192 193 188 189 187 191 191 192 188 188 185 186 186 186 174 174 175 179 177 179 181 182 182 173 175 177 169 163 164 167 167 165 159
191 159 158 174 174 177 177 169 177 177 174 162 160 166 176 175 172 174 176 175 180 177 169 168 176 175 177 185 175 172 179 177 178 163 149 156 154 155 153 151 156 161 170 171 172 188 187 184 178 179 173 162 153 155 156 153 158 161 163 164 169 174 158 162 163 167 164 153 171 179 185 182 188 182 175 153 165 172 165 156 158 167 165 160 164 169 173 185 181 191 182 180 182 170 174 178 179 178 179 178 169 158 154 154 172 172 172 172 160 158 168 157 154 156 161 166 163 166 181 186 177 178 185 180 170 168 164 163 161 156 155 172 180 171 168 166 172 171 162 162 162 171 160 159 156 156 159 160 159 169 175 176 169 162 159 156 155 157 158 167 168 169 175 173 155 163 170 165 164 174 175 173 152 150 154 160 159 162 172 166 172 158 152 152 152 148 153 157 164 149 149 166 175 172 170 174 170 170 178 170 171 175 171 171 175 173 173 178 165 154 154 162 174 181 172 172 179 177 184 160 159 149 154 155 153 143 153 154 153 153 152 155 158 159 160 155 158 157 155 163 165 179 165 163 161 179 183 183 169 171 171 166 161 160 162 165 166 160 141 155 155 168 172 166 155 146 171 165 154 164 164 151 140 136 147 146 139 140 148 162 163 173 176 174 176 173 165 164 159 156 155 156 159 161 159 155 156 157 153 151 152 141 147 147 146 142 143 149 165 170 166 162 162 161 149 142 148 148 155 165 160 151 143 141 147 143 143 150 163 168 166 160 157 157 156 153 151 157 152 161 164 158 158 159 160 159 156 154 155 154 156 165 166 170 169 170 172 169 165 162 162 164 162 161 157 157 165 176 185 181 178 178 179 182 163 161 168 183 186 181 168 177 177 178 200 205 199 190 181 182 182 179 179 193 187 177 169 170 180 188 194 195 178 178 176 175 175 176 177 175 178 175 174 173 176 177 182 185 180 186 188 187 187 186 184 183 188 189 179 183 194 195 194 185 186 188 178 166 153 170 181 183 183 186 185 186 188 186 187 187 169 168 171 173 171 167 175 177 184 183 180 172 178 176 181 176 178 180 178 178 178 178 178 173 161 160 153 156 159 165
174 174 176 172 158 158 157 165 174 171 171 161 158 169 180 183 168 162 174 175 179 183 166 165 165 174 174 178 170 164 164 169 189 184 180 171 161 161 161 165 169 168 177 182 183 171 175 171 169 175 174 174 164 164 163 168 179 160 153 166 169 170 172 173 167 174 155 178 181 179 178 182 179 171 171 167 176 177 175 169 171 167 170 165 154 161 163 165 163 171 178 184 187 172 166 163 163 161 162 167 169 155 167 167 157 158 163 174 167 164 161 166 164 159 170 168 161 165 179 176 174 177 180 181 181 169 166 166 171 167 166 169 156 152 162 169 182 184 183 171 169 169 166 171 173 174 172 155 154 160 162 156 155 149 158 162 167 168 166 164 161 158 160 158 154 161 163 164 162 167 179 171 167 166 163 172 180 180 165 175 175 174 186 191 198 175 170 165 155 152 154 156 186 164 159 157 163 158 160 168 163 161 186 186 178 172 170 170 165 176 178 161 171 173 176 176 149 143 145 162 168 165 167 160 164 174 178 168 189 190 188 185 174 169 176 179 178 171 155 156 153 152 161 172 177 177 169 166 171 173 178 170 171 166 160 151 150 171 167 167 155 160 163 160 156 154 143 134 146 138 139 147 139 139 157 161 161 157 159 155 154 153 146 140 148 151 156 152 147 154 151 155 152 156 156 156 161 159 155 158 158 156 146 153 155 154 151 153 154 153 156 156 155 155 155 156 152 148 144 143 147 154 163 152 148 146 144 156 156 158 153 150 147 147 153 151 156 156 157 154 149 141 141 139 145 147 158 154 157 155 161 158 158 162 164 160 158 156 161 168 172 170 164 167 170 177 177 174 178 181 180 181 179 173 163 173 185 171 170 174 176 186 180 172 175 182 182 181 182 176 170 178 176 179 180 185 191 194 188 182 182 185 174 174 173 175 175 180 178 179 183 196 197 193 183 177 183 186 171 170 181 185 181 184 179 181 183 183 187 179 180 183 188 189 188 190 188 187 185 186 184 184 184 180 183 180 178 178 191 195 193 190 180 180 180 176 177 186 186 184 180 182 180 181 182 181 178 176 175 178 174 178 176 170 174 176 179 175 171 171
173 184 181 182 163 160 163 161 164 171 167 167 178 178 170 165 160 160 157 176 176 175 158 164 162 162 161 153 156 157 162 170 172 171 161 158 162 168 159 156 155 165 164 161 166 164 176 179 177 170 166 167 160 172 188 186 171 152 145 154 162 143 137 140 153 154 153 165 174 176 173 165 163 166 169 171 167 168 173 166 165 168 188 174 173 164 153 159 160 167 175 175 175 178 157 168 168 159 157 159 158 158 159 158 143 127 130 142 173 180 182 180 180 192 182 182 185 185 182 165 162 177 176 178 188 188 183 173 174 175 182 180 170 173 169 166 164 166 170 157 152 154 164 159 159 164 163 154 154 161 158 156 161 151 153 154 156 150 141 147 154 166 169 165 172 172 181 167 156 157 160 165 164 163 163 157 169 171 173 176 168 171 170 159 156 157 157 156 165 172 177 162 158 160 158 158 160 172 165 163 163 158 156 162 157 156 153 152 149 148 146 142 146 145 165 167 175 166 186 191 185 174 183 182 178 174 173 187 185 186 169 157 164 160 162 165 170 164 168 160 160 169 174 173 175 177 173 170 168 165 164 161 163 153 144 146 144 135 139 141 154 159 157 166 150 143 137 146 158 162 164 156 150 149 147 145 144 148 158 159 158 141 143 151 148 152 146 146 145 146 142 150 153 144 144 145 138 142 150 149 152 152 159 162 167 153 150 149 146 137 135 134 142 152 155 153 151 152 156 153 157 146 150 161 146 146 153 159 163 163 154 156 155 162 156 152 146 157 148 144 145 146 155 156 151 145 142 145 143 145 149 151 148 130 127 127 133 155 163 163 162 178 179 170 166 166 166 173 159 157 160 166 169 168 172 175 173 171 162 177 185 184 185 170 169 168 184 172 170 178 191 186 187 177 174 178 181 176 163 162 161 168 164 162 169 183 192 192 180 180 177 177 163 182 184 186 181 186 189 192 192 184 183 175 168 170 170 170 174 171 170 175 187 186 189 191 189 189 184 188 189 189 185 191 192 190 185 182 184 180 182 182 183 176 175 180 181 183 185 185 184 174 167 165 165 176 178 173 172 161 169 173 172 170 162 162 163 156 151 152
181 180 175 170 172 174 169 158 162 161 163 155 176 171 177 169 169 165 162 171 176 179 183 180 168 168 166 165 164 157 175 172 156 159 155 155 151 153 153 158 162 160 157 147 151 151 152 152 156 166 168 162 163 163 165 165 167 167 174 173 175 176 173 168 163 162 159 170 174 176 170 168 170 169 160 168 180 183 183 174 169 167 161 164 160 165 157 153 155 150 151 156 163 163 145 152 154 170 154 155 156 166 163 167 169 177 174 174 175 179 167 166 173 162 154 145 160 162 155 158 155 149 140 149 148 152 149 174 172 171 166 166 168 167 157 149 152 156 161 164 161 157 155 162 163 151 147 165 159 150 151 154 152 146 148 165 169 166 161 163 152 144 140 142 150 147 157 167 160 157 167 177 167 169 173 168 164 162 146 142 158 160 175 181 172 175 154 148 154 151 158 172 164 169 183 190 177 170 159 156 152 165 172 178 182 169 169 178 179 176 167 170 171 157 178 167 164 156 154 160 162 156 157 151 154 156 157 157 155 157 149 150 146 158 159 155 160 164 164 170 174 178 175 161 159 148 149 154 163 163 161 160 166 163 164 161 168 162 160 154 156 152 157 152 151 156 153 146 143 141 149 153 153 155 152 154 152 150 154 152 151 146 138 133 142 144 142 140 139 138 139 140 137 138 148 149 151 147 141 145 143 145 144 142 144 149 155 156 155 145 140 142 140 147 149 151 149 145 149 152 151 146 143 141 145 145 151 149 145 146 146 147 148 143 143 146 146 148 151 154 142 145 150 153 135 133 134 136 139 156 168 167 171 168 166 167 169 164 163 161 161 172 168 153 142 152 149 155 164 174 168 164 154 145 164 178 182 174 165 166 168 167 165 165 171 169 176 184 184 184 175 173 174 177 185 181 180 178 186 187 192 183 183 192 191 179 174 176 179 180 182 183 178 176 178 183 175 175 173 170 175 176 167 162 159 165 183 187 187 191 188 196 195 194 183 186 189 188 187 190 179 181 185 182 181 174 179 178 173 175 177 178 169 166 171 174 181 180 181 177 171 171 175 177 170 165 161 159 169 171 171 173 182 180 176 176 180 181 184 184
164 171 170 173 160 156 160 168 164 166 164 172 171 171 168 154 147 151 150 147 148 171 174 174 189 178 167 157 157 155 157 161 168 186 181 181 181 175 176 176 175 185 188 189 189 192 186 177 177 168 177 179 190 189 184 190 178 176 172 175 176 172 177 173 171 166 154 160 157 155 152 147 146 145 165 147 147 145 155 156 154 155 177 175 173 165 162 145 144 143 150 133 131 128 133 150 153 159 147 149 157 156 165 168 155 149 152 150 170 174 179 180 187 193 186 179 179 180 193 198 195 191 185 180 179 180 176 162 186 196 176 176 166 167 158 160 143 132 139 146 153 153 135 142 143 140 127 137 142 139 132 143 155 164 162 168 169 170 169 170 174 177 184 191 180 152 152 151 155 160 158 153 158 168 179 174 175 155 163 167 172 171 172 171 165 146 142 144 148 167 159 157 159 165 169 162 166 150 155 153 152 140 141 147 151 152 165 162 159 166 170 177 185 163 157 153 151 138 140 152 138 134 139 141 146 148 162 159 159 146 166 143 165 147 140 144 150 154 165 170 174 177 172 166 151 146 145 154 157 151 145 141 149 155 152 153 150 155 165 155 152 154 159 169 148 149 151 158 168 164 147 141 146 149 154 155 154 150 151 151 145 153 145 149 149 136 144 143 134 129 120 128 137 140 148 155 135 125 125 140 131 137 147 169 164 154 152 126 137 144 146 143 147 146 144 146 146 147 147 146 144 153 155 151 143 155 159 158 153 152 154 155 148 145 145 147 152 155 161 161 157 144 135 141 143 145 151 150 153 155 158 153 154 156 157 153 152 153 160 159 142 143 143 152 163 169 187 179 173 157 161 161 166 176 186 180 180 188 178 193 183 169 172 186 174 165 165 182 179 182 185 206 188 172 170 182 180 169 164 174 176 182 187 185 167 177 186 188 188 188 190 194 199 195 191 188 181 186 199 194 188 191 189 192 185 189 187 179 171 172 179 172 179 180 174 172 174 173 181 181 174 168 166 165 177 177 176 161 162 161 174 177 178 188 188 176 177 160 155 165 164 164 158 168 169 170 165 177 176 177 180 169 164 164 177 178 174 174 176 177
170 165 166 173 163 155 156 151 152 151 148 146 147 152 152 164 159 164 166 164 165 165 159 160 158 158 162 168 166 167 164 161 160 157 154 161 165 154 159 160 160 157 161 164 155 156 146 142 146 145 142 155 162 157 159 166 171 166 156 156 156 157 160 159 153 154 148 152 151 164 168 167 166 171 174 174 172 155 154 172 169 170 163 172 172 176 177 172 178 187 170 158 163 164 168 164 162 162 169 166 162 165 159 154 151 152 154 150 145 140 151 157 149 153 162 163 161 169 175 176 170 171 169 167 167 148 148 153 156 172 181 181 184 165 163 165 160 162 155 155 161 159 153 159 168 179 175 175 171 170 168 177 167 157 157 157 152 152 148 145 157 164 168 178 159 171 146 153 143 161 157 163 156 148 151 143 146 146 140 148 144 142 148 154 154 157 159 166 173 170 160 162 160 160 154 165 183 179 157 152 164 171 163 159 164 162 154 148 147 169 169 155 145 157 163 166 167 165 162 159 156 162 164 164 164 159 162 161 162 165 155 151 166 176 169 153 161 156 156 145 144 160 160 166 169 171 172 170 160 159 159 165 177 177 166 164 161 160 162 159 158 154 160 164 160 150 154 167 167 135 135 143 142 149 146 150 152 149 147 139 150 152 148 154 152 151 146 138 144 142 148 149 151 145 139 134 135 136 137 146 146 142 132 154 156 148 147 150 149 151 147 154 150 162 156 156 156 151 147 134 143 149 151 152 150 149 145 143 140 143 145 148 157 153 147 142 143 140 142 146 150 146 138 147 139 152 142 147 151 151 151 147 143 152 161 160 163 164 162 146 171 169 168 169 171 174 173 177 178 184 184 180 175 173 169 172 172 164 167 166 172 174 164 165 160 163 172 160 163 170 172 173 173 177 180 180 188 180 186 183 184 180 177 179 175 171 169 176 173 171 178 169 173 170 164 173 186 173 169 192 188 185 182 176 175 175 171 171 182 176 175 176 187 191 176 182 183 179 174 172 169 170 169 169 163 170 175 182 180 170 180 183 182 185 191 191 186 182 176 175 170 170 169 168 176 177 176 166 163 157 157 175 175 178 178 169 162 167 170 167
159 157 157 160 170 178 178 169 170 174 170 144 147 142 130 128 139 143 140 133 135 147 148 134 134 134 137 148 160 155 162 175 189 188 185 167 141 147 144 142 143 134 142 137 145 145 149 148 149 161 163 162 161 154 155 152 152 152 144 138 139 146 151 149 143 141 145 149 150 152 156 164 157 155 154 156 161 146 142 148 145 144 144 153 159 145 144 144 139 146 146 146 145 144 150 148 158 171 163 150 151 153 157 157 163 152 134 135 139 154 153 143 143 149 144 161 161 153 147 147 163 160 170 179 169 164 166 151 132 139 136 129 139 142 141 138 126 114 140 140 143 146 141 149 149 154 146 163 165 173 168 155 155 157 162 164 162 160 153 156 162 156 142 162 158 149 133 144 154 150 143 141 136 128 132 146 148 147 153 157 146 150 138 137 146 150 148 138 136 143 148 144 138 140 143 144 145 140 141 144 147 147 149 170 171 167 166 152 143 160 163 162 140 145 131 126 124 138 139 136 136 130 128 119 116 126 134 139 145 145 144 142 136 135 154 168 165 147 159 163 162 159 157 151 145 152 146 147 135 134 141 141 156 165 160 150 150 175 173 164 153 144 141 140 142 141 149 149 149 150 148 142 147 164 163 163 163 145 136 140 142 137 133 136 153 154 140 123 132 147 145 150 151 143 140 153 150 148 149 148 142 138 134 134 143 151 152 152 150 145 148 130 140 152 146 145 155 152 153 147 152 146 144 149 143 141 134 142 149 131 139 146 123 137 145 141 140 130 124 146 147 146 154 144 156 150 150 152 151 147 144 144 156 159 159 158 158 169 155 151 146 154 155 169 154 142 167 164 160 163 155 176 176 146 152 156 163 158 158 177 178 181 198 192 191 192 195 196 184 182 182 172 162 160 148 151 136 159 170 167 164 170 187 181 181 160 158 157 155 152 158 160 193 181 183 186 183 185 183 174 176 162 155 153 160 171 159 162 175 183 178 179 182 177 182 181 178 178 172 181 183 183 175 183 195 199 197 199 187 188 188 182 178 176 177 177 175 159 158 158 160 174 181 182 176 180 177 178 167 172 182 175 175 176 170 174 173 171 171 175
158 144 144 140 147 159 154 160 173 169 156 163 150 160 157 167 165 152 155 177 172 162 166 168 172 166 173 170 156 152 159 149 146 159 156 172 177 179 178 179 171 168 165 167 168 178 174 169 166 163 167 167 162 153 162 143 153 160 159 167 162 169 158 155 158 150 154 158 157 166 152 143 148 149 148 152 141 147 150 151 158 163 166 167 167 160 158 160 155 160 167 161 166 173 155 156 151 168 154 145 141 140 146 144 151 152 150 148 148 159 156 177 160 159 163 157 167 156 155 149 136 139 153 147 148 148 152 151 151 166 167 166 159 164 174 168 153 150 154 160 155 157 158 157 160 172 172 161 161 168 147 150 143 149 169 174 164 160 160 151 157 149 138 144 148 156 147 146 143 143 150 171 171 164 153 151 155 153 156 149 136 136 135 144 147 146 148 152 138 129 131 136 146 156 150 141 144 152 155 155 143 140 151 144 144 143 142 155 148 145 143 145 159 164 172 173 182 178 181 173 175 175 173 179 174 177 188 189 171 170 159 155 153 167 172 152 157 155 154 153 143 139 146 150 156 148 146 153 151 150 144 145 143 142 136 149 131 137 145 163 166 162 164 159 151 155 151 151 141 151 148 164 146 147 155 162 166 165 163 159 159 150 150 149 148 152 153 153 146 143 136 144 135 133 134 125 119 124 128 131 134 136 145 142 132 138 147 156 154 151 140 145 144 148 149 148 146 139 131 137 141 121 120 127 124 128 146 151 157 141 147 151 148 147 146 125 129 128 145 149 147 154 153 142 142 144 142 146 141 148 152 149 142 140 143 143 145 147 150 155 163 162 163 161 157 155 155 147 152 159 163 158 164 160 156 167 170 164 171 173 174 180 179 171 173 164 167 171 156 154 166 182 184 184 183 182 191 186 184 178 178 183 189 188 181 176 182 178 179 186 193 193 195 196 181 180 171 153 153 173 175 181 183 179 177 176 185 187 191 189 184 182 175 172 171 167 164 180 177 179 178 177 176 181 182 179 178 184 180 172 170 168 170 173 167 172 177 179 177 176 175 172 171 159 156 165 167 159 161 163 173 172 172 167 167 170 171 169 167 167
156 155 154 175 161 164 163 164 174 171 171 183 182 178 157 167 168 168 132 159 149 146 164 175 165 177 176 176 180 175 165 164 160 170 163 162 161 161 165 157 155 143 147 164 155 140 138 134 123 125 135 137 154 145 154 153 153 152 144 153 155 155 155 149 160 153 133 134 143 144 146 151 170 175 176 177 178 182 190 170 177 169 169 173 160 162 166 167 162 163 170 168 163 157 151 153 143 152 157 170 176 155 130 135 134 131 123 123 134 134 132 133 138 138 134 132 132 131 134 124 125 137 136 130 136 136 130 129 138 159 149 158 162 149 147 145 143 151 157 160 155 153 156 139 138 138 139 143 151 162 158 155 151 147 150 167 175 169 156 162 163 159 153 156 160 145 145 151 158 160 153 151 146 142 139 140 178 186 173 174 169 168 160 165 177 182 182 171 173 176 166 154 139 149 143 145 148 151 165 174 162 152 139 152 157 164 174 174 173 172 192 174 166 150 155 155 152 153 151 151 162 158 161 160 157 152 154 153 153 154 155 156 157 141 143 145 142 148 149 141 153 162 151 143 142 149 155 168 169 170 176 175 161 157 157 147 142 153 135 141 147 150 144 144 135 142 146 147 146 150 141 157 154 155 164 152 149 134 136 140 141 144 145 145 134 143 140 134 130 135 143 151 141 142 143 148 153 150 140 142 134 136 128 139 140 133 130 129 130 130 119 121 124 124 125 150 150 145 147 147 145 145 150 153 151 145 139 139 136 131 128 141 145 147 146 141 137 126 132 137 119 138 144 148 120 115 123 119 124 143 142 161 159 155 144 144 173 174 164 157 155 145 138 147 155 155 151 149 161 163 162 178 179 169 160 160 153 154 164 168 166 166 161 160 159 149 148 164 163 159 175 174 167 171 178 180 172 162 157 165 159 150 155 159 146 147 160 165 163 159 156 169 176 172 169 180 190 169 171 165 157 156 153 155 150 149 152 152 149 157 165 165 178 174 175 166 160 161 180 181 170 154 166 168 165 173 182 168 154 160 173 168 166 163 165 179 173 171 169 170 171 173 166 162 162 171 175 170 171 168 169 165 165 164 166 166 168 172 174 176
161 160 163 163 156 151 154 153 142 142 150 152 147 136 138 144 150 148 126 126 133 137 137 133 134 146 149 149 153 155 156 153 147 151 152 143 136 136 137 149 147 154 158 159 167 168 179 181 184 163 171 168 162 172 179 172 169 162 156 146 152 148 140 144 142 137 147 141 147 154 159 157 128 135 144 137 144 144 144 151 153 161 161 154 146 149 144 141 143 150 157 154 152 150 153 138 134 142 141 142 146 148 139 146 151 151 154 152 150 151 153 156 143 141 148 158 156 143 146 160 165 161 154 150 174 172 166 160 150 139 134 134 136 140 147 145 141 141 144 146 145 148 158 156 151 147 147 150 147 142 137 141 138 132 132 138 136 132 132 127 130 127 130 151 153 166 161 162 158 148 149 149 148 131 127 146 155 157 169 152 154 140 132 133 133 132 118 120 129 126 130 127 130 135 134 134 120 130 130 129 135 139 140 140 146 147 135 134 149 141 148 149 154 147 136 148 139 131 134 128 130 131 130 133 132 141 142 138 130 122 132 141 140 157 157 158 163 150 143 145 142 146 147 160 167 163 153 160 154 148 141 146 128 137 140 128 123 136 136 148 159 154 160 161 149 155 151 146 132 123 125 136 139 135 141 141 136 129 136 152 160 148 138 148 144 148 150 142 137 141 143 146 137 125 138 152 145 142 147 145 148 149 151 153 147 144 146 139 148 150 147 147 131 124 127 132 139 132 127 126 114 119 131 137 132 127 128 128 129 127 131 137 137 130 136 130 135 145 142 143 143 143 141 137 137 142 141 138 139 145 141 140 148 131 131 140 130 138 147 147 149 149 140 142 144 142 143 146 152 152 158 157 168 174 172 161 165 174 173 171 166 167 163 154 159 165 167 159 160 165 169 171 166 175 175 171 165 159 154 164 169 167 174 174 168 173 178 179 180 170 165 166 167 168 162 158 154 153 158 164 188 180 176 182 175 184 184 182 189 188 186 175 180 182 178 175 172 168 162 158 160 168 170 165 168 167 162 160 159 157 157 167 175 170 172 176 171 171 172 161 160 170 168 165 170 172 172 180 165 176 164 164 172 176 173 167 160 159 155 149
151 149 145 146 141 141 149 145 146 139 153 142 145 148 153 162 168 173 171 166 156 153 156 146 154 153 131 155 159 166 165 163 180 177 144 170 156 164 165 139 164 157 157 153 151 152 145 144 141 138 134 141 137 130 129 133 143 157 166 152 153 152 153 158 156 157 161 156 165 171 163 152 160 160 144 149 136 123 123 126 138 134 125 132 134 137 146 141 134 133 131 128 131 134 141 156 170 156 155 156 135 145 160 148 174 182 186 183 166 176 182 165 160 160 167 186 146 161 155 144 162 152 145 140 124 126 130 132 133 130 138 159 165 165 140 132 165 153 166 156 125 134 117 124 133 129 129 128 131 143 189 178 172 162 154 148 145 149 146 151 153 147 149 144 151 165 166 160 152 142 135 135 140 140 142 134 129 116 125 122 119 137 130 117 121 125 146 136 144 150 161 162 166 179 177 173 175 166 172 153 139 132 132 135 140 134 139 130 124 132 132 125 120 117 118 119 120 155 142 138 131 134 133 128 135 136 137 136 139 139 139 143 140 138 137 137 143 145 144 145 138 125 129 131 117 115 120 130 131 124 125 133 141 140 140 138 134 135 143 131 126 126 120 118 120 133 146 136 127 131 134 133 138 147 134 141 145 141 133 148 149 142 141 129 131 137 128 126 134 148 143 139 140 145 139 145 139 140 139 135 144 157 154 148 144 142 129 134 138 148 155 162 154 144 153 136 138 133 120 148 146 149 149 141 152 150 133 138 140 141 143 138 145 142 140 131 128 126 150 162 150 147 155 152 141 145 161 153 149 150 150 150 148 136 133 155 161 157 150 151 153 156 164 160 161 166 166 165 157 151 153 165 165 171 169 170 162 164 161 151 150 150 158 158 151 152 151 147 146 146 172 170 152 150 148 141 143 142 144 160 185 188 178 171 169 190 195 179 174 175 172 163 164 165 166 162 162 158 147 155 161 173 159 169 162 160 161 153 156 156 151 169 162 160 158 173 170 157 156 171 172 171 191 193 189 176 181 176 167 169 176 172 173 169 171 171 178 181 173 174 173 163 167 166 163 163 161 165 167 171 171 169 161 164 169 175 181 176 173 172
168 159 156 168 157 157 161 157 154 160 153 157 161 159 153 154 156 149 141 145 144 138 134 134 135 138 141 147 141 138 142 146 143 146 149 149 152 151 152 159 153 154 141 154 141 150 151 148 155 158 161 157 159 153 143 150 146 143 143 152 157 152 146 146 154 154 161 157 152 149 149 148 149 151 145 147 152 150 151 148 149 160 161 153 154 151 158 162 164 141 137 139 147 138 123 127 129 128 128 126 120 121 124 131 128 133 130 127 132 129 129 135 136 141 137 132 148 160 159 139 141 137 138 141 133 133 133 136 142 137 135 137 135 137 136 138 139 131 139 145 142 137 141 145 149 147 136 135 137 135 139 147 143 137 134 124 132 121 122 130 122 129 133 128 132 129 133 126 116 118 119 116 112 119 123 134 145 148 147 144 140 147 155 154 147 149 161 155 146 142 139 137 132 136 126 124 120 123 129 131 134 137 134 134 129 138 131 134 142 137 136 134 128 135 135 143 151 147 145 145 144 145 142 153 140 142 144 137 131 130 152 150 153 146 138 128 127 121 143 145 150 148 145 151 154 156 149 153 151 150 151 145 136 147 140 140 154 154 152 152 143 139 140 142 143 147 147 146 149 147 134 127 115 124 134 133 133 134 134 132 138 142 144 137 153 156 152 140 137 144 135 119 121 126 115 116 128 133 135 124 131 138 150 147 144 152 143 140 143 140 135 131 134 129 138 133 136 143 144 140 142 148 148 145 144 147 152 153 148 146 143 146 138 135 143 143 143 137 146 152 152 150 139 145 146 147 156 150 143 136 145 144 146 148 147 152 158 158 143 142 140 139 147 159 157 149 151 148 137 138 139 139 138 141 141 141 152 157 156 151 147 157 167 168 164 164 161 168 170 173 184 182 168 161 158 155 152 150 150 147 155 153 151 155 156 156 166 165 167 173 170 174 184 178 167 172 166 174 174 167 175 179 172 169 166 161 164 171 177 176 177 162 160 161 165 158 151 155 157 157 158 160 160 160 164 163 168 159 156 153 143 143 159 151 150 153 154 154 159 167 166 170 174 178 171 170 167 164 168 162 166 163 165 162 161 165 163 164 163 166
152 143 145 148 146 149 133 134 138 138 148 145 142 141 142 145 145 147 151 150 151 150 150 155 153 153 160 157 157 159 165 161 166 167 168 161 163 155 152 153 155 157 156 151 153 154 146 146 145 137 136 137 148 147 154 140 139 151 152 152 161 157 157 153 142 143 144 134 140 158 161 160 168 166 170 176 176 169 184 183 173 174 173 168 172 170 160 163 161 166 163 155 145 143 151 149 146 141 143 143 152 164 166 182 179 182 188 188 178 185 192 184 153 158 140 132 128 139 141 148 154 152 148 140 139 140 157 154 155 153 148 145 137 133 136 152 152 155 153 153 140 134 131 141 148 159 158 156 151 164 179 171 172 166 163 165 158 149 146 143 140 143 143 139 138 138 138 142 148 141 146 153 160 176 183 190 184 184 195 183 182 187 169 169 162 141 139 131 136 135 139 125 135 147 150 158 152 145 124 121 123 127 132 144 165 143 145 160 150 141 145 170 152 152 161 164 149 137 162 149 149 182 167 169 145 148 138 129 120 121 129 131 129 132 137 126 137 148 149 152 150 140 137 133 128 119 125 127 126 132 129 128 121 121 132 140 143 130 136 156 169 165 158 164 167 167 163 164 153 155 144 139 131 123 136 137 140 140 135 125 125 134 136 136 139 150 159 149 143 141 150 145 140 135 137 132 133 142 140 132 129 129 139 151 149 140 128 125 118 118 114 138 144 151 152 150 148 134 135 148 159 160 151 155 156 151 158 162 167 170 164 150 153 157 153 149 141 124 137 148 142 139 133 133 133 131 134 129 141 137 144 145 139 131 134 137 134 134 133 129 131 129 130 130 135 142 138 156 171 180 175 150 158 159 163 154 144 147 143 149 151 136 133 136 147 152 153 145 140 139 141 141 153 157 169 166 161 150 157 158 156 170 166 169 169 163 175 176 181 174 171 158 179 179 184 176 175 162 166 168 159 158 157 161 173 182 188 192 187 178 174 157 175 176 178 179 177 178 183 184 185 179 177 188 189 183 189 189 188 183 183 178 183 183 178 182 182 182 184 185 180 175 171 161 160 159 154 154 155 161 165 152 164 164 152 155 155 171 161 162
141 142 147 142 142 142 141 148 148 144 150 150 153 151 149 150 149 145 149 157 155 141 143 145 138 136 136 130 126 125 115 123 123 119 131 130 127 135 134 133 148 146 144 161 152 142 155 156 156 157 153 143 146 141 128 127 134 132 135 127 136 143 140 138 139 133 139 135 134 145 147 138 136 136 143 143 140 135 131 137 132 125 134 146 128 125 130 145 149 146 156 156 158 166 165 176 176 170 163 157 164 154 146 147 139 133 123 125 127 121 126 124 131 138 131 137 142 137 139 130 127 138 137 136 136 121 117 122 126 125 138 149 146 146 148 168 179 168 161 168 174 152 144 143 141 140 137 138 131 140 151 134 141 143 145 149 153 144 146 148 158 159 156 162 163 170 156 157 154 156 132 137 140 140 148 146 142 138 134 126 124 126 127 131 139 131 131 131 131 135 132 135 130 128 124 126 133 150 156 157 149 148 147 151 156 168 170 159 140 132 128 123 126 128 133 130 129 129 136 133 131 136 149 159 158 166 169 169 165 157 150 137 133 130 129 127 142 145 128 137 140 134 143 150 147 131 125 129 140 144 145 145 143 143 152 145 133 132 128 127 139 132 123 134 129 130 136 133 132 141 144 156 163 131 130 139 125 131 131 141 125 123 132 133 128 132 141 138 131 127 128 128 121 124 131 126 132 133 135 135 136 132 125 120 118 136 144 137 137 136 137 141 140 149 149 153 147 139 132 152 136 140 148 150 152 145 140 128 136 144 142 141 132 136 137 128 126 117 117 128 137 136 128 137 137 137 139 129 129 137 133 143 147 150 146 155 164 157 155 156 155 151 152 149 149 153 151 153 143 139 138 130 134 138 143 142 152 154 152 155 150 148 150 160 159 160 164 169 151 135 133 139 146 150 147 142 139 142 153 154 156 153 155 151 153 151 141 142 138 146 158 162 157 150 150 145 144 134 136 136 129 133 134 139 146 145 146 145 146 149 156 157 159 158 158 149 150 148 163 170 172 164 168 168 156 159 156 157 159 158 149 147 144 147 153 155 157 161 164 161 162 166 171 171 171 173 173 164 166 166 163 165 163 155 158 157 148 142 141 133
156 151 151 147 142 142 142 136 147 153 170 170 157 156 147 143 129 130 130 124 124 125 136 136 135 127 127 128 142 143 144 160 149 143 137 137 137 160 163 163 156 154 153 147 142 141 133 132 131 138 143 144 154 158 156 155 154 155 154 147 148 142 146 146 146 149 149 145 141 143 141 146 147 146 149 151 153 159 159 159 139 158 147 136 136 135 141 142 145 135 129 129 117 117 126 126 126 125 127 124 123 128 137 139 135 143 143 149 149 155 162 155 150 132 121 123 126 131 135 130 126 129 131 123 142 147 131 140 149 154 144 148 144 151 154 149 139 122 114 117 120 116 120 135 121 115 118 118 126 127 123 130 128 117 112 126 134 124 128 130 146 131 123 130 139 144 145 129 119 118 123 128 131 131 126 123 127 140 137 137 134 142 116 119 123 129 134 127 120 134 139 145 133 119 123 127 122 123 130 127 136 118 110 110 131 134 135 117 114 122 125 127 125 137 145 132 137 142 125 123 123 131 130 126 116 115 120 125 126 131 139 136 133 132 130 126 121 127 151 125 129 136 133 129 118 126 135 124 122 118 128 118 123 139 147 150 150 142 136 136 146 142 137 139 133 124 125 130 141 142 143 153 145 140 129 138 141 143 141 141 144 139 136 127 124 120 125 125 125 111 111 112 116 115 119 118 119 119 118 118 123 128 126 128 136 140 142 135 128 122 129 123 115 123 123 116 129 125 125 125 130 130 129 121 120 121 126 127 127 130 129 140 131 136 137 135 143 144 141 136 137 135 132 133 125 129 130 129 132 127 129 144 142 153 150 142 144 150 155 151 150 148 148 147 141 142 143 144 156 151 154 176 172 176 174 168 163 154 155 163 152 154 154 146 150 162 162 161 162 169 183 195 184 179 191 180 173 172 169 177 173 172 176 160 157 157 161 154 156 156 159 167 165 171 177 180 179 179 173 178 181 183 187 180 186 167 165 167 175 165 164 154 143 142 141 148 149 140 150 153 175 159 170 189 181 180 178 178 178 176 173 173 176 169 168 174 163 163 167 157 156 159 166 166 161 162 162 162 148 146 150 152 161 170 170 171 170 164 165 166
137 125 125 129 134 134 129 136 145 149 155 152 146 162 160 160 146 146 159 160 155 155 166 164 164 165 164 163 172 174 174 169 152 155 155 162 162 161 163 149 140 135 134 140 138 145 145 149 146 150 150 146 141 140 134 134 133 133 137 134 127 130 133 131 131 132 134 142 140 138 138 137 136 125 123 126 126 123 123 124 120 120 122 122 122 118 117 120 129 131 136 129 134 139 144 147 152 160 155 154 155 150 138 136 142 141 140 140 132 137 136 133 130 139 148 146 133 129 138 146 127 147 149 145 147 146 145 136 136 142 139 119 111 115 131 133 133 140 148 159 166 162 149 152 140 141 142 158 153 137 140 133 130 139 120 128 130 131 131 127 130 131 136 137 140 153 141 135 141 152 152 150 128 136 137 140 134 134 138 143 138 133 132 136 155 158 141 139 150 154 136 132 136 137 130 135 127 131 127 127 133 138 131 129 130 124 137 131 120 124 127 141 135 128 128 137 152 129 132 139 144 141 136 130 128 128 126 127 134 130 125 124 134 153 145 132 148 146 142 130 123 130 122 123 130 132 137 148 148 144 146 134 122 125 128 128 124 130 132 128 127 129 133 141 153 150 151 144 137 128 129 124 120 123 130 131 138 136 129 130 134 131 125 120 122 117 126 122 126 131 143 147 145 145 149 144 140 133 133 134 138 135 134 138 138 136 134 134 133 131 129 135 136 129 134 133 138 136 135 127 117 131 142 144 145 147 148 145 138 128 137 138 153 136 136 141 146 142 139 136 137 134 140 141 137 138 146 145 136 133 141 148 154 140 140 150 138 132 135 134 150 153 151 160 148 149 144 138 129 131 142 135 147 152 142 146 150 146 159 157 151 165 161 156 158 159 159 161 155 156 152 161 159 153 150 135 139 149 156 146 178 161 143 152 156 153 147 133 147 147 156 175 170 165 167 166 155 154 166 169 178 180 179 172 172 168 160 166 175 171 175 178 182 182 170 171 168 176 170 151 152 156 153 141 142 144 140 144 149 146 147 146 147 151 151 146 143 158 153 158 159 160 157 158 155 148 148 148 141 139 149 147 150 153 158 159 164 166 165 165
144 153 161 165 172 155 155 154 151 151 147 148 148 144 136 138 140 138 140 144 139 151 152 153 160 143 140 134 133 130 132 144 144 139 155 161 126 142 145 150 151 149 143 141 140 136 150 143 145 149 153 148 146 134 133 131 130 130 130 142 149 146 139 129 135 147 148 132 129 122 122 113 111 120 113 114 125 136 142 160 169 172 131 124 137 126 124 128 126 125 132 129 123 117 133 139 142 132 133 135 143 151 154 156 147 135 130 120 127 126 125 125 128 134 146 150 154 139 124 124 126 128 130 128 133 136 140 142 142 141 145 151 151 153 142 137 136 143 146 144 137 130 129 122 128 129 128 129 133 135 124 127 128 137 132 130 145 130 124 123 133 130 129 110 116 115 115 110 108 114 118 123 132 135 139 132 135 137 131 123 119 117 130 132 139 134 101 105 114 103 101 101 102 101 107 111 118 119 116 120 115 121 125 112 132 127 131 136 127 126 135 131 143 132 135 134 131 133 125 119 141 122 125 135 140 149 154 152 153 143 144 149 153 142 142 135 125 123 124 135 138 142 146 147 129 125 118 118 118 131 135 131 144 140 154 141 127 126 127 142 135 128 116 116 115 119 119 126 123 119 123 120 133 134 140 119 118 113 119 123 128 126 108 129 136 134 136 135 137 135 112 135 132 120 116 103 122 130 125 129 133 128 120 125 134 137 138 138 129 127 129 135 133 134 132 132 131 126 129 116 123 130 139 146 137 134 130 140 138 148 142 132 130 128 120 123 128 125 127 132 131 140 141 126 131 123 141 151 150 146 149 150 149 153 145 142 136 127 128 119 121 121 124 127 130 136 146 149 148 151 154 153 157 161 152 160 151 140 140 135 134 135 134 135 135 130 133 132 129 132 132 133 133 134 135 136 143 142 136 142 140 153 152 144 137 138 134 137 135 134 134 144 143 141 139 150 162 165 166 146 153 151 159 160 148 156 150 162 159 167 172 183 172 173 158 151 156 171 163 167 169 157 162 168 166 162 161 165 167 168 170 173 178 175 174 170 170 153 155 155 175 166 166 159 164 164 170 179 179 180 186 185 179 173 170 171 169 168 167 167
139 138 140 145 134 130 120 129 133 146 136 136 140 145 145 147 150 141 138 137 141 142 141 139 151 151 151 136 128 130 128 127 129 128 136 123 129 136 138 138 143 153 151 148 152 149 139 121 123 114 116 120 117 123 128 131 131 129 123 127 128 128 130 126 132 137 131 123 121 129 137 149 162 154 161 149 149 149 146 147 143 155 152 160 177 172 163 161 163 161 161 152 129 134 121 123 132 156 162 151 144 135 124 115 120 136 137 142 138 139 152 129 133 129 128 127 125 131 121 121 132 128 126 136 135 127 127 133 135 134 130 124 128 124 118 117 109 109 102 103 118 137 142 120 129 122 124 136 133 126 126 130 133 130 138 134 134 134 135 127 120 126 126 124 123 122 119 123 114 115 101 112 107 121 123 117 111 115 119 128 149 158 143 135 151 150 146 137 136 141 145 149 143 140 140 147 148 130 122 127 147 166 175 166 144 144 159 154 135 147 138 122 118 113 104 114 117 112 116 120 120 117 113 120 123 119 113 112 119 122 115 116 123 127 126 124 123 125 138 141 125 122 129 138 133 138 139 144 157 149 133 131 125 130 139 137 122 129 129 134 135 138 139 147 141 127 128 128 130 129 126 116 113 119 113 121 116 132 141 145 145 135 137 126 125 133 135 130 130 132 122 125 127 137 140 142 147 138 135 127 127 120 108 115 126 137 139 146 129 118 121 116 122 118 128 124 124 124 127 124 121 122 124 117 121 117 120 122 124 122 119 118 126 128 126 120 127 124 123 135 143 130 130 144 146 127 135 128 118 126 138 140 145 146 148 154 155 156 154 160 154 144 137 142 140 138 135 130 117 126 124 136 132 135 136 142 144 154 158 162 164 167 178 178 170 158 161 160 161 170 170 165 159 170 171 172 174 176 172 174 171 165 167 159 152 155 157 161 157 151 155 145 140 136 137 140 140 131 127 131 148 155 158 151 154 156 147 147 139 138 142 141 142 142 144 143 155 154 151 153 158 157 160 162 166 168 156 152 150 152 157 141 157 150 155 153 155 153 157 160 160 166 152 142 140 143 147 153 144 147 159 161 156 150 150 153 157 154 154 155
162 182 159 158 162 160 139 173 176 161 155 164 163 170 156 153 151 142 152 142 132 146 146 142 143 139 148 142 148 155 153 160 162 171 168 168 172 171 154 130 130 109 114 117 124 123 122 121 130 130 129 131 140 139 138 138 133 153 145 133 134 133 131 128 129 129 122 126 126 129 143 157 160 181 174 172 157 158 148 141 148 144 146 139 136 128 124 132 129 128 126 132 139 136 128 122 116 123 123 143 146 137 145 135 150 156 142 140 144 143 142 128 117 122 128 171 165 145 145 146 147 140 143 153 129 124 117 128 133 136 139 145 151 137 132 123 118 118 123 128 130 125 121 102 108 126 128 151 151 158 145 128 111 114 121 120 117 123 126 127 149 155 153 140 130 148 149 147 153 157 144 138 116 117 118 124 121 129 125 111 100 92 110 120 118 114 120 137 138 137 131 127 138 134 138 123 131 124 117 116 121 119 116 113 112 114 141 149 142 146 144 137 117 129 134 128 120 118 120 123 119 114 115 120 125 128 123 117 118 124 121 115 118 130 132 128 126 132 131 128 128 125 118 112 110 109 110 109 113 110 111 111 118 121 118 109 111 133 142 144 133 128 128 130 128 126 122 137 146 151 143 146 154 139 140 135 140 134 128 129 120 126 125 121 118 120 123 116 123 135 141 141 135 134 132 127 134 110 121 111 113 116 121 115 108 108 115 116 116 122 129 147 145 131 138 140 137 122 119 119 117 126 125 122 142 147 126 130 114 129 131 145 148 128 132 131 131 133 121 118 114 114 120 123 116 130 121 128 130 130 127 134 139 140 139 135 136 145 151 138 147 152 172 167 156 149 143 149 158 161 159 158 154 153 132 128 133 135 133 144 146 145 140 129 132 128 125 127 129 146 131 123 120 143 148 148 162 158 155 130 128 132 135 152 157 155 148 145 158 174 167 174 185 170 145 146 135 127 129 140 146 148 151 151 151 147 153 159 167 165 156 146 145 144 130 139 144 139 148 158 172 185 172 168 167 151 152 154 135 158 155 153 150 149 149 149 145 136 145 153 157 161 168 174 174 178 173 160 162 164 164 162 156 153 153 150 141 143 142 148
119 118 123 124 121 121 122 125 124 125 120 120 119 125 126 123 123 129 133 131 128 144 145 143 163 169 169 162 149 157 147 135 130 115 112 118 119 123 125 113 124 121 119 125 129 134 136 136 141 138 151 154 149 143 155 160 169 173 171 162 135 129 136 133 127 122 124 113 113 108 110 113 122 124 126 131 126 133 129 118 119 119 118 118 123 117 116 117 117 141 141 146 139 143 136 139 138 138 130 130 126 129 138 134 127 118 109 105 108 115 120 122 121 121 113 111 118 120 133 134 127 127 124 120 119 106 109 112 120 132 135 135 109 117 123 129 131 129 127 132 122 125 123 121 123 129 128 125 116 118 121 134 133 148 151 152 136 133 122 117 113 107 133 116 133 114 129 135 126 137 121 140 128 128 130 143 148 129 121 124 129 135 129 132 137 141 144 131 143 143 142 136 137 137 130 128 133 132 128 131 129 119 118 113 108 108 104 102 110 113 112 116 113 119 115 118 134 133 138 134 138 150 148 142 128 117 112 123 135 145 133 125 118 115 110 116 105 111 112 107 113 117 124 115 120 115 113 115 126 130 133 125 113 122 124 114 111 109 107 108 108 108 108 107 114 119 117 108 107 112 113 113 111 109 109 129 131 122 133 127 117 121 136 138 131 128 120 119 121 123 116 109 104 112 114 128 134 137 131 127 123 135 136 138 144 146 143 130 131 125 125 124 128 121 128 127 128 127 130 136 139 136 138 141 139 133 139 147 143 139 130 133 136 137 137 135 134 117 116 119 121 123 124 131 121 119 116 124 128 136 137 137 135 125 121 118 116 114 119 128 140 153 143 137 134 136 134 132 137 148 149 148 148 151 145 150 148 141 134 135 141 133 125 110 119 135 130 136 130 128 128 127 123 126 134 119 116 118 124 131 126 130 132 136 134 148 153 149 149 152 152 143 147 154 155 161 163 167 158 150 150 142 131 135 138 141 142 142 142 144 151 158 154 146 146 155 150 127 134 133 152 159 156 148 145 138 138 154 159 151 156 157 154 158 163 153 156 156 150 151 134 134 141 145 138 143 147 155 154 147 154 157 149 152 158 157 148 158 146 148
153 146 139 145 140 135 133 136 134 127 121 129 125 139 138 125 129 142 145 172 162 145 130 109 105 103 110 111 116 120 124 124 127 138 136 124 127 118 123 124 125 122 120 127 126 127 134 167 148 149 151 151 148 157 150 140 134 104 113 121 118 115 121 117 120 124 155 150 161 163 160 147 127 144 146 118 109 121 119 124 127 133 133 140 140 137 122 124 145 153 152 147 139 136 128 135 135 135 134 140 129 127 127 121 118 112 106 98 95 109 116 107 113 112 113 107 111 104 118 120 115 102 108 107 111 112 115 118 111 118 119 118 120 121 136 158 159 151 144 134 150 149 135 135 135 134 141 133 132 128 122 125 120 102 103 100 96 104 99 103 112 122 109 105 103 112 114 106 109 116 121 123 111 110 105 142 149 144 129 131 132 130 131 121 117 110 121 122 115 113 121 123 139 137 140 137 137 138 149 159 159 126 128 131 133 136 130 122 129 134 161 133 128 114 105 122 125 113 113 120 120 121 121 116 97 89 95 117 127 129 125 123 125 112 109 117 120 120 118 96 98 109 108 125 118 123 119 118 124 128 119 130 130 132 123 120 131 112 109 112 131 137 139 111 116 115 108 99 96 94 100 106 103 97 119 103 104 101 112 115 121 131 131 142 152 146 137 134 146 150 137 134 135 131 121 111 112 100 94 102 120 123 122 126 128 133 134 141 138 136 136 146 121 121 130 134 136 136 129 107 107 112 116 112 118 130 127 120 116 114 116 131 134 135 139 145 152 150 149 151 147 150 150 149 150 152 146 147 143 140 128 128 147 142 132 119 121 120 117 112 110 113 119 135 142 144 142 144 151 146 135 134 138 144 139 138 142 138 129 164 168 166 164 164 166 169 171 160 160 145 160 147 151 154 162 160 150 145 145 149 147 140 133 147 146 138 138 144 150 165 155 151 158 158 146 146 150 148 161 162 162 169 173 171 165 150 145 148 152 154 154 153 154 150 141 148 143 154 159 153 142 168 148 150 151 153 162 151 150 150 150 144 135 138 137 137 154 152 163 157 153 167 171 169 172 159 157 163 152 159 162 149 157 162 162 163 164 158 145 147
128 121 126 120 144 128 142 146 152 157 174 174 163 155 144 139 121 109 108 100 100 116 126 126 125 126 128 123 128 127 128 129 128 122 132 133 148 155 160 149 150 150 153 151 151 140 142 127 113 101 100 94 107 114 124 114 122 119 118 121 126 125 136 130 131 130 129 137 139 141 135 137 128 124 117 118 127 123 126 128 127 127 123 133 139 140 135 132 135 137 148 152 152 148 141 134 132 114 112 106 105 96 98 104 109 120 120 114 117 122 121 119 126 125 118 115 105 109 116 114 121 119 117 118 119 123 125 119 119 118 118 129 131 142 141 129 128 135 140 143 150 132 122 129 127 118 105 100 101 96 101 91 89 93 97 98 105 113 122 128 131 141 145 147 138 140 124 127 123 103 99 91 97 96 97 96 97 96 94 95 99 99 96 98 101 107 110 109 110 108 105 116 111 110 103 105 108 111 112 109 118 117 120 135 157 144 142 144 133 126 117 106 103 113 111 111 112 114 112 111 114 121 124 118 120 121 135 150 148 143 140 141 138 134 135 137 133 116 104 110 114 130 129 143 137 124 113 107 120 131 128 117 112 104 111 115 107 107 125 125 122 128 149 135 133 132 139 126 121 128 127 120 126 128 115 106 110 118 120 124 122 119 128 129 129 128 128 121 116 122 112 113 116 116 118 115 106 100 98 97 103 104 101 99 109 102 110 109 112 118 125 134 131 133 132 130 130 129 127 131 127 122 118 110 105 114 128 127 132 139 128 132 128 126 123 118 117 118 124 128 127 135 138 147 145 143 146 147 146 154 152 148 139 140 128 136 135 149 155 151 146 139 132 137 131 120 123 133 123 124 133 130 122 120 122 120 130 136 140 140 152 150 141 143 137 136 132 131 135 135 141 142 157 152 139 152 143 162 165 160 163 146 153 167 165 153 151 152 146 139 135 148 146 148 152 157 137 133 130 129 121 113 124 126 142 143 156 156 162 154 146 153 151 147 151 165 173 157 160 163 159 159 154 156 160 147 149 142 138 137 138 140 146 165 166 164 167 161 153 147 145 152 146 149 150 144 145 148 143 142 149 145 141 141 138 146 149 150 149 148
161 163 159 153 148 146 145 140 121 120 119 118 116 129 144 152 144 145 143 133 127 118 122 127 133 137 138 152 153 145 141 155 161 140 145 145 141 146 143 117 112 112 114 115 119 141 140 152 148 156 164 154 149 142 126 123 127 143 141 137 138 146 145 150 147 152 141 131 121 128 131 133 126 119 131 144 152 148 145 157 170 179 165 156 155 145 146 144 138 126 120 117 106 99 103 103 105 98 116 121 120 117 110 106 116 119 117 114 105 111 125 127 131 132 127 128 126 124 142 140 136 135 152 128 119 121 120 143 146 153 156 148 146 133 118 99 99 101 97 95 98 106 108 95 113 124 124 119 124 124 123 118 112 111 103 103 106 115 112 107 109 106 103 108 98 114 105 119 127 120 104 105 107 113 100 104 112 122 130 134 132 127 118 120 123 114 120 116 120 123 149 142 118 120 109 121 114 120 124 132 131 127 110 107 109 113 108 108 100 106 126 119 119 121 114 112 116 127 132 125 130 137 119 110 98 111 117 118 126 128 122 105 115 99 105 98 92 88 88 98 107 124 118 108 106 119 127 123 122 120 121 121 151 128 127 128 127 133 116 119 121 115 123 124 116 119 145 146 152 152 147 139 140 141 139 134 130 130 137 138 138 135 115 102 107 102 113 134 126 137 139 133 132 123 119 142 137 144 141 133 137 143 135 137 133 132 117 118 105 103 112 113 106 108 116 117 129 126 125 137 141 133 128 126 125 124 123 117 113 106 111 107 106 101 106 112 107 121 129 120 116 106 104 102 113 113 131 131 132 124 112 134 149 155 150 153 152 161 148 143 149 144 148 144 137 138 138 141 161 161 161 162 162 152 144 125 120 126 121 124 128 131 133 120 110 107 109 118 116 128 139 146 138 139 125 133 138 148 160 156 156 165 161 164 148 145 148 143 140 138 130 127 142 141 143 145 139 141 129 136 146 156 188 162 147 135 124 118 109 115 123 130 131 127 128 120 118 119 111 138 140 159 166 157 158 162 162 163 166 173 168 159 158 152 147 127 136 135 140 137 160 185 172 175 160 159 154 168 172 173 170 168 158 151 147 141 137 120 132 136
141 138 132 127 121 122 121 130 129 132 135 133 139 134 135 131 128 132 139 138 137 142 139 144 148 140 145 143 153 147 153 137 111 115 110 113 114 115 119 117 124 131 137 137 133 138 135 129 123 126 112 112 115 120 125 124 132 141 164 157 145 134 112 113 131 130 140 138 152 152 151 160 157 144 139 132 134 133 140 122 121 118 112 109 99 92 95 95 99 94 100 99 98 98 104 103 106 105 112 115 121 125 130 128 129 124 124 122 125 125 123 124 123 119 130 136 142 138 141 142 123 131 122 118 119 117 107 107 101 102 108 110 116 114 113 116 119 118 105 108 102 109 120 124 129 121 118 125 130 139 133 169 150 180 168 159 141 133 147 149 152 160 150 141 132 132 144 136 128 120 129 135 115 111 108 109 108 107 95 99 105 111 111 118 119 120 123 126 131 142 165 169 157 136 130 119 111 107 113 111 113 109 108 109 110 113 118 113 113 113 130 152 129 128 119 124 126 118 122 127 126 127 131 122 128 127 112 102 95 101 97 100 105 107 108 107 110 109 102 115 124 134 124 113 113 116 114 110 103 105 104 101 104 99 110 125 135 127 127 127 122 130 132 122 125 127 120 123 121 123 133 143 150 152 129 128 130 128 122 132 121 126 114 111 106 101 102 107 108 108 100 104 110 122 121 124 117 117 123 119 117 129 135 125 131 130 134 127 136 138 136 135 133 123 127 127 133 135 138 133 128 130 130 135 134 132 134 134 132 129 120 122 123 120 115 117 112 110 107 118 121 114 110 108 113 99 102 101 102 107 112 112 111 107 118 116 116 112 115 115 110 108 105 104 113 128 129 123 117 123 131 119 112 108 110 112 123 133 126 131 143 141 142 137 133 132 127 126 119 117 119 129 132 129 122 119 117 115 119 120 125 125 119 115 121 120 116 114 124 124 132 141 143 141 139 138 156 155 163 158 168 172 159 160 150 154 151 151 158 156 151 159 152 149 158 159 160 157 143 139 133 137 128 130 131 129 128 132 146 156 155 165 175 179 175 176 171 166 160 158 151 150 148 151 156 152 155 154 151 152 148 153 157 159 154 158 163 163 163 160
120 128 130 135 136 151 152 167 159 148 148 143 158 147 145 169 173 180 178 161 162 166 137 130 120 131 117 99 93 97 93 96 115 115 128 150 138 154 153 158 148 118 118 104 104 112 113 124 125 137 138 141 142 128 127 118 116 135 134 117 119 130 133 136 136 134 131 130 128 131 118 113 112 109 113 105 113 105 120 128 125 95 96 95 94 107 118 110 117 113 106 109 112 116 107 111 113 118 133 145 137 142 146 163 158 147 159 143 144 139 137 145 149 168 142 129 132 100 85 97 100 106 111 103 102 115 126 126 120 114 117 119 121 127 130 126 127 131 121 124 124 118 107 119 126 136 132 137 133 126 127 146 154 148 151 160 177 168 164 162 153 145 144 128 126 127 124 103 110 105 104 125 132 138 127 111 113 131 136 144 135 115 126 125 122 128 129 127 121 118 122 118 127 129 132 118 114 111 110 103 105 109 106 110 99 96 97 94 103 100 93 97 101 103 103 105 95 97 97 100 98 97 105 108 108 108 108 114 128 122 152 134 146 132 130 127 127 129 130 123 107 94 89 91 92 92 93 88 94 95 97 107 120 126 106 101 102 103 112 109 114 121 129 117 112 112 111 107 112 94 108 115 107 105 109 115 111 112 113 111 111 112 104 101 109 104 103 98 97 104 108 107 96 86 80 79 95 97 97 97 102 116 116 107 110 102 104 107 118 130 129 105 107 106 106 113 113 108 110 115 121 115 111 111 110 115 123 121 131 126 114 118 113 114 99 102 115 120 128 129 115 132 125 139 147 146 133 130 133 135 137 141 139 132 127 129 130 132 131 132 116 116 116 116 134 136 149 146 133 127 132 129 132 139 134 127 138 146 128 120 120 127 132 137 128 124 131 134 141 134 112 109 102 114 124 119 114 114 114 112 111 113 114 125 140 156 156 159 158 145 148 140 148 172 157 144 134 141 145 143 149 151 151 186 184 172 171 160 160 152 155 181 182 158 161 147 147 157 157 163 163 165 164 142 141 133 124 132 138 130 128 127 123 123 124 127 133 139 157 150 148 146 146 168 176 151 141 159 171 168 153 157 168 163 155 157 158 158 152 152
125 126 130 132 122 122 122 125 114 119 115 115 115 108 112 108 109 107 104 97 99 89 91 95 95 107 108 125 126 128 131 127 124 121 126 121 112 109 124 125 120 119 128 126 141 142 139 125 118 117 130 126 126 110 122 128 121 120 119 120 120 111 116 117 122 114 112 106 110 111 111 109 106 110 105 97 93 97 109 125 141 138 143 142 145 138 140 155 145 159 167 165 165 163 162 167 168 154 155 158 155 154 153 164 164 157 143 139 139 129 120 118 115 110 111 108 109 110 123 125 122 121 132 141 145 153 146 139 147 157 167 157 150 153 152 147 131 142 155 154 159 154 131 128 139 137 132 133 132 129 119 104 101 102 114 117 121 122 126 114 122 118 126 125 120 134 133 135 134 138 130 129 126 123 123 112 117 130 144 139 135 144 140 141 145 143 152 145 127 125 109 109 125 118 117 104 99 100 105 106 101 92 99 106 104 101 106 105 107 110 106 104 107 117 119 114 113 116 125 131 137 128 133 127 116 124 118 133 124 117 131 136 127 110 113 109 106 107 107 115 116 113 121 122 120 117 119 128 134 131 109 110 121 128 132 126 119 123 101 104 107 105 115 108 108 100 106 113 118 109 113 107 101 103 111 105 98 100 116 110 118 115 115 123 126 126 131 126 125 127 127 128 122 128 132 119 119 121 118 126 124 108 105 108 112 124 128 134 128 118 113 113 108 102 99 101 109 115 126 132 134 134 132 127 128 129 128 117 117 118 118 119 121 124 133 141 131 129 136 139 130 126 138 143 142 146 143 150 149 131 143 132 129 133 138 134 133 127 127 125 117 112 123 138 157 143 148 141 146 133 132 137 136 145 140 144 143 133 138 141 148 149 156 143 146 145 139 141 138 123 120 119 119 113 116 130 133 141 137 141 138 140 148 156 157 144 137 121 121 115 124 123 123 136 133 130 137 136 138 141 146 150 161 160 161 148 147 147 148 146 146 149 139 134 135 138 141 136 138 142 138 142 148 148 154 152 147 140 133 130 127 121 121 116 131 129 132 125 121 121 125 133 132 137 138 147 148 160 157 150 147 156 159 156 148 149 151 155 154 155
100 116 108 93 96 110 109 114 117 120 110 108 90 84 100 102 105 106 110 109 108 125 139 135 118 124 126 130 142 139 133 130 116 110 117 119 121 120 110 108 103 110 96 94 98 103 108 109 113 132 135 149 143 139 133 135 133 124 102 101 114 114 90 90 79 77 80 85 91 92 103 106 110 115 119 121 122 109 110 115 116 108 108 113 116 119 125 125 130 125 125 124 140 133 129 126 125 118 124 113 128 118 115 114 115 118 118 118 115 120 118 117 114 109 108 110 103 109 113 129 136 126 129 130 132 130 133 133 133 133 142 115 109 95 93 96 92 92 87 81 106 106 106 103 98 91 100 97 98 92 92 99 101 107 107 107 103 103 99 99 96 95 97 101 106 108 102 100 107 105 110 116 127 130 138 156 157 134 123 103 101 107 109 108 107 85 83 76 72 71 69 78 82 83 77 84 114 115 123 127 120 118 109 113 116 108 103 103 106 102 97 96 83 89 94 93 86 88 110 103 106 101 93 82 78 87 89 114 103 101 112 110 107 111 98 92 96 105 115 113 139 165 140 119 123 125 127 139 117 125 134 133 113 106 101 110 115 100 105 103 103 104 115 112 111 128 123 128 120 135 129 114 111 108 107 114 115 116 118 121 112 110 109 103 106 105 112 105 116 128 130 144 141 138 127 127 132 124 118 121 118 117 113 107 116 125 121 120 110 103 110 103 99 105 99 109 98 106 108 98 89 93 97 104 114 119 128 112 130 147 142 139 140 148 150 143 142 143 148 131 123 130 142 142 132 122 120 124 121 119 115 114 119 125 128 127 140 143 134 129 130 129 129 123 122 117 120 136 140 128 119 103 102 127 137 138 135 142 131 125 119 121 126 126 135 134 134 133 131 141 136 130 127 133 139 139 133 120 115 119 121 132 126 110 110 126 126 139 139 117 112 107 108 105 113 114 135 135 132 133 134 138 141 138 132 144 134 132 143 145 133 139 139 133 134 132 129 124 124 132 130 139 146 140 134 132 129 131 136 136 163 163 158 158 137 128 129 129 119 118 119 120 121 124 123 117 116 127 128 131 133 129 129 134 138 140 144 147 139 139
141 142 132 114 115 113 113 121 121 116 119 122 128 121 134 137 145 147 149 151 155 156 142 141 145 152 145 139 127 116 112 108 123 117 118 121 128 139 145 141 137 146 155 164 171 179 174 178 165 161 131 121 90 93 95 101 104 97 90 88 94 102 103 108 109 120 119 124 125 124 126 125 130 133 143 150 150 149 162 156 148 149 149 142 139 145 142 160 163 150 137 117 114 108 111 112 105 100 90 90 89 98 103 106 112 118 118 123 118 117 116 112 109 125 149 138 131 122 120 120 125 118 117 116 112 110 101 104 100 99 98 103 103 110 110 109 103 95 98 97 101 101 106 106 110 106 104 100 99 98 97 97 91 95 106 105 101 98 98 106 109 105 107 112 115 117 114 111 111 109 112 118 118 112 98 88 83 86 88 94 96 93 87 92 96 104 105 95 89 94 95 84 88 78 95 91 89 84 87 86 93 90 88 91 96 96 99 99 95 101 92 94 98 97 91 86 88 89 83 86 89 76 89 98 104 94 94 97 94 93 104 107 108 126 122 125 133 135 128 121 111 110 118 109 112 114 117 104 113 108 103 96 95 97 95 100 113 107 101 102 105 106 103 97 103 118 115 105 109 125 132 126 113 110 108 112 112 119 125 121 124 128 126 127 125 132 135 137 137 131 126 129 129 131 128 129 134 148 137 127 129 128 133 137 124 128 130 122 113 112 124 122 114 111 111 123 114 113 109 101 104 107 112 117 125 116 115 112 113 116 111 117 126 122 128 123 117 127 128 141 129 130 135 136 135 129 126 132 134 135 138 131 129 138 140 134 129 127 126 132 136 135 129 126 136 131 128 129 127 128 132 142 134 129 127 122 129 135 132 134 146 144 127 119 112 117 127 132 132 142 153 160 155 158 162 154 158 158 150 157 164 154 150 156 151 151 149 148 153 156 151 152 149 151 142 138 127 120 121 121 125 135 135 140 136 128 121 121 124 119 114 109 138 144 161 164 158 152 158 161 158 148 146 135 133 146 146 157 159 166 163 163 163 168 169 168 159 158 155 156 155 149 147 143 149 147 148 143 141 131 133 134 133 139 141 148 152 156 151 150
148 153 154 153 151 162 160 160 162 174 162 166 170 177 179 170 173 171 149 132 120 104 110 109 105 111 127 134 144 141 126 147 162 157 149 164 165 154 157 160 160 160 142 157 117 82 80 80 82 95 99 106 99 95 90 96 107 109 123 120 133 129 141 159 150 133 133 127 132 166 166 164 126 112 105 107 107 107 104 103 91 88 91 94 96 97 99 100 100 94 93 90 93 94 93 92 93 93 105 109 106 105 110 117 113 104 104 114 117 113 106 104 112 112 103 109 104 115 114 112 114 106 102 93 92 80 81 82 83 84 95 98 103 101 106 112 129 132 130 125 111 110 110 104 100 94 93 107 116 115 110 115 119 112 97 96 99 105 109 104 100 107 107 108 110 115 121 128 130 132 118 103 102 103 114 123 109 105 112 109 112 113 112 104 106 100 102 110 127 126 118 114 120 131 126 120 109 113 112 112 115 112 113 108 105 74 123 94 113 109 114 119 120 125 113 128 110 105 101 101 100 105 117 107 99 110 112 111 108 103 102 104 104 99 105 114 128 122 120 126 135 132 128 130 115 114 132 106 101 107 104 103 110 118 116 126 120 127 125 113 108 99 91 97 93 91 84 85 86 88 106 132 137 136 125 130 135 131 137 136 128 125 124 116 114 106 107 113 118 124 110 112 127 121 119 119 111 106 129 151 142 127 130 131 131 119 123 125 130 127 119 133 131 140 138 140 133 128 111 105 90 98 101 101 96 106 122 130 132 136 123 126 123 133 115 107 114 120 105 114 114 113 124 107 138 135 118 114 114 106 116 119 123 123 130 109 118 127 113 102 105 107 132 135 134 132 134 132 135 142 144 139 135 136 136 141 128 134 140 136 129 135 151 152 163 164 151 149 137 128 129 149 149 159 156 147 147 134 136 144 151 152 157 158 150 148 164 165 134 130 136 142 140 138 137 128 128 117 118 119 118 114 111 109 116 108 126 139 153 146 139 141 143 135 134 122 120 135 137 130 140 142 156 156 182 182 174 173 161 162 162 151 152 146 143 128 128 128 130 140 160 160 158 156 158 158 159 160 153 148 148 151 148 147 147 145 141 147 150 150
121 120 122 127 120 134 120 132 117 120 117 116 119 112 115 115 123 127 124 124 125 125 130 141 142 144 144 147 147 148 141 139 129 128 115 112 100 105 99 102 100 98 96 96 98 102 110 113 125 123 119 120 132 140 139 149 151 157 163 145 144 155 152 145 144 143 140 123 114 108 111 106 111 108 101 99 107 109 111 117 128 125 112 105 114 103 96 92 92 98 100 100 97 103 110 109 105 111 119 118 120 114 107 100 99 96 94 94 96 93 94 102 111 109 113 110 112 112 102 107 111 118 122 118 118 125 134 130 144 149 135 127 139 137 129 134 126 118 108 97 97 100 107 108 109 113 126 128 137 139 134 131 122 121 112 108 113 95 111 119 131 132 113 120 133 151 138 127 125 121 117 112 114 121 125 122 122 124 128 130 130 135 133 130 127 125 123 124 128 135 133 142 149 130 135 129 129 134 131 128 123 122 120 120 123 124 121 116 122 121 115 123 119 117 117 125 123 116 121 134 131 131 128 115 111 112 115 108 102 112 110 98 94 106 111 97 98 105 103 92 97 111 93 94 94 102 100 113 112 106 101 95 102 111 110 99 96 108 112 116 110 119 105 98 104 105 100 106 100 95 94 90 90 88 91 102 97 115 116 112 129 129 128 131 133 127 131 126 121 126 121 114 114 126 128 133 121 116 111 111 108 104 107 104 97 101 109 100 101 94 98 101 107 111 117 129 126 115 123 121 125 118 121 128 124 119 122 114 110 119 119 131 127 132 135 132 139 140 136 132 140 141 130 120 115 112 110 115 116 114 113 114 113 122 125 120 135 133 126 126 122 117 112 108 115 129 128 124 112 123 120 119 121 121 119 122 124 120 127 127 120 119 124 127 128 134 142 141 147 155 161 144 140 142 147 153 148 146 156 162 169 180 164 169 178 164 169 167 156 161 170 165 163 154 165 172 163 174 157 149 139 133 129 136 135 128 122 129 131 129 132 136 143 150 150 153 148 158 147 145 145 146 146 153 157 148 158 154 151 153 141 145 140 139 144 144 153 150 159 156 164 161 161 151 152 142 154 142 142 139 151 155 157 152 155 141 140 146 151 146
123 120 136 141 136 122 122 113 111 112 138 136 133 132 131 136 138 145 145 143 141 138 131 129 117 117 107 110 110 110 104 100 102 101 99 96 94 92 95 98 110 110 110 122 124 127 108 126 150 133 143 138 128 133 144 141 133 137 138 144 133 123 124 118 107 110 109 102 111 107 97 97 96 109 117 119 120 113 97 98 102 104 97 91 105 110 109 122 116 114 111 124 125 109 129 138 151 137 116 102 103 96 99 97 101 110 126 111 116 133 136 118 108 104 101 105 120 120 120 122 110 125 138 131 123 119 105 88 93 94 97 88 90 103 97 98 93 103 107 109 114 115 115 105 108 110 105 110 115 107 104 97 99 101 99 96 101 98 106 107 111 107 103 98 86 91 86 86 92 95 98 91 101 99 101 100 98 92 91 102 109 114 133 142 128 114 146 152 123 115 117 122 116 105 150 119 132 126 114 119 117 144 116 112 113 106 112 120 108 111 110 113 116 116 119 133 131 160 142 123 129 123 122 137 137 123 93 93 99 118 97 111 100 84 87 79 73 76 85 97 100 106 111 110 103 113 105 92 93 96 98 91 93 102 97 90 100 100 97 89 92 95 94 104 109 109 124 116 106 97 91 90 97 95 87 103 115 105 100 93 90 89 102 110 99 97 103 107 105 107 99 94 94 97 96 91 96 104 106 106 119 129 132 127 135 125 122 127 130 117 128 136 129 120 102 96 100 126 131 125 126 115 113 110 117 131 133 132 124 127 119 118 124 124 128 125 129 129 123 104 101 105 99 99 101 111 120 126 140 137 132 128 125 120 113 105 103 99 101 120 132 144 136 113 102 101 101 105 104 113 108 109 115 123 120 110 114 110 113 107 105 110 130 126 121 122 122 124 130 129 130 117 128 125 130 130 124 134 132 133 130 122 126 127 128 128 105 109 120 125 139 129 129 136 132 125 126 126 137 142 147 146 155 159 157 146 124 123 120 128 133 138 139 152 155 153 153 153 140 138 123 121 120 115 115 120 121 123 122 122 132 133 132 133 134 132 140 144 143 165 161 150 151 145 150 149 142 144 166 170 169 161 156 148 147 150 146 142 145 144
124 126 118 120 131 140 142 150 151 149 142 125 140 130 130 133 127 136 150 132 126 121 108 105 108 108 111 111 108 104 113 120 126 130 124 130 148 140 121 125 122 126 129 133 137 145 162 158 159 162 164 149 149 131 113 115 111 107 105 106 109 105 101 102 104 101 99 103 111 127 127 130 128 123 104 105 99 95 95 109 111 111 124 133 128 126 121 116 113 114 124 127 132 129 123 114 108 110 109 113 122 123 133 128 128 124 121 101 101 104 104 104 114 117 115 106 96 88 85 84 91 86 85 80 87 85 83 93 97 99 102 112 111 111 113 110 114 103 100 99 92 87 97 112 110 114 113 120 110 110 118 108 115 114 109 129 129 134 117 107 102 95 99 94 94 98 98 102 99 83 80 84 88 88 94 89 81 93 95 96 96 107 108 108 108 107 105 97 94 95 101 103 104 113 110 102 99 98 96 96 88 85 96 105 113 110 105 101 105 101 99 104 104 106 116 112 125 129 128 121 119 111 102 103 103 96 94 99 100 98 99 100 103 107 107 106 102 95 92 89 86 89 94 96 114 116 116 119 119 124 135 137 131 136 133 132 142 141 136 133 132 121 111 94 102 107 111 113 103 116 107 94 91 90 91 87 91 86 84 83 83 82 84 85 93 95 91 96 98 91 92 92 92 98 96 94 98 98 92 96 94 85 86 83 82 91 85 91 99 99 102 106 108 102 100 106 108 107 116 121 111 111 104 95 93 88 96 99 100 108 117 118 108 100 103 97 95 94 91 95 92 95 91 91 93 95 105 99 100 108 116 107 105 111 116 118 116 115 118 115 114 114 111 113 123 132 140 139 131 123 114 107 104 102 102 109 113 114 111 111 108 107 99 105 98 98 101 104 105 108 101 100 97 95 99 106 121 128 109 108 102 106 102 106 109 119 117 124 119 124 122 124 133 137 133 131 129 135 137 141 131 126 119 115 116 119 117 120 127 130 133 134 121 128 118 130 130 141 146 145 146 153 149 149 142 130 125 115 120 133 128 124 122 120 113 111 110 111 118 117 114 106 109 114 114 112 112 120 119 118 108 110 119 134 134 137 143 132 125 123
158 168 161 171 170 142 115 110 120 113 113 98 98 104 98 93 97 106 106 113 106 98 105 113 129 118 119 110 117 124 128 132 128 135 140 143 137 137 124 129 125 108 107 101 108 107 116 120 127 104 98 85 87 88 106 115 113 113 112 115 120 119 118 118 119 118 101 98 93 92 96 106 113 113 112 113 114 113 114 114 120 130 129 132 141 132 136 138 126 128 138 136 103 105 109 110 110 106 101 98 91 89 89 89 90 91 91 107 107 103 99 97 90 94 103 105 105 110 110 79 87 99 102 109 108 128 125 125 126 132 126 110 105 108 88 96 100 104 114 130 127 132 118 111 108 117 112 117 140 139 120 107 107 110 96 80 73 79 89 92 95 96 96 116 101 96 96 89 78 82 75 74 93 91 93 90 93 91 82 81 83 86 93 93 87 86 88 98 99 93 125 122 114 111 100 93 94 93 99 109 109 102 101 99 106 115 117 114 108 110 131 135 118 114 118 120 121 119 122 115 115 100 95 103 109 110 105 103 105 95 92 96 100 101 107 115 126 124 118 129 129 114 112 106 110 107 133 141 126 113 117 126 129 121 119 129 120 121 116 114 107 105 100 102 100 98 96 102 101 97 101 110 108 100 99 108 95 107 99 95 95 100 88 84 87 96 102 90 91 88 92 92 101 88 92 81 85 92 96 90 97 94 90 85 99 95 97 108 103 91 97 104 108 101 103 94 111 140 124 115 118 121 108 113 116 102 110 103 98 101 103 107 133 120 95 91 119 127 112 130 116 115 111 107 103 104 102 94 99 95 92 82 79 77 79 80 83 84 86 85 83 80 78 80 84 81 94 101 122 120 109 104 108 109 107 101 98 97 109 113 98 97 95 91 87 97 96 92 93 97 122 118 108 102 88 87 92 112 118 127 134 129 115 112 120 123 123 113 104 102 101 100 103 132 134 124 115 131 134 132 138 140 133 119 116 107 121 127 131 131 112 102 100 93 91 88 99 94 93 94 113 143 138 140 139 130 138 143 142 139 135 131 112 115 124 138 144 135 134 126 115 110 121 123 127 133 125 116 114 109 107 99 104 97 107 108 111 117 135 144
113 112 107 103 103 109 108 108 112 116 117 121 117 130 133 131 130 120 115 111 120 110 111 121 123 118 123 109 112 108 118 114 105 104 103 107 113 116 119 124 125 124 119 120 114 116 105 109 112 119 128 129 127 127 135 139 139 116 113 97 98 97 96 102 106 103 119 112 116 112 119 121 126 138 151 152 153 153 135 127 133 138 123 118 114 113 107 100 100 98 101 103 102 99 96 100 103 106 120 110 126 130 121 121 116 119 108 107 95 89 88 89 91 92 101 113 117 131 136 133 126 122 122 115 111 103 103 100 98 104 115 112 112 117 118 114 110 114 113 123 120 112 124 129 121 124 126 118 111 109 100 99 101 99 102 98 100 99 98 94 95 108 102 93 105 98 99 103 109 118 119 113 118 118 117 116 118 109 111 117 120 111 116 118 118 122 118 121 125 133 132 118 123 125 128 122 124 116 117 116 111 104 101 103 104 99 96 103 104 97 93 97 100 100 105 110 104 99 90 88 90 101 100 99 102 101 98 104 117 125 126 119 124 118 107 113 118 106 104 109 113 117 108 104 104 106 108 98 102 105 92 92 96 85 91 84 81 87 79 77 82 91 94 91 98 89 89 91 92 101 114 112 105 101 98 85 93 105 108 105 103 105 109 112 106 103 108 105 94 88 99 98 104 94 86 84 89 90 90 96 102 99 95 97 95 92 97 94 97 97 103 97 103 99 102 101 113 122 119 116 121 122 121 120 130 137 126 116 113 117 111 112 122 126 126 118 124 125 125 123 123 121 119 113 109 108 109 113 116 115 110 109 112 118 116 117 118 113 112 109 104 104 102 101 98 97 95 95 85 85 88 97 101 102 99 108 96 96 108 111 109 120 118 122 125 125 126 114 95 101 100 105 108 114 106 105 104 107 98 101 100 100 105 103 104 105 108 117 126 132 132 119 124 137 138 131 134 138 149 152 157 168 166 156 154 161 157 151 151 146 133 140 135 135 140 131 127 127 119 116 111 107 110 118 125 136 148 149 148 145 155 162 164 169 163 155 149 147 151 152 155 153 147 142 138 130 121 127 124 126 129 135 129 130 126 123 124 115 119 114
111 111 109 105 106 108 105 99 102 95 93 95 97 98 98 103 106 105 98 97 96 97 97 96 96 100 95 96 95 92 87 91 87 89 89 92 98 98 104 106 94 104 103 96 96 99 96 96 91 89 92 99 98 101 105 105 105 104 118 119 115 143 150 149 127 140 155 151 135 126 127 120 116 104 100 104 102 100 101 99 98 96 95 90 87 95 103 100 95 82 81 81 92 96 89 92 94 92 92 93 92 108 124 113 117 109 99 98 95 105 122 137 158 163 124 101 104 95 84 84 93 104 128 125 124 118 116 127 117 105 98 98 93 96 106 105 103 122 116 125 127 116 112 114 106 96 92 91 82 85 88 85 102 102 98 95 85 93 93 94 105 99 107 106 93 92 85 94 95 101 94 102 106 105 104 105 106 96 87 91 76 73 68 65 62 64 70 80 81 82 94 95 91 87 87 83 87 96 98 104 103 103 105 97 105 99 96 108 119 117 111 99 91 90 104 100 91 93 98 94 95 97 95 89 98 97 89 85 88 85 78 91 103 125 117 109 114 113 113 111 109 109 106 104 106 104 101 102 101 90 93 88 85 81 81 81 82 90 97 92 90 86 78 83 89 88 101 103 100 96 93 103 103 107 110 116 109 101 95 90 87 92 98 102 98 94 90 83 84 87 89 87 89 89 84 77 76 91 90 96 97 94 90 85 91 94 93 102 109 103 101 105 113 94 97 97 92 111 124 118 109 119 122 96 94 91 103 108 102 97 95 97 102 108 109 109 106 102 88 106 115 119 118 116 105 104 103 97 95 96 90 83 81 94 103 113 105 105 112 116 123 118 112 92 90 93 101 99 94 91 95 99 95 92 99 111 107 107 102 106 104 109 109 109 113 115 124 123 119 115 104 109 110 109 116 114 107 102 104 113 114 123 116 97 112 113 115 117 96 108 111 128 132 151 127 128 135 135 128 137 150 141 128 128 128 124 150 165 166 164 171 173 156 160 145 143 141 124 131 120 102 116 133 140 134 131 118 119 108 124 127 136 142 140 136 155 169 176 182 173 161 148 163 167 172 171 169 172 166 158 145 156 145 137 134 131 128 120 117 117
111 105 102 96 98 107 113 123 119 118 117 118 120 112 99 100 88 94 92 94 97 104 103 96 96 96 96 92 98 97 104 104 104 103 109 110 108 110 107 110 110 101 102 102 104 109 109 104 109 102 99 99 98 101 104 107 105 104 105 105 104 107 108 107 103 102 102 105 111 106 98 96 100 105 108 100 102 105 100 98 101 106 107 106 102 89 86 93 98 99 105 112 119 122 117 131 129 125 120 118 122 115 112 102 102 113 107 110 111 109 104 102 106 111 114 114 110 109 107 104 103 109 115 106 98 94 86 93 96 94 103 102 96 88 87 95 99 99 95 90 87 87 93 89 86 86 84 80 85 91 90 87 81 92 102 105 105 108 103 100 106 107 91 85 96 105 103 98 103 104 109 106 104 106 101 92 93 86 76 78 82 85 89 91 92 95 92 88 93 97 91 94 99 103 98 98 115 100 105 112 112 118 114 117 113 102 98 96 95 95 91 88 87 85 83 87 83 79 83 83 79 78 78 83 82 78 78 84 86 81 77 74 73 75 82 84 88 98 101 109 107 99 104 100 97 95 91 101 110 106 106 104 95 93 86 86 80 75 72 83 92 95 93 96 97 93 93 91 85 90 94 98 98 104 108 113 108 93 103 111 109 117 111 118 112 103 102 106 102 100 103 96 94 88 87 81 93 96 88 91 91 88 87 90 99 110 113 115 108 112 106 102 112 100 105 104 99 101 95 94 97 107 104 98 105 106 104 103 112 102 105 109 106 105 102 113 112 121 124 114 101 96 112 117 112 116 113 118 129 122 111 110 112 112 107 99 95 100 105 116 124 125 121 115 113 112 113 114 118 121 123 121 118 120 132 118 115 122 125 122 111 109 105 112 126 126 121 123 122 128 140 134 139 133 126 121 125 133 138 128 129 129 126 129 126 131 126 123 127 134 127 116 119 117 118 112 109 108 103 101 99 101 102 114 117 120 120 121 119 123 122 135 136 145 139 133 127 136 142 139 136 139 140 118 120 124 128 128 126 131 127 127 138 137 141 144 158 157 150 140 142 148 137 137 151 155 162 160 160 161 165 161 158 163 167 171 161 154 156 155
132 125 139 153 155 128 108 120 111 107 117 107 97 95 93 96 104 106 113 114 117 108 101 111 106 110 113 106 115 109 102 99 93 100 99 107 100 107 110 111 115 103 108 120 115 91 90 91 94 106 111 99 84 76 79 85 93 90 93 94 97 86 86 93 96 101 108 112 113 104 99 96 93 87 95 102 110 117 104 88 81 76 82 88 89 82 84 87 81 82 82 79 77 84 87 83 82 81 89 92 93 97 100 88 87 90 92 90 88 91 94 87 90 77 82 84 84 87 92 88 85 81 92 98 98 108 93 92 93 97 92 94 95 93 97 102 106 110 105 99 96 90 78 78 81 82 79 92 95 97 101 100 99 80 81 85 92 93 98 98 94 91 93 87 86 88 87 89 81 86 83 80 87 95 97 102 80 78 78 79 85 83 81 84 82 75 67 77 89 82 77 78 78 89 99 87 90 81 86 82 94 95 100 101 99 93 96 101 96 92 84 76 75 75 76 74 77 74 76 80 84 93 94 96 93 86 76 75 87 82 78 76 77 76 78 94 87 86 80 79 84 76 76 87 94 94 92 89 99 106 103 84 83 90 96 86 82 82 91 100 93 80 78 85 70 63 74 69 74 79 77 80 71 73 89 97 94 84 95 113 121 120 119 125 114 111 113 114 105 94 103 110 108 115 113 103 106 106 98 93 97 82 81 87 84 84 86 82 75 76 74 79 79 84 82 86 96 94 94 94 103 89 98 106 102 91 87 88 92 94 101 96 87 86 88 89 90 99 109 109 112 125 128 110 110 114 122 122 130 132 131 153 143 123 112 107 111 106 101 98 98 112 110 117 111 109 111 104 108 109 105 101 101 98 100 106 108 103 97 94 90 96 95 105 109 117 107 106 106 109 122 120 122 128 125 121 135 135 116 123 124 105 104 118 109 113 121 119 117 113 110 98 101 98 100 103 106 106 99 96 110 114 108 109 108 104 97 98 97 94 107 126 126 130 109 121 129 143 142 141 118 118 115 113 112 109 120 126 126 117 104 109 116 111 110 117 115 118 120 120 117 139 137 130 117 122 132 126 140 141 140 148 150 161 151 143 146 152 158 162
94 97 92 100 99 97 97 92 88 89 87 97 100 100 98 96 93 91 86 89 86 91 92 91 87 88 90 96 99 95 95 101 99 101 101 102 100 95 104 105 105 101 95 92 95 97 97 92 91 93 92 91 96 96 92 99 105 108 107 103 112 120 115 111 105 106 118 107 100 93 89 87 91 93 88 81 82 77 76 76 79 85 88 88 99 100 100 103 105 99 98 98 95 99 101 106 101 104 101 95 103 97 108 135 123 115 115 116 115 108 105 102 99 105 110 114 124 127 131 126 118 112 106 82 87 91 95 95 97 101 114 114 116 115 124 118 108 86 80 82 85 84 95 93 89 91 88 91 88 81 85 92 88 91 114 117 107 104 101 100 97 91 94 90 89 95 93 94 90 87 83 86 85 81 82 89 86 86 86 87 93 97 104 108 107 112 112 104 107 109 107 111 109 100 100 93 93 92 85 94 94 102 103 97 97 93 88 92 94 87 90 93 103 105 92 91 95 92 95 92 83 84 85 95 96 96 99 100 111 112 98 106 107 106 101 98 97 91 88 90 93 97 92 90 86 83 84 88 90 90 91 95 100 101 106 102 105 107 110 104 92 84 87 88 86 85 85 84 80 78 81 76 77 77 74 77 88 88 91 91 94 89 95 100 105 109 96 99 105 103 103 103 100 104 104 106 114 112 123 121 130 126 124 129 132 118 120 134 128 124 120 113 106 96 91 98 95 97 100 110 106 115 129 120 111 113 116 110 109 103 98 95 100 101 95 90 93 94 86 85 90 96 95 100 111 111 105 107 115 117 117 116 120 129 125 127 118 122 126 105 107 110 114 111 112 111 108 116 117 115 114 114 110 105 104 116 123 114 109 106 117 119 118 115 123 126 115 112 113 111 105 109 107 107 111 107 106 110 106 107 106 101 99 94 84 83 88 100 102 107 130 136 147 140 128 130 136 125 119 117 126 131 129 122 117 115 115 112 108 104 105 108 103 97 94 91 89 103 105 108 108 107 107 108 103 91 94 97 90 87 93 99 104 104 101 102 94 94 96 90 99 98 105 110 105 104 109 112 111 116 118 117 113 112 107 115 119 132 137 140
99 102 98 89 88 79 88 90 87 79 87 86 84 92 89 90 94 95 98 102 101 101 107 114 123 110 110 103 96 96 98 96 95 99 95 94 100 96 90 89 89 86 86 87 96 99 98 84 83 91 89 90 108 114 113 108 103 96 103 113 115 108 121 130 115 101 83 81 80 85 88 86 76 72 70 79 85 92 126 108 102 104 89 90 88 97 95 81 77 81 80 84 90 81 91 93 106 105 100 92 105 104 104 116 111 106 102 109 110 104 106 122 117 99 82 81 81 76 68 73 87 94 105 96 99 108 114 128 129 125 116 101 98 94 82 80 88 95 93 86 88 90 91 92 88 81 85 89 90 92 89 91 93 84 84 95 74 75 91 97 102 101 101 92 84 83 85 81 85 89 94 87 81 81 86 82 88 96 98 105 116 123 124 124 123 117 110 107 105 104 88 95 98 108 110 111 115 98 94 92 86 89 94 97 99 101 99 91 81 87 91 89 90 92 89 85 89 109 121 120 117 110 113 127 122 103 102 120 114 109 98 88 92 101 97 101 98 98 88 100 102 90 88 85 81 95 100 100 93 86 81 96 104 108 115 98 90 90 84 81 83 76 72 83 79 79 87 86 90 89 85 79 77 77 75 77 73 77 86 92 93 95 98 104 120 130 135 130 136 115 108 118 117 121 117 120 126 116 112 106 104 109 106 110 124 120 144 149 128 127 137 131 128 116 133 126 109 103 95 97 93 104 105 120 115 98 94 100 106 128 119 111 116 114 111 122 106 111 125 125 120 119 99 87 87 98 119 114 104 104 104 115 137 144 149 145 127 123 114 110 116 113 113 117 119 120 116 114 110 102 96 114 114 134 137 132 123 127 132 132 135 137 135 131 130 130 125 126 116 105 120 119 119 112 112 126 130 133 121 109 107 121 127 125 122 123 125 121 108 96 94 101 107 117 135 142 160 140 136 133 129 135 130 141 147 134 138 133 110 114 132 155 157 124 116 118 120 126 118 114 109 107 111 107 115 115 117 114 109 115 131 130 125 113 99 99 98 91 98 91 91 92 99 100 97 101 93 98 102 98 92 100 109 115 132 117 120 127 128 122
95 93 93 93 92 94 101 102 99 90 91 98 104 108 106 109 110 116 108 115 120 119 113 111 104 100 97 95 103 108 102 104 104 104 96 93 98 98 93 92 95 102 96 102 108 104 105 104 102 105 113 109 106 108 109 129 130 129 115 116 109 101 90 89 91 79 89 91 85 95 109 115 119 117 112 101 97 98 111 111 105 112 104 96 102 103 100 105 107 110 118 113 112 115 116 107 97 90 106 116 110 108 113 116 117 121 117 114 93 100 102 86 89 94 99 95 95 98 100 107 109 105 111 111 106 120 113 118 105 118 121 103 92 84 77 78 78 75 78 78 80 83 86 89 92 91 97 101 93 92 86 83 88 88 86 92 97 104 99 93 91 86 82 84 89 96 96 97 103 105 102 104 113 119 120 121 120 117 120 112 104 100 92 95 93 103 105 100 99 93 93 93 101 100 97 82 75 78 84 92 90 93 84 84 84 76 86 87 91 99 95 93 94 91 93 98 100 93 90 88 93 87 86 86 88 74 71 77 77 73 69 70 71 72 72 79 73 67 61 68 72 75 69 75 86 90 85 77 78 88 96 95 91 96 93 89 91 92 91 94 89 90 91 83 84 85 82 87 98 100 98 91 86 81 86 83 89 90 84 79 74 80 87 107 101 107 114 118 128 136 127 126 121 111 106 108 107 107 107 125 134 127 121 128 121 102 100 98 89 97 108 105 110 104 111 104 93 93 86 77 81 82 87 93 97 105 106 109 106 104 109 105 111 113 106 106 108 118 111 98 95 105 106 106 109 105 94 94 102 100 102 104 97 90 98 96 101 102 91 88 98 107 117 111 108 119 121 124 127 127 125 118 117 109 108 108 115 123 122 119 118 128 107 120 122 120 121 116 120 115 113 104 100 100 97 99 102 109 113 119 121 116 120 122 120 114 110 107 107 109 105 99 104 106 107 104 107 115 129 136 141 142 129 125 131 136 140 154 138 134 130 128 127 127 135 143 143 137 123 119 117 118 125 145 146 142 141 140 136 139 133 128 114 119 120 124 129 130 130 129 117 110 104 104 106 102 106 97 98 99 99 112 116 113 102 95 101 110 124 129
92 93 98 115 114 114 132 120 118 126 127 123 109 117 114 109 97 110 115 115 109 105 106 120 117 110 109 101 103 103 100 100 105 126 115 111 113 137 143 148 151 132 109 109 110 129 137 141 139 146 159 159 164 156 154 146 142 104 95 85 90 93 87 81 84 88 96 101 104 83 77 84 88 88 81 83 86 83 82 91 98 105 107 116 97 101 107 99 108 129 142 143 135 129 127 127 134 151 143 138 165 157 151 113 87 93 94 90 85 85 85 88 86 89 90 91 91 90 91 89 89 89 89 84 82 82 87 89 91 94 86 94 100 104 103 111 111 120 121 107 122 120 118 108 103 113 111 106 107 104 94 92 89 94 98 105 106 99 88 85 91 100 100 109 115 111 108 97 100 97 98 106 101 94 90 86 91 95 94 96 96 100 96 96 108 103 96 107 108 100 106 83 84 84 91 89 88 85 81 77 74 73 72 72 74 75 84 87 87 87 90 93 82 88 93 86 83 89 87 92 86 89 84 80 78 76 78 78 87 88 92 90 83 73 72 73 77 96 98 103 107 99 82 86 95 89 90 92 89 89 89 90 89 89 89 90 98 112 104 99 101 101 99 102 106 111 105 85 78 100 121 131 128 118 110 94 88 85 82 84 79 69 60 61 54 50 56 72 79 87 99 110 107 97 104 97 92 103 108 101 100 102 102 103 97 91 95 102 100 92 87 85 83 80 82 75 73 77 76 76 90 84 82 87 86 93 95 86 99 106 104 106 110 108 117 122 127 112 99 100 104 100 102 105 100 101 106 113 106 97 103 94 96 96 92 101 111 109 108 125 121 114 112 114 120 124 119 116 131 135 132 121 124 122 120 110 112 114 143 127 124 146 134 140 146 138 141 141 139 131 127 122 111 122 130 135 120 112 113 115 112 108 106 117 117 115 113 111 106 85 94 97 83 88 85 81 85 84 77 84 88 105 138 147 144 131 129 126 120 119 121 135 147 148 142 136 128 141 155 149 135 135 135 141 131 121 130 131 134 148 135 135 151 154 155 155 145 144 137 142 136 132 127 128 133 126 122 130 132 132 134 111 106 105 104 106 115 114 118 120
129 131 135 126 126 128 112 115 106 107 108 110 112 116 116 117 112 106 93 96 102 100 101 105 109 116 123 130 117 121 124 121 110 107 114 131 123 122 116 114 115 125 130 137 150 150 146 144 145 146 146 121 118 93 81 82 84 85 83 84 86 98 96 93 92 91 76 73 75 81 75 82 103 102 104 100 102 104 117 127 120 104 121 134 135 138 126 128 122 123 125 125 115 128 119 116 114 114 114 103 100 91 88 85 81 83 85 84 83 84 82 88 95 97 100 97 94 84 82 82 82 83 84 81 82 90 95 104 101 88 86 83 95 99 99 104 108 113 105 117 109 99 111 114 108 104 97 94 92 103 112 102 105 99 89 85 84 85 85 94 95 96 95 97 96 92 98 97 92 92 89 86 83 86 88 88 85 83 84 86 82 75 79 79 82 84 84 84 90 87 82 82 77 75 69 71 75 77 77 84 82 81 84 85 94 99 91 90 85 85 87 88 97 96 93 98 88 94 82 76 68 69 70 77 82 74 80 82 86 78 79 83 83 83 86 75 83 76 76 78 82 84 84 92 99 96 91 82 81 89 87 86 79 87 84 81 88 87 97 91 101 90 104 129 113 98 99 98 82 97 109 104 106 105 95 79 75 70 72 66 64 63 62 64 68 71 73 72 67 65 68 70 68 72 73 78 87 90 90 82 79 79 81 86 94 100 102 100 101 108 98 95 91 91 89 80 74 78 78 83 87 88 90 86 81 82 82 79 73 77 78 83 84 88 90 97 104 106 96 99 105 110 111 109 104 108 115 107 95 94 94 95 93 96 94 93 97 98 97 93 92 90 91 88 84 89 98 99 105 118 114 118 108 104 109 117 128 127 113 107 114 117 113 115 122 108 100 99 104 111 116 128 131 117 118 120 109 112 119 128 118 110 111 101 95 97 102 94 88 86 89 90 89 83 81 84 85 82 82 88 91 93 97 99 117 127 128 138 137 138 137 132 127 117 122 133 143 154 149 131 129 133 138 142 135 124 119 115 112 117 121 134 150 156 149 147 144 138 145 155 164 152 153 158 160 152 152 159 156 153 152 141 145 145 145 145 145 139 136 133
97 101 110 101 113 118 107 114 111 105 95 98 89 102 106 112 111 117 116 136 144 136 140 140 113 110 108 117 132 149 143 146 143 131 133 121 111 110 128 132 151 146 125 123 122 125 112 98 84 82 74 74 70 70 70 71 91 96 94 75 70 69 70 74 77 78 84 84 93 92 90 87 91 90 91 100 101 101 91 82 79 86 102 105 94 99 100 100 93 89 84 73 81 91 100 93 87 89 95 95 90 89 88 92 91 92 94 128 134 116 107 104 93 72 74 81 78 78 73 80 86 94 92 92 93 93 95 96 90 88 90 107 114 104 101 91 88 85 78 81 86 85 81 79 79 80 87 104 114 112 103 99 91 87 90 90 89 94 100 103 100 91 93 103 115 111 97 93 96 95 77 76 80 81 80 83 79 79 86 90 91 91 91 90 84 73 71 69 70 72 74 71 71 78 82 82 95 81 71 76 75 75 77 77 71 85 95 85 69 68 69 73 73 67 62 61 59 59 69 76 81 97 95 85 79 72 79 78 77 75 74 76 83 79 79 81 81 82 81 71 73 77 72 67 65 62 69 80 82 86 88 87 84 77 76 82 91 91 87 86 85 73 82 85 88 77 76 71 70 65 64 64 68 70 80 74 70 68 85 82 94 96 91 93 85 78 74 73 69 72 70 69 77 77 74 74 71 69 74 81 81 88 90 94 95 98 96 96 92 108 97 98 104 99 104 98 87 91 84 74 72 67 75 66 73 74 73 74 84 91 94 82 84 82 79 80 80 77 75 71 68 84 82 74 75 77 79 84 92 89 89 93 97 98 92 92 85 82 82 91 108 105 108 102 103 101 98 87 84 91 88 89 94 104 101 100 94 85 107 112 105 104 103 104 106 107 113 119 126 115 137 149 125 128 115 116 123 115 96 94 96 110 113 116 115 104 101 101 115 117 115 114 103 96 94 97 100 90 99 100 97 91 85 85 88 90 92 98 99 101 107 110 110 126 128 128 129 148 149 146 138 138 139 136 141 145 145 127 116 115 112 111 113 111 109 103 121 124 130 137 142 145 135 134 135 130 120 126 136 136 136 122 123 124 121 134 124 129 131 109
108 110 109 112 115 118 116 115 114 122 122 124 138 135 125 118 117 115 109 113 120 124 126 130 141 141 141 127 123 113 101 103 109 109 108 109 103 101 99 95 94 93 94 88 78 73 72 72 81 77 75 80 81 80 73 72 73 73 74 75 78 88 93 94 84 88 92 97 106 103 102 93 83 86 86 92 96 96 89 90 86 83 81 84 90 95 103 106 102 97 95 96 96 94 95 101 93 90 87 81 85 94 82 82 78 77 74 75 73 73 72 70 79 85 86 91 81 86 90 103 105 101 100 110 111 101 92 81 76 74 79 81 76 74 76 76 76 86 88 88 85 81 85 100 85 85 83 81 76 76 82 86 85 76 82 81 80 83 90 94 92 87 82 87 86 80 81 85 85 85 86 84 84 83 84 78 76 74 73 83 79 78 82 80 82 87 74 80 77 77 69 69 70 70 69 69 76 71 69 71 71 72 71 66 72 60 58 57 58 60 60 62 61 66 70 69 72 73 74 79 81 74 74 72 69 73 76 79 85 85 84 94 94 84 86 90 95 88 71 71 89 101 99 99 95 99 96 91 89 85 86 79 81 83 78 75 80 87 97 88 85 79 73 75 70 72 70 69 69 65 66 69 71 70 69 70 70 69 70 74 82 84 79 77 77 77 77 83 80 71 70 72 74 73 73 74 71 69 66 67 62 64 70 63 59 59 68 76 90 105 101 106 103 101 111 105 97 91 87 90 91 85 82 79 76 76 74 74 69 75 76 73 75 85 90 91 78 77 77 85 89 86 77 78 76 82 81 79 80 82 87 94 91 92 97 96 93 93 97 95 104 101 94 84 86 84 93 98 99 103 101 102 104 109 107 102 96 103 110 127 130 108 104 104 106 112 110 125 130 122 116 117 115 112 112 102 103 105 116 123 124 109 99 96 102 109 112 111 122 122 121 122 126 123 130 130 122 117 109 101 98 93 92 96 92 90 98 90 88 95 95 96 100 96 92 100 95 88 94 109 120 124 128 133 119 136 134 142 149 155 149 137 119 133 127 126 123 128 131 131 133 135 145 143 142 142 142 142 143 136 132 138 141 141 153 147 146 137 132 123
118 109 116 123 118 110 129 126 117 124 114 114 131 142 148 148 151 153 144 139 150 146 134 131 123 111 99 98 97 89 94 110 110 104 94 79 76 79 82 87 84 83 75 69 60 60 63 71 71 68 70 70 66 67 69 72 83 88 86 79 76 82 91 101 130 113 106 105 108 110 112 117 122 140 128 109 91 91 95 104 110 115 117 121 125 127 116 100 101 97 88 99 94 87 88 93 98 95 96 92 87 82 79 83 84 82 81 84 96 95 95 84 86 89 105 104 102 94 95 108 94 94 88 85 90 95 94 84 95 110 118 118 107 106 100 101 102 88 78 77 92 92 89 90 96 100 91 100 98 93 102 109 102 107 103 87 88 86 84 92 93 94 98 99 102 103 92 85 81 75 83 80 79 77 72 72 69 71 62 65 67 66 73 71 71 72 75 70 60 63 74 80 82 77 82 81 90 88 86 95 89 92 97 84 84 74 82 96 99 95 96 100 94 87 85 86 91 91 80 76 75 82 88 94 93 92 91 95 93 79 82 90 104 99 91 91 98 111 108 112 97 86 86 83 80 82 83 84 83 81 83 87 76 69 63 82 92 87 75 80 76 80 76 80 79 85 82 84 83 81 70 63 62 68 63 68 79 78 77 80 78 85 87 92 90 83 91 90 82 83 83 87 93 93 82 78 75 65 66 65 66 66 67 74 90 74 63 62 66 69 82 88 98 91 109 102 98 114 117 116 114 110 111 107 99 109 104 84 84 80 77 82 80 75 84 85 89 92 88 96 98 93 96 114 106 99 84 90 85 98 80 76 81 83 94 95 99 101 107 119 119 122 116 98 94 102 95 91 95 93 104 110 111 116 106 113 106 97 96 92 85 105 97 96 108 102 101 98 114 108 111 123 115 124 139 137 129 131 126 125 121 116 118 124 117 121 123 103 98 90 77 79 82 100 107 112 109 109 108 100 103 117 144 134 125 116 118 118 109 107 102 92 93 96 103 101 95 107 109 115 97 99 106 102 101 97 98 100 110 105 113 138 161 174 156 148 146 149 140 138 127 133 139 127 101 118 141 166 165 159 157 155 152 144 145 150 145 141 149 156
143 132 124 132 136 136 134 127 140 135 136 124 119 110 117 119 120 123 117 113 101 96 95 83 79 76 74 76 83 84 82 79 76 75 81 92 98 96 83 80 70 70 76 79 80 80 81 81 86 90 80 96 108 108 102 93 88 100 102 110 122 123 119 121 120 107 103 107 108 105 100 96 99 100 101 103 110 113 112 117 120 116 108 98 96 96 94 91 85 85 90 91 90 92 96 95 93 87 83 81 80 80 76 75 73 81 85 88 91 92 93 92 88 88 94 105 102 98 98 95 91 91 90 94 102 102 95 93 80 75 81 84 89 85 82 78 83 89 94 86 91 94 101 90 87 91 94 82 77 79 77 71 76 79 80 81 86 87 82 82 82 85 80 76 71 71 71 73 72 74 73 71 71 76 76 74 70 71 73 72 70 68 64 66 65 65 66 77 77 75 83 84 77 62 61 61 61 64 66 67 65 65 65 67 74 78 83 79 76 73 74 79 76 74 79 78 79 84 84 88 88 88 86 89 88 87 89 84 82 74 75 75 76 79 74 73 69 75 72 72 81 86 92 94 81 92 97 91 85 88 91 91 94 100 100 99 88 91 103 98 97 99 90 97 100 103 102 101 98 94 93 105 98 92 84 83 80 92 91 88 73 73 78 78 77 77 74 80 80 73 72 74 77 72 76 75 80 85 88 87 83 72 71 69 69 68 68 67 69 68 66 66 68 67 75 83 83 108 115 115 109 112 114 108 107 107 103 111 112 120 102 97 97 99 103 101 89 86 82 82 82 79 84 89 95 94 96 98 94 88 89 89 91 87 87 89 86 84 82 88 78 87 92 96 101 99 93 96 89 92 92 92 83 87 97 100 104 104 98 98 97 95 94 98 92 90 87 88 87 82 79 80 81 86 89 112 109 109 105 114 116 116 119 118 130 135 126 125 128 138 132 114 109 95 95 90 87 85 91 95 99 100 94 88 88 83 80 81 78 87 96 100 106 106 101 100 99 102 95 95 106 111 110 107 97 95 99 98 98 103 102 100 97 98 99 107 111 109 95 100 109 101 101 100 109 110 112 109 109 108 121 132 143 155 156 148 142 139 131 134
108 115 112 96 93 92 96 91 91 78 75 81 71 72 76 75 78 85 90 85 73 60 67 74 77 84 87 87 83 80 78 85 93 104 97 84 66 62 76 79 79 96 92 94 105 111 111 118 124 131 114 104 100 108 117 124 125 143 148 135 112 98 97 101 97 94 81 85 87 102 118 121 132 131 132 129 125 113 105 100 95 93 88 80 78 84 88 92 95 85 83 97 96 89 83 86 91 91 87 82 86 93 98 91 90 98 99 94 92 97 121 148 150 121 102 97 86 84 82 80 80 84 82 77 75 73 72 77 79 87 100 101 91 96 98 91 87 91 87 92 93 90 82 81 81 81 79 75 80 82 80 78 78 83 85 84 88 77 78 78 73 74 76 91 93 87 85 84 84 86 81 85 82 92 95 93 95 94 91 75 74 75 69 75 74 88 104 103 92 88 88 76 75 78 84 82 82 77 67 68 68 69 68 70 68 64 64 64 62 60 85 95 94 88 88 91 95 89 89 83 89 89 84 82 84 87 80 77 76 75 76 79 81 93 98 92 97 90 84 78 91 91 93 94 90 79 78 84 72 80 90 69 73 61 65 58 58 60 61 61 59 55 67 74 78 80 94 114 123 123 122 110 102 107 108 101 87 92 90 88 90 79 77 82 84 77 74 74 85 95 96 102 101 101 91 87 88 78 79 90 90 83 88 79 78 74 73 69 66 70 66 62 63 72 75 76 71 78 73 82 79 105 117 113 116 115 108 102 100 101 111 107 95 93 85 93 92 97 94 118 108 103 101 97 90 101 101 94 91 97 88 89 85 88 96 100 103 92 94 86 88 82 82 84 83 84 84 86 85 84 88 95 94 91 88 86 94 86 88 94 106 95 91 96 100 94 95 105 98 87 89 83 79 81 85 87 89 91 99 101 103 108 132 124 126 108 108 148 151 142 151 160 147 130 122 111 133 139 128 124 132 124 99 106 114 113 120 119 114 105 91 102 98 88 92 105 106 95 98 104 103 99 92 95 126 130 132 115 105 100 94 94 98 100 96 86 88 87 84 95 102 104 107 107 95 99 102 93 96 103 81 83 88 95 95 104 100 103 118 124
74 72 74 69 65 64 65 67 69 69 70 76 80 84 85 84 78 73 70 76 78 83 85 84 84 82 85 93 93 97 95 92 91 90 86 82 80 84 86 89 95 97 98 98 99 100 103 103 107 106 100 105 105 116 117 125 123 113 118 118 116 110 100 102 104 111 116 119 115 113 104 96 95 100 96 91 86 84 88 89 90 89 82 90 92 86 87 88 86 88 84 82 86 83 88 85 87 79 85 90 97 92 96 101 101 99 107 100 95 95 92 97 102 102 108 111 106 105 103 106 108 101 87 79 83 85 85 84 87 90 82 78 80 76 67 64 66 72 77 88 87 81 81 71 70 71 72 77 76 78 80 82 81 82 81 85 86 77 73 69 77 76 73 71 71 67 67 71 66 68 68 65 66 63 69 66 62 68 76 77 77 79 91 89 83 77 75 75 74 73 76 75 72 73 79 80 81 76 73 74 77 84 74 67 66 64 68 70 70 76 89 96 92 84 94 97 92 92 96 87 86 82 85 78 82 90 101 109 101 99 100 98 94 95 100 98 87 86 85 76 74 72 66 64 74 74 65 69 70 67 74 74 73 66 69 73 68 65 62 72 69 74 65 62 62 64 68 68 66 73 69 64 66 70 63 68 72 69 75 77 86 86 76 70 71 66 72 75 82 80 89 79 79 84 85 84 90 95 92 89 88 93 98 99 97 100 91 85 84 79 75 72 70 74 73 68 62 69 67 70 79 74 68 67 75 102 106 118 130 114 104 101 91 93 94 91 90 95 99 103 108 107 100 98 92 98 111 113 111 104 107 100 90 94 92 91 103 120 124 113 114 114 118 115 109 104 101 101 95 95 96 83 77 80 90 92 93 89 85 87 91 90 91 100 106 113 130 125 122 123 120 114 114 106 101 94 85 83 79 78 80 81 82 85 94 91 99 94 95 105 123 142 153 173 179 169 150 140 127 105 109 124 143 141 141 143 134 125 127 128 134 133 113 115 113 102 97 99 98 100 105 108 103 103 98 92 107 112 119 128 133 114 109 110 106 108 109 113 115 107 99 104 93 97 112 110 109 102 94 93 100 99 100 101 100 98 94 95 102 109
72 65 64 62 65 68 71 99 102 107 88 79 75 71 73 91 85 80 86 87 85 79 76 97 96 92 92 92 87 83 81 80 83 92 100 98 109 113 116 99 87 94 93 83 84 89 84 79 73 97 91 86 101 88 78 89 83 84 82 87 97 101 107 109 101 102 110 114 95 86 100 105 97 91 89 89 92 92 76 81 83 78 80 77 82 77 76 74 80 81 78 80 89 110 112 100 102 112 107 87 102 101 102 93 102 89 78 72 84 86 85 84 78 102 94 89 86 85 111 105 87 78 78 90 88 81 85 84 80 82 89 87 86 88 86 98 105 101 88 71 67 70 85 79 90 93 81 77 76 73 85 90 97 81 69 72 70 66 68 59 62 67 58 66 60 55 55 65 63 63 78 82 83 74 62 59 62 64 62 73 78 74 73 71 71 66 63 63 61 65 69 68 69 63 74 77 78 81 83 82 78 83 81 90 81 81 89 88 89 95 99 99 100 99 97 93 99 94 87 87 91 89 100 107 101 101 97 86 94 88 102 101 101 92 91 80 75 68 76 79 76 74 75 80 76 75 71 68 71 69 72 72 73 70 73 69 70 67 66 71 78 77 68 70 71 68 69 71 64 64 69 74 80 77 71 70 73 69 69 69 75 78 72 83 84 87 85 71 70 73 70 78 84 94 108 106 101 97 93 106 94 96 100 100 104 87 84 88 86 91 98 90 86 84 79 79 72 61 66 76 65 80 81 66 62 58 56 58 69 93 113 93 94 111 123 109 110 104 103 92 89 90 101 96 88 86 82 76 81 105 125 125 123 115 115 117 107 110 110 112 135 136 136 137 135 131 126 117 109 111 114 111 108 90 87 88 79 76 72 79 88 92 93 86 85 89 101 113 128 131 125 114 109 105 101 108 94 93 95 89 80 78 85 87 81 82 84 94 94 97 87 86 85 100 114 107 110 116 135 140 138 136 135 109 104 112 107 105 105 100 97 106 111 115 96 98 120 116 113 114 110 94 101 125 117 115 115 114 115 116 104 105 119 124 117 118 120 117 117 99 95 110 113 107 105 94 100 102 93 93 90 110 108 103 97 95 96 113 104 100
77 76 80 87 89 87 85 84 85 80 85 91 89 85 82 83 87 88 97 101 95 95 96 93 92 101 95 96 92 91 87 88 87 89 91 95 84 79 75 76 73 72 74 72 67 67 73 78 79 83 93 99 99 90 85 92 105 117 120 106 96 92 84 76 79 78 78 85 86 84 75 71 71 67 75 79 79 84 84 88 88 79 77 74 75 81 96 104 102 93 91 80 79 77 68 64 66 63 65 68 69 72 72 71 76 81 88 89 88 83 85 86 89 93 92 84 78 71 64 66 67 71 68 70 65 66 66 65 67 65 61 60 61 60 73 77 83 83 79 75 75 70 74 72 80 70 71 69 72 72 74 72 69 65 64 54 57 59 57 54 54 57 53 55 59 68 65 68 68 66 70 66 67 69 74 87 89 85 80 77 74 74 76 71 73 70 83 86 76 72 72 71 72 80 77 75 79 77 75 79 84 86 82 91 94 94 89 96 104 104 99 101 100 95 93 89 88 86 91 94 100 104 90 87 87 84 76 75 80 83 82 79 74 69 68 69 68 69 67 63 62 62 59 57 61 70 77 84 84 76 73 76 80 74 71 75 73 82 81 80 84 83 79 78 67 66 66 67 63 70 65 61 61 63 74 75 80 78 81 76 75 71 81 81 78 80 77 78 84 86 78 77 77 74 69 71 74 72 71 74 74 75 85 81 69 75 75 72 71 74 71 81 81 73 73 70 71 72 73 75 80 67 67 69 66 63 68 62 59 51 55 52 54 57 59 68 70 72 75 76 80 87 86 77 87 82 81 81 83 97 86 83 94 107 98 96 94 91 86 80 82 84 84 93 93 86 93 99 102 104 107 123 114 112 110 102 101 100 99 92 91 84 77 65 69 59 60 61 63 71 75 83 91 112 118 118 116 108 101 96 94 91 90 89 89 88 88 90 90 92 96 93 90 87 86 85 79 80 77 87 100 105 118 118 98 99 101 124 120 122 119 108 90 90 87 88 89 93 102 108 120 114 104 98 98 108 107 104 101 101 110 114 116 119 121 130 124 127 128 134 127 123 115 105 100 102 98 89 87 88 87 89 89 102 97 90 91 96 95 93
108 106 95 92 86 87 92 92 96 105 99 94 97 109 115 122 113 101 86 106 117 123 118 100 100 93 110 110 119 117 97 99 113 96 91 81 72 71 75 82 78 79 74 82 83 94 103 96 102 92 82 100 105 106 104 100 95 95 95 97 96 97 86 84 86 80 89 88 87 93 100 116 95 103 96 84 77 83 85 90 94 107 108 110 113 101 92 85 75 77 76 68 66 68 72 76 86 86 83 85 81 85 82 90 98 86 76 91 94 92 91 89 87 82 75 73 73 80 82 80 73 76 77 74 76 68 73 73 74 73 73 85 78 94 103 94 89 88 87 84 89 90 89 78 78 77 70 68 62 64 59 59 64 69 73 69 75 72 64 70 76 69 64 73 69 69 74 79 76 72 71 74 74 80 93 93 83 81 81 86 86 88 75 75 75 87 88 79 83 79 77 82 83 76 81 76 81 91 85 86 92 97 102 97 99 99 95 79 90 90 93 91 90 88 95 102 98 90 93 89 81 85 98 100 93 101 94 93 68 54 54 50 52 52 53 61 62 53 60 65 73 77 74 72 66 72 74 73 72 73 74 83 97 95 100 96 90 98 108 104 95 95 88 98 99 98 97 85 74 72 83 80 80 81 77 75 74 68 68 72 89 105 100 89 86 85 102 97 100 96 84 74 71 84 82 78 70 78 82 81 79 76 74 73 75 74 75 80 68 70 69 65 62 59 60 68 75 77 82 81 86 98 97 94 86 90 89 91 83 76 77 68 64 66 68 60 64 66 75 74 73 78 76 76 82 80 77 73 72 64 68 74 76 76 70 68 78 87 89 80 79 70 67 85 85 84 92 91 85 82 84 98 99 101 101 103 95 96 95 94 100 85 84 89 90 90 90 83 69 70 76 68 66 68 76 73 100 109 113 108 102 101 107 100 86 91 96 91 88 91 92 103 106 103 91 84 95 96 91 91 87 86 86 92 101 107 104 100 98 105 117 126 122 134 132 123 102 102 94 88 88 95 100 101 96 97 99 99 94 105 126 114 103 100 109 108 105 100 106 111 120 122 133 139 142 138 128 115 119 119 120 125 116 106 95 110 116 107 101 98
80 82 89 92 106 108 110 101 97 95 96 114 122 124 116 128 136 137 131 108 104 109 112 109 105 98 94 91 88 97 105 100 97 92 94 97 102 101 113 108 109 120 128 124 122 119 114 115 126 125 121 117 109 105 103 99 92 92 89 86 82 70 76 75 87 86 83 81 82 80 76 73 77 80 82 83 96 88 95 92 95 93 100 101 105 120 114 98 86 80 79 76 72 76 81 73 75 78 77 75 77 76 73 73 75 82 83 84 83 87 93 88 79 69 70 72 70 65 63 61 68 70 72 72 75 78 80 83 92 99 104 104 105 88 86 89 86 88 89 77 70 71 68 66 67 65 62 62 65 68 67 65 66 69 70 67 70 79 81 88 86 80 81 83 80 77 80 85 85 81 90 91 82 81 81 80 71 71 81 81 78 80 79 67 60 68 79 81 83 77 68 69 79 74 78 81 86 78 77 77 76 85 81 79 85 88 91 86 88 90 92 82 74 74 73 74 79 85 86 76 76 82 79 73 61 60 55 56 57 59 61 64 66 70 74 75 70 73 67 70 75 89 84 80 82 78 75 74 68 66 63 69 77 81 80 79 83 85 89 85 81 80 86 88 87 96 105 112 99 91 84 89 87 83 86 83 81 85 87 88 91 87 82 85 91 93 90 103 106 100 100 104 99 81 74 78 75 74 78 76 82 83 79 76 76 73 78 84 75 72 76 74 85 92 88 88 87 83 85 86 90 82 73 75 77 78 78 75 77 89 98 103 104 106 106 105 99 96 98 98 89 92 89 91 85 88 80 82 79 79 79 78 78 79 75 76 78 77 83 89 90 86 84 87 86 88 88 85 82 82 79 73 68 64 77 95 101 108 115 106 97 103 111 112 118 115 115 111 108 115 106 97 92 83 81 74 74 74 80 90 110 107 102 97 94 94 94 99 98 95 95 99 99 103 112 101 105 116 106 95 93 89 84 85 86 90 93 100 106 116 107 101 97 105 107 123 135 144 147 137 136 134 134 131 135 136 121 127 131 115 115 118 117 120 117 113 108 108 106 103 99 104 109 118 132 137 145 145 156 152 146 140 133 129 128 124 126 114 114 110
113 109 120 112 123 118 103 100 103 117 115 107 123 128 119 117 104 90 92 93 93 94 93 94 92 88 94 91 92 80 75 99 102 96 90 89 88 85 86 90 96 106 113 118 120 117 126 129 98 97 100 99 87 83 82 83 84 94 88 88 98 98 86 82 82 83 78 70 72 83 85 88 89 90 89 86 82 86 97 106 103 99 95 80 71 66 64 66 66 69 75 81 75 71 72 66 62 67 74 82 94 114 134 110 104 116 109 93 90 83 65 61 61 64 70 74 75 82 82 82 88 90 89 92 97 95 88 85 87 90 100 94 84 81 73 72 72 73 72 67 73 72 63 65 65 68 71 70 70 66 63 65 66 78 89 93 98 95 90 83 81 85 92 93 91 83 79 73 65 61 67 62 52 52 67 72 76 79 68 60 56 54 60 64 65 69 74 72 72 72 72 81 92 94 92 94 92 88 93 94 95 92 79 79 81 81 84 81 82 85 84 77 80 80 76 68 66 64 61 66 84 83 65 60 66 68 74 77 80 85 80 82 87 83 71 69 67 63 62 66 65 63 64 66 69 66 71 68 70 87 104 83 78 83 82 74 75 70 69 70 85 81 78 77 77 89 93 100 104 105 97 93 98 89 86 85 87 94 89 91 103 102 104 100 88 87 86 84 83 87 93 84 81 87 89 85 95 83 80 72 74 86 90 86 82 74 71 70 72 73 77 70 71 78 79 76 75 68 70 76 87 92 85 91 91 81 75 69 67 69 68 66 61 79 88 87 85 78 81 80 80 74 71 72 72 67 71 73 76 85 82 82 77 77 84 81 76 74 73 71 79 92 96 87 85 78 83 95 92 88 90 95 94 88 86 77 72 76 76 78 89 98 102 110 110 103 98 97 92 90 89 90 92 98 118 110 100 89 89 86 86 100 101 105 110 111 108 110 104 108 102 92 94 103 113 108 94 92 99 101 103 89 90 102 99 104 99 95 96 93 104 117 127 124 114 97 99 98 94 96 100 103 124 129 140 120 111 125 124 117 112 109 102 97 109 125 135 132 132 122 119 118 108 104 107 107 109 105 91 102 108 132 132 117 138 151 133 131 134 136
131 130 139 143 125 118 114 116 121 112 109 111 104 86 91 96 89 86 84 78 77 83 80 81 77 85 89 92 97 98 89 85 78 74 72 82 82 88 91 94 102 102 91 85 85 92 104 104 98 88 80 85 92 107 106 97 91 90 93 94 91 89 92 99 97 100 98 94 95 97 95 96 103 102 103 95 88 93 93 84 92 80 77 80 85 89 94 96 89 79 78 76 82 93 93 99 100 104 111 109 107 102 94 88 77 75 73 80 71 68 69 74 72 73 71 73 78 81 85 82 81 89 96 102 94 81 78 84 86 81 72 77 71 64 70 73 86 80 70 70 71 71 74 76 74 74 69 73 70 66 71 78 81 76 68 68 65 59 63 70 72 70 72 66 62 59 58 64 68 73 77 83 78 70 75 73 73 77 71 72 74 79 89 91 88 81 83 87 89 86 81 84 89 83 88 84 83 80 78 73 72 68 70 74 73 80 84 89 81 85 90 99 79 73 78 76 73 70 68 69 71 75 76 83 84 84 79 80 76 77 70 69 72 68 75 75 74 72 71 73 74 69 76 72 66 70 78 82 80 87 96 89 82 74 75 86 94 96 101 94 100 110 103 108 99 91 85 93 96 98 113 97 95 101 104 110 112 108 112 113 113 102 85 71 70 62 64 65 65 66 60 62 64 69 69 62 71 84 82 79 76 67 70 71 74 83 80 88 85 78 79 81 81 83 79 76 74 71 70 74 80 78 74 72 78 81 82 90 97 92 84 81 80 73 72 69 67 65 69 70 76 76 74 74 85 83 81 72 74 68 67 65 67 74 74 84 86 96 96 92 86 76 79 83 95 101 89 89 95 102 98 100 106 102 102 101 98 97 99 96 89 88 87 91 86 97 100 102 107 116 118 112 104 103 94 93 95 92 90 85 82 89 86 87 84 84 84 81 80 81 90 87 80 85 85 91 87 86 87 87 94 99 105 99 93 93 91 85 83 94 100 107 104 107 112 113 109 107 109 109 105 106 106 112 116 123 128 114 110 108 113 121 120 126 128 121 118 115 114 113 126 134 139 133 140 140 147 146 134 121 121 105 107 116 111 109 109 113 113 112
131 108 99 97 92 94 102 99 96 93 88 96 99 105 110 93 96 94 94 94 100 95 91 96 94 87 87 85 79 73 72 73 75 78 88 93 100 111 100 92 91 88 94 101 96 92 89 89 93 99 111 117 108 92 93 84 79 74 73 73 71 74 78 81 77 87 95 88 83 96 105 108 117 96 83 77 77 76 75 73 73 72 70 76 78 72 73 80 87 88 81 86 90 73 76 95 98 94 96 82 69 64 69 72 82 85 61 64 73 77 75 78 81 84 82 72 73 73 66 67 73 73 77 74 76 81 73 69 75 74 68 72 75 79 82 81 76 74 82 83 81 76 76 78 85 89 91 93 96 82 82 77 66 65 71 79 82 82 82 79 74 67 66 69 72 76 70 63 64 66 71 71 69 67 65 67 62 64 70 75 86 92 89 98 108 103 94 83 71 63 64 67 73 76 83 83 86 83 79 80 77 78 85 90 87 81 75 72 68 65 62 63 70 77 83 74 79 84 87 82 68 62 55 52 54 51 61 58 59 73 76 78 82 80 79 84 85 88 86 81 77 80 79 84 86 100 99 79 74 79 80 75 84 97 99 102 103 105 103 93 87 91 96 104 98 96 80 72 73 78 84 89 93 94 81 82 90 91 87 75 71 74 78 78 83 91 86 82 80 70 67 68 69 71 61 60 66 62 58 67 69 68 69 67 80 90 85 80 78 80 76 76 75 70 66 69 72 76 76 80 80 87 83 87 88 87 86 79 76 74 76 72 75 65 59 57 61 66 60 61 55 58 60 60 56 60 70 83 84 83 79 80 77 66 67 62 55 50 54 56 59 67 68 67 69 75 78 87 86 80 85 90 88 86 85 85 81 82 91 87 87 82 81 81 86 89 87 84 79 75 73 80 87 79 80 98 106 99 92 94 95 93 83 81 85 92 91 81 85 84 80 83 79 76 77 78 72 73 86 87 81 86 94 91 89 98 95 88 81 88 79 72 75 78 77 83 82 83 94 92 88 76 78 83 82 83 89 89 101 109 114 110 103 96 95 109 115 120 113 114 115 115 111 107 97 114 124 110 111 134 139 132 126 119 115 114 116 111 109 114
91 96 95 97 95 93 99 99 103 118 104 110 111 100 102 111 105 107 97 105 103 100 111 101 86 88 86 80 82 91 94 109 112 119 103 95 97 101 111 114 109 101 95 94 95 97 100 116 115 113 98 82 69 68 73 78 76 80 84 84 82 78 82 82 91 86 78 74 84 82 71 65 71 73 73 71 73 64 65 67 70 72 74 78 74 76 70 72 73 73 83 82 87 92 93 93 87 79 77 81 85 89 96 98 93 94 104 98 81 81 84 87 90 78 79 84 84 83 83 96 85 76 72 71 67 69 70 76 78 83 81 75 71 67 66 67 68 72 74 75 70 73 81 82 76 83 69 82 74 84 93 81 80 77 71 66 64 64 62 62 58 58 57 66 66 69 68 79 74 73 69 70 65 63 75 75 76 73 73 77 87 93 88 80 72 70 68 79 75 70 77 79 73 70 72 74 71 75 74 83 82 78 81 77 75 72 75 70 64 72 67 63 65 59 77 84 81 83 75 66 66 69 70 66 69 75 78 65 63 67 73 73 75 77 82 83 70 82 85 87 89 80 83 82 84 80 79 77 72 80 80 80 84 100 94 88 78 92 97 102 91 81 73 69 72 70 76 79 76 78 77 79 81 77 77 75 75 74 75 74 72 78 85 88 83 75 76 75 72 83 84 79 79 82 88 90 86 85 82 80 76 72 68 61 66 68 68 76 82 83 84 77 71 71 72 71 77 77 74 72 69 71 69 71 72 69 68 66 65 72 75 77 80 79 77 75 79 81 79 79 80 76 72 76 73 72 69 65 66 72 74 92 94 89 85 73 72 68 65 65 61 63 61 61 60 60 62 65 64 71 70 66 66 67 65 68 68 75 80 86 86 83 82 87 86 88 91 99 95 90 94 89 85 85 83 78 76 77 83 82 84 87 90 92 90 83 82 84 91 94 92 90 93 89 88 88 81 76 76 73 71 69 72 64 69 74 73 75 74 74 75 91 91 86 84 84 86 86 80 79 90 93 83 82 79 84 86 88 86 88 88 95 96 95 100 98 107 100 102 100 105 100 115 111 110 116 123 125 112 113 115 121 120 129 135 140 133 125 136 135
88 91 92 89 82 92 96 99 98 95 93 99 93 98 101 97 96 95 88 82 86 90 95 95 96 94 94 96 108 115 111 109 99 106 115 116 107 101 98 93 119 124 108 121 118 128 114 100 91 90 97 93 98 97 101 103 95 98 96 102 103 94 81 64 64 65 65 66 71 71 65 68 70 64 60 60 61 61 64 67 64 60 61 62 67 67 65 65 72 79 87 92 87 72 70 61 69 76 72 70 68 66 90 83 82 77 89 84 94 86 76 75 72 88 84 89 90 80 81 79 80 77 74 73 75 76 77 74 73 78 72 65 63 60 61 67 66 53 55 57 68 72 84 86 96 89 104 77 65 77 70 69 65 69 67 65 71 75 74 73 72 71 71 70 69 72 76 63 59 68 73 89 77 78 74 70 80 79 91 96 104 93 74 77 77 80 78 89 80 89 85 103 103 102 97 101 96 94 79 65 70 71 69 71 82 81 73 66 61 67 68 66 67 72 69 62 69 62 65 64 76 78 80 88 92 82 71 80 71 74 84 75 71 83 82 82 78 80 97 98 100 96 79 74 85 85 78 74 80 84 85 87 82 85 80 88 86 80 66 64 88 91 99 99 105 85 80 90 84 94 93 91 85 78 74 73 76 66 84 85 76 87 96 96 92 95 90 94 94 91 89 101 104 92 85 85 80 79 79 83 83 80 73 70 76 71 75 69 70 70 71 80 77 87 74 69 75 80 71 69 60 62 64 76 86 85 80 83 87 74 68 65 65 63 63 63 68 70 81 85 82 87 92 99 97 89 90 82 78 84 75 76 79 82 85 86 90 91 91 81 83 83 85 77 71 69 71 68 68 68 68 71 75 86 80 76 68 67 68 73 78 77 72 78 81 90 104 98 91 89 91 91 87 98 91 94 97 100 85 82 76 76 78 71 64 88 92 93 91 79 78 67 74 76 72 74 81 94 91 83 83 84 79 76 82 70 71 91 87 85 86 83 79 76 89 95 95 98 100 104 105 105 109 109 100 90 88 84 90 92 95 105 94 90 95 89 88 87 89 103 104 102 111 133 138 143 125 113 109 114 121 120 125 123 122 115 122 134 146 153
95 98 99 99 92 92 94 92 89 91 85 77 72 74 76 89 93 78 76 75 75 78 81 81 78 84 86 90 95 101 105 115 127 128 123 134 140 138 121 106 97 82 74 69 69 77 72 65 69 68 73 72 70 73 74 74 70 72 76 77 74 72 69 68 67 63 62 62 64 67 69 68 67 67 62 64 63 65 70 66 67 68 69 70 74 77 78 77 75 73 66 71 75 70 78 83 74 67 71 79 77 77 70 68 59 63 64 64 67 68 70 76 72 87 90 86 84 87 82 76 78 78 78 75 67 64 67 65 66 62 63 58 59 60 57 51 51 52 55 58 56 56 55 51 48 52 47 50 51 57 53 48 52 56 61 62 54 50 49 49 55 60 55 54 56 57 62 66 65 61 59 61 65 67 75 72 72 68 75 78 76 80 90 90 91 91 100 111 108 111 95 85 75 74 75 76 75 68 67 74 65 59 55 61 52 51 54 58 54 55 51 53 51 57 56 53 46 48 53 53 55 57 64 67 71 71 76 87 80 79 80 75 71 68 72 72 75 74 67 65 67 73 73 70 69 67 66 70 74 71 75 74 66 71 69 66 62 61 61 56 60 67 64 68 76 79 85 89 99 85 84 80 86 90 90 70 65 66 71 65 63 63 69 68 72 68 82 82 81 86 82 75 71 73 70 70 71 71 71 69 67 73 68 69 72 77 81 74 82 75 82 75 73 75 67 67 76 68 64 70 69 72 69 71 70 67 68 69 68 68 68 68 67 63 61 66 68 64 62 64 71 73 74 79 86 98 104 109 109 93 91 85 92 86 94 95 91 91 87 87 89 93 81 78 70 77 79 81 83 86 85 75 77 74 71 81 88 87 82 77 73 75 86 85 80 81 90 86 94 93 95 88 81 83 83 82 83 82 81 90 93 90 87 89 82 83 84 86 97 97 92 92 89 90 85 96 96 92 95 94 95 101 97 95 103 102 89 87 82 83 88 87 82 86 81 75 72 73 72 74 71 69 72 68 76 82 86 84 85 83 75 78 85 92 92 93 103 102 95 92 92 94 99 98 101 85 82 85 84 93 96 98 94 92 104 114 129 126 123 125
94 94 100 103 112 110 110 103 97 99 110 109 105 94 79 74 70 77 88 81 82 110 101 110 118 125 124 125 115 116 115 104 102 86 81 66 64 60 57 63 72 66 62 62 62 63 69 71 71 73 73 76 75 75 76 73 71 67 66 64 68 67 68 69 80 77 73 76 80 75 72 66 68 68 74 66 73 81 78 70 68 66 69 66 66 71 75 78 77 78 93 83 78 89 99 98 99 103 110 86 74 68 66 77 80 87 81 84 83 85 78 73 77 81 73 73 71 67 68 66 69 65 67 64 59 61 63 66 64 60 58 60 61 64 65 64 57 57 59 58 61 62 62 54 52 49 49 49 45 47 54 59 60 57 60 58 57 56 56 49 61 67 61 60 65 77 76 77 84 92 101 93 79 84 77 78 77 81 66 74 76 65 62 71 71 91 93 101 78 55 63 60 59 59 60 62 53 53 56 58 59 59 65 58 59 50 50 47 51 51 55 53 48 45 51 45 46 47 50 50 45 56 52 52 58 61 63 64 69 71 62 71 66 69 73 65 64 63 60 59 60 51 54 60 59 63 62 61 64 65 66 69 62 62 61 56 54 61 59 52 52 58 60 52 52 51 53 50 49 47 49 52 56 59 60 66 59 60 66 65 61 63 57 55 59 62 57 59 62 72 91 91 95 99 106 106 106 109 98 87 89 97 104 101 96 92 80 82 100 105 101 101 102 98 88 83 71 72 79 87 92 75 73 82 83 91 84 76 79 91 79 69 75 79 75 81 66 65 66 65 67 81 76 67 71 65 75 76 78 87 89 90 89 84 87 96 101 97 83 86 98 97 92 93 113 108 96 85 82 81 78 79 73 73 73 75 70 76 79 78 83 91 83 91 90 85 86 81 85 101 89 90 83 88 89 90 89 84 84 88 89 90 98 90 90 86 85 94 94 90 92 92 90 84 85 81 87 88 105 112 96 89 94 99 102 97 90 85 79 86 89 95 93 81 73 78 80 78 78 82 82 79 86 87 81 77 73 72 89 90 89 88 80 77 78 86 90 91 93 91 90 85 91 109 108 106 106 109 103 100 96 91 79 79 99 107 94 91 91 85
98 100 106 105 105 95 79 74 76 76 73 72 74 76 78 84 94 97 99 108 120 115 116 98 93 97 97 95 85 77 71 70 62 60 63 70 73 79 77 80 83 82 80 81 85 88 77 75 77 74 76 81 76 73 74 69 65 67 69 67 68 72 78 68 61 63 59 62 69 73 74 73 77 82 84 82 73 76 77 81 84 80 76 91 100 86 82 82 86 89 91 81 74 69 71 74 73 78 74 69 70 68 64 68 75 88 71 67 73 76 81 80 82 80 78 70 67 74 69 67 73 72 70 69 67 68 66 60 57 54 57 65 65 56 53 51 55 55 54 54 54 53 54 58 60 59 57 59 57 59 60 56 56 58 57 59 59 65 79 80 74 77 75 68 65 72 74 70 73 77 84 88 96 90 99 101 95 96 90 93 83 80 80 75 76 72 73 73 73 69 67 61 47 49 49 46 48 50 46 52 51 53 54 48 48 52 54 49 50 49 48 42 51 51 51 47 54 55 53 53 47 51 48 52 56 57 55 60 68 68 72 71 67 69 64 69 68 66 72 73 71 70 68 72 83 91 81 76 71 70 73 82 70 61 58 63 65 63 55 54 67 65 62 63 69 63 56 54 51 56 47 48 45 52 54 56 56 50 56 57 59 55 58 59 65 65 56 60 58 61 66 73 83 83 87 83 93 99 116 114 99 91 110 110 93 91 94 95 93 85 86 83 84 97 100 98 91 95 96 102 90 89 89 97 89 94 82 84 87 86 93 92 88 80 76 81 86 86 80 82 72 75 75 81 84 82 79 70 73 79 88 87 81 81 82 83 82 78 75 82 81 85 90 91 103 97 100 101 84 75 79 86 92 87 79 82 92 91 84 79 77 80 74 78 76 82 90 93 89 79 78 83 78 86 85 88 93 82 82 82 82 84 91 91 91 89 85 88 96 92 93 91 88 87 88 82 80 85 89 90 96 101 101 100 93 91 90 98 101 105 96 86 88 84 89 97 98 96 81 77 87 97 102 94 88 89 90 92 99 89 87 90 91 94 95 83 78 86 89 93 95 100 100 93 91 98 105 111 116 121 119 123 108 110 90 85 89 88 88 91
94 77 70 66 67 68 74 70 74 76 76 74 81 85 89 78 87 86 87 83 80 80 84 91 93 76 77 72 72 63 64 68 72 73 76 77 76 85 84 78 77 75 80 73 66 66 63 59 59 56 52 49 53 57 59 62 67 67 73 77 78 68 59 63 69 71 75 82 71 69 72 80 89 78 75 81 79 84 84 97 96 90 92 91 86 96 93 95 87 77 79 82 84 93 74 74 75 66 67 70 73 71 68 71 63 63 66 70 73 72 79 81 77 72 68 76 78 78 85 78 75 76 75 60 55 62 64 67 72 65 67 67 67 72 68 77 69 69 64 64 66 71 68 56 61 64 67 69 61 61 58 57 58 64 71 71 77 72 80 75 78 73 86 77 70 75 64 67 60 64 66 80 85 86 86 84 79 73 77 67 75 95 100 80 82 77 77 72 62 50 55 58 66 76 69 63 60 61 56 58 63 59 66 65 71 70 67 65 60 59 61 57 54 57 54 47 45 46 48 51 57 58 58 65 61 59 56 52 59 61 58 64 63 58 60 58 61 62 69 72 70 65 57 59 59 62 61 61 66 61 56 53 53 53 61 61 61 61 60 61 56 58 58 59 52 51 56 57 56 57 49 45 43 45 55 54 53 51 53 55 59 58 64 61 53 57 66 66 60 57 58 57 62 67 66 65 69 64 63 61 71 86 86 83 84 84 91 87 80 77 90 101 98 96 99 102 118 117 103 90 90 76 80 82 72 66 77 80 79 83 78 78 79 86 87 82 79 85 91 90 89 98 95 80 76 81 85 74 72 65 66 68 74 73 74 84 81 87 84 76 70 65 70 72 72 67 67 65 75 88 97 90 86 81 90 89 87 85 90 92 85 80 75 77 88 79 70 79 91 90 89 97 104 95 89 95 101 106 111 102 93 93 87 84 83 80 83 78 84 96 87 77 81 85 86 78 79 78 80 79 79 83 98 99 119 112 104 94 100 95 84 86 105 103 97 86 84 87 92 101 102 91 82 94 94 95 92 83 85 78 80 77 74 78 79 75 79 83 85 85 87 90 84 86 85 85 82 90 100 127 116 108 92 112 124 121 114 103 105 106
83 82 79 81 85 88 83 81 83 89 88 88 91 92 84 84 82 85 89 87 89 80 75 80 90 82 75 74 72 75 78 82 84 86 90 89 85 83 81 80 86 81 78 64 63 59 58 54 60 65 75 82 85 72 79 85 91 82 64 57 60 61 69 74 76 71 69 74 78 77 72 71 80 85 94 92 88 83 87 88 91 86 82 77 73 72 77 88 91 86 86 82 88 90 76 70 71 74 76 79 83 82 76 68 68 71 71 73 76 71 67 69 71 71 78 73 72 72 75 73 71 77 83 88 85 91 89 74 65 67 69 67 64 69 69 71 68 65 59 55 55 54 53 59 61 62 66 66 67 70 74 77 71 70 68 72 74 76 82 80 83 74 64 65 64 58 60 65 67 74 70 64 66 67 72 72 68 66 73 70 69 72 76 71 75 75 61 62 61 63 59 57 63 69 68 67 73 77 82 76 71 77 79 72 66 63 65 63 56 62 60 56 54 54 51 55 59 57 61 71 71 70 68 63 60 60 59 60 56 49 48 49 45 45 49 51 51 51 50 53 50 50 50 50 49 45 45 45 47 48 54 51 51 57 54 55 56 61 68 65 65 67 74 74 70 71 68 60 58 66 71 68 59 55 58 61 62 66 67 60 55 57 60 62 59 56 56 55 55 62 56 54 57 62 63 67 67 69 75 80 77 80 84 90 93 103 103 97 89 86 85 84 74 82 93 94 92 90 96 108 119 110 99 84 78 79 79 83 83 81 77 74 71 76 78 82 87 85 85 90 99 101 96 86 79 74 77 87 88 83 76 70 75 73 69 72 72 84 90 89 85 83 78 80 85 84 81 82 77 76 83 84 89 86 87 89 92 85 84 85 86 88 96 88 84 85 92 92 97 93 81 84 85 75 79 82 84 89 100 101 98 94 92 90 96 103 93 92 90 86 100 103 105 95 90 93 89 81 82 86 83 85 85 84 87 100 92 89 94 95 97 107 100 100 97 106 107 108 104 101 91 93 99 96 92 84 86 88 88 85 90 93 94 87 81 84 81 73 70 75 79 81 89 86 89 87 85 83 76 89 99 106 96 100 97 100 99 109 100 99
71 69 74 82 84 90 86 86 96 105 92 104 118 121 126 111 101 89 79 84 94 96 92 76 62 66 80 86 85 87 84 89 86 79 75 79 84 87 79 74 59 57 62 64 61 59 68 75 81 78 78 82 89 88 81 72 57 59 60 61 69 75 80 81 84 75 71 73 75 75 81 87 87 88 81 63 65 64 66 65 62 58 58 64 65 67 61 67 75 77 74 77 73 73 71 67 79 86 78 78 67 64 66 76 79 74 77 71 65 66 72 73 71 70 73 68 69 72 62 60 66 67 69 78 85 66 60 67 70 66 70 65 67 71 74 70 62 61 60 60 62 61 59 60 64 68 57 68 76 73 74 82 87 83 89 87 94 86 79 73 71 62 60 74 73 84 90 84 86 82 82 77 73 82 83 85 83 92 88 78 73 69 64 47 45 50 49 52 51 60 60 63 62 64 68 69 65 72 74 74 67 77 68 59 67 81 81 78 67 70 62 61 64 64 73 78 78 79 72 70 70 69 71 73 86 83 74 72 64 55 55 51 49 46 45 45 42 46 50 48 48 50 45 40 47 48 47 45 43 48 51 49 49 50 49 46 47 48 47 47 50 53 61 60 64 70 64 66 67 66 65 67 64 62 57 54 51 56 58 59 55 56 56 60 60 66 68 61 60 65 67 62 53 65 75 76 78 79 81 92 102 100 84 95 97 101 93 88 98 103 107 93 86 78 72 67 69 63 64 57 62 74 70 78 91 93 84 86 78 85 77 74 81 86 78 80 89 98 102 95 87 84 80 76 78 79 77 64 60 59 67 66 69 68 69 73 74 72 77 85 88 90 91 85 75 75 76 75 70 72 71 70 71 67 76 72 67 62 57 61 73 75 84 80 85 74 71 69 63 68 70 63 67 66 66 66 72 68 66 78 84 84 91 99 104 95 90 88 93 95 92 93 92 95 90 90 84 81 92 89 84 79 82 84 90 86 87 100 105 104 104 105 110 111 113 107 120 138 124 115 109 111 98 98 107 100 92 78 80 83 84 74 73 69 90 89 86 84 90 86 78 71 72 78 91 93 91 86 93 87 80 84 95 104 103 103 98 100 106 100
83 85 81 78 93 102 91 87 89 90 90 87 79 76 74 76 81 86 86 73 69 67 71 72 78 77 79 77 76 80 76 76 82 77 76 74 62 58 56 58 58 58 59 60 71 74 77 75 80 85 84 78 65 55 54 52 57 57 64 65 71 73 70 74 80 76 87 86 88 90 88 71 62 60 62 67 80 85 70 74 72 66 67 64 65 65 66 66 59 57 54 58 55 54 63 57 55 60 61 60 60 68 74 70 68 66 66 75 69 66 60 59 57 58 55 55 59 64 59 59 56 52 49 46 47 52 59 62 58 52 59 58 58 59 72 69 67 68 75 74 80 75 79 82 74 64 65 67 77 73 74 75 73 71 75 74 76 73 68 74 80 83 86 90 95 88 95 91 79 72 66 64 61 61 61 52 51 54 57 59 54 50 44 43 44 49 54 49 49 50 59 61 58 57 49 44 41 46 43 47 49 52 62 63 67 65 63 60 56 61 61 63 70 69 62 67 66 63 55 52 54 60 62 60 53 51 52 48 51 57 54 54 55 56 54 56 53 49 46 45 47 53 58 58 55 55 52 51 52 43 46 45 44 42 39 37 37 36 44 47 46 46 47 49 53 56 64 69 70 76 76 74 69 69 71 71 68 66 64 66 69 63 52 59 55 56 62 67 60 60 60 58 56 55 61 63 69 66 65 65 62 60 58 56 54 57 58 60 62 59 54 48 55 60 67 66 66 65 59 54 53 55 55 61 64 64 68 66 68 66 64 64 75 72 64 64 63 60 61 59 55 56 60 54 55 53 55 62 62 61 60 62 61 60 58 59 64 66 75 72 72 71 65 68 81 80 83 81 84 85 95 100 92 88 86 82 81 84 77 72 70 67 72 77 84 74 66 65 68 73 80 76 71 68 67 63 65 63 62 62 67 71 74 74 74 71 77 80 84 85 94 87 83 88 121 119 132 119 116 110 90 88 88 86 88 84 96 101 88 86 88 94 95 95 103 91 84 86 83 83 86 90 90 89 72 81 102 99 87 84 81 81 84 84 83 87 92 94 97 97 98 100 99 97 91 87 83 86 95 94 91 91 90 90 95 95 101 107 112 101
87 81 67 65 66 72 70 70 72 65 58 59 67 73 70 64 57 54 57 61 60 63 69 74 75 76 82 88 81 68 71 65 60 56 57 54 58 61 62 62 66 75 72 77 75 74 73 74 73 64 61 58 54 47 50 60 67 76 79 65 68 75 71 70 73 61 61 64 55 54 51 48 51 51 47 51 52 55 60 63 64 53 59 63 63 62 57 51 50 52 51 55 62 66 64 64 70 70 74 74 72 68 58 56 56 61 63 65 72 70 70 66 68 70 64 56 53 53 53 56 60 49 47 51 51 47 46 48 48 50 52 53 55 60 57 61 69 66 64 64 65 67 79 80 80 80 75 75 82 85 93 97 103 92 76 78 77 68 59 66 73 67 63 66 73 68 55 48 44 49 56 53 56 51 57 52 53 58 54 55 50 48 47 50 56 58 47 49 46 46 46 43 53 52 49 46 41 41 42 44 57 53 55 53 58 60 65 61 59 58 61 64 60 59 58 63 59 57 54 59 57 54 53 59 50 48 49 51 47 47 45 45 53 53 55 55 54 55 55 51 49 51 51 53 62 61 61 62 59 64 60 59 59 63 59 56 54 56 55 53 51 50 45 57 58 65 59 54 67 68 66 63 71 67 69 82 75 76 71 70 73 68 64 58 60 61 56 57 63 62 62 60 54 59 71 58 57 59 58 55 51 49 46 43 49 46 47 46 48 56 56 56 58 59 60 55 61 58 64 58 59 61 56 56 63 70 72 67 67 69 66 62 63 61 65 70 71 70 64 63 60 57 58 59 58 56 57 61 68 76 74 68 66 62 69 72 68 76 72 66 68 66 71 72 71 61 62 69 71 75 80 71 77 76 75 72 73 72 64 61 60 62 60 60 61 67 77 74 73 70 64 76 96 82 80 76 71 69 70 63 63 64 62 64 64 67 67 63 70 70 65 89 100 94 79 94 83 90 85 92 99 95 87 82 76 80 76 70 65 81 77 77 82 74 72 97 110 93 93 90 89 91 95 93 101 94 87 84 78 82 86 92 94 88 79 74 76 74 74 75 83 85 79 94 109 98 106 92 79 82 90 90 90 86 85 87 93 97 102 97
79 85 84 79 68 64 60 59 58 56 61 66 67 65 65 65 67 74 72 77 88 90 90 92 95 82 76 69 66 64 60 62 62 67 67 69 63 61 61 67 70 72 72 69 69 65 58 55 53 52 52 57 64 73 75 77 68 65 67 69 70 68 63 55 56 53 52 49 50 51 50 51 58 61 71 75 75 73 67 67 67 65 60 54 58 56 53 55 57 59 65 70 67 65 69 72 79 80 79 67 66 74 76 84 86 83 77 75 78 105 85 62 58 57 54 56 62 65 67 63 56 55 51 52 50 50 53 60 63 62 65 68 72 71 76 75 68 69 67 74 77 82 83 86 89 82 73 75 72 75 82 84 83 73 72 71 74 80 75 66 75 62 57 56 52 52 56 58 55 56 55 55 66 69 58 60 63 60 54 53 58 57 60 65 61 58 55 51 50 47 44 45 46 47 48 48 47 51 53 57 52 53 53 50 52 59 68 79 71 76 75 65 72 68 65 72 73 74 75 76 70 65 63 68 60 54 53 58 58 63 61 56 53 55 57 53 51 52 50 53 61 61 59 58 63 61 60 66 69 68 73 70 67 62 64 66 62 66 60 57 60 57 50 47 44 54 56 58 65 71 80 90 86 84 70 73 71 73 70 68 66 67 71 71 72 67 66 63 66 70 71 69 67 62 60 55 57 54 53 53 55 52 56 54 53 60 66 60 59 58 54 55 57 57 61 57 59 67 68 68 62 62 59 58 60 60 61 75 72 68 65 70 68 69 73 68 66 68 71 65 66 70 71 76 76 73 75 79 76 69 68 76 78 72 80 86 84 87 93 76 77 78 72 72 70 83 84 78 77 73 70 69 76 82 92 86 79 77 80 80 67 67 65 66 71 69 79 76 80 83 78 74 69 76 80 82 74 67 69 71 70 71 66 66 68 76 73 67 71 67 60 61 67 75 84 87 89 111 121 108 109 107 114 117 113 100 98 96 93 86 81 76 77 79 81 75 73 80 88 99 92 86 92 97 101 102 103 101 102 99 100 96 91 89 87 97 98 101 101 93 94 85 88 90 87 86 83 94 103 92 82 81 79 81 86 85 84 90 97 106
60 59 58 61 60 64 63 60 67 68 79 77 69 69 72 76 75 84 100 91 89 83 76 63 65 65 60 57 59 60 64 73 82 74 64 68 69 67 71 66 68 67 64 71 65 62 68 65 67 68 81 79 80 84 62 58 56 55 55 51 54 57 58 57 56 59 58 59 62 68 76 90 81 72 71 70 62 66 61 51 54 57 59 68 78 67 62 72 67 61 53 62 63 70 76 67 64 58 57 59 63 71 72 71 74 63 58 57 59 59 58 62 65 61 60 56 52 49 50 48 50 55 63 71 72 68 71 75 70 73 72 71 65 54 55 66 68 76 75 80 87 82 76 62 61 72 74 72 71 70 68 75 74 73 76 66 59 61 56 59 60 62 65 52 57 57 63 67 59 67 69 69 70 67 69 73 60 58 50 50 59 62 60 55 53 56 53 55 50 48 53 58 51 51 50 51 55 55 56 52 58 54 55 58 58 49 52 49 60 58 55 62 62 62 63 73 78 74 70 69 63 56 58 61 72 68 68 65 57 63 60 62 72 64 67 71 76 78 68 65 67 72 73 68 68 66 66 69 60 62 70 73 79 89 83 82 77 78 82 91 77 70 66 63 59 67 66 63 61 59 59 56 60 63 65 70 73 71 68 79 73 68 60 73 81 78 82 80 72 73 77 77 82 74 65 62 62 67 72 69 69 78 83 75 85 80 69 77 73 69 67 65 67 67 52 48 57 66 58 53 62 58 65 71 64 59 61 67 66 65 67 71 72 67 67 75 77 76 80 85 79 83 85 84 84 84 81 83 80 75 72 77 75 78 83 76 72 83 88 87 81 82 83 87 83 72 60 70 73 74 76 73 70 68 64 65 63 70 71 73 75 76 74 75 77 73 66 60 71 76 72 77 79 80 79 88 89 87 82 81 77 78 72 58 61 68 67 70 72 70 70 66 62 57 57 67 77 76 76 81 91 93 92 122 127 131 124 130 110 105 93 85 83 96 94 97 92 88 79 82 96 107 100 90 88 88 92 97 107 118 109 103 105 103 100 91 93 89 92 95 92 81 102 89 90 84 84 86 86 83 85 89 83 77 76 74 69 67 66 67
65 68 66 68 72 72 70 80 85 80 77 74 82 81 81 85 87 87 81 80 77 70 67 63 63 63 60 64 65 66 68 69 65 66 71 73 66 70 75 77 75 70 66 64 68 75 75 70 69 69 69 61 54 48 48 53 60 69 70 61 59 60 61 63 64 65 64 71 74 69 66 66 63 63 64 64 62 64 70 84 79 76 68 65 59 57 55 61 61 59 62 67 65 60 66 72 77 75 76 81 71 62 59 55 59 61 67 69 74 69 60 55 56 58 57 56 53 52 56 56 57 55 58 60 69 69 66 63 65 63 56 58 60 56 63 64 63 58 56 58 63 58 62 64 65 65 68 69 71 77 78 73 56 47 47 50 52 56 57 65 75 65 66 73 81 83 74 71 72 80 85 89 83 75 64 62 57 54 57 57 59 60 56 50 50 47 48 54 53 53 54 53 58 61 68 68 66 69 71 69 64 60 60 57 53 50 51 60 57 57 58 66 64 59 60 55 52 51 53 54 55 58 62 61 67 67 59 57 60 61 61 63 62 63 69 69 76 81 74 76 75 68 69 71 65 63 66 71 77 77 62 73 79 89 98 90 88 78 85 85 73 69 84 81 70 73 73 62 56 56 57 65 57 50 54 48 53 58 62 55 64 63 65 82 90 93 90 75 73 65 65 63 56 59 58 59 55 59 61 66 69 66 73 73 60 65 64 66 65 69 65 64 65 67 71 72 65 62 55 54 61 66 69 70 68 65 63 66 66 70 72 77 76 68 70 75 75 73 76 75 77 75 68 60 59 62 61 63 65 65 61 63 65 66 66 66 70 68 60 64 67 73 72 72 78 91 81 78 68 65 59 63 61 65 68 73 73 67 60 60 57 58 57 59 58 57 56 57 61 67 75 80 82 78 78 74 76 89 113 104 87 86 85 80 78 70 72 68 66 65 72 75 73 72 70 64 62 63 63 59 63 67 69 65 65 71 75 88 90 100 108 119 122 108 97 93 93 91 92 88 75 74 79 83 86 83 83 81 77 87 100 110 107 113 118 133 127 125 118 107 108 124 117 116 100 94 87 96 99 97 97 101 102 91 88 87 85 79 73 67
68 79 88 78 81 84 94 87 93 86 82 80 83 84 106 91 84 73 69 76 70 73 71 64 67 67 66 67 72 72 65 62 63 69 79 76 78 77 74 77 75 74 63 72 71 75 66 60 59 57 57 61 74 80 79 83 77 68 62 61 63 63 67 75 71 76 88 79 71 70 66 63 61 65 71 68 63 62 59 62 65 68 71 66 79 78 73 74 70 85 88 72 74 84 83 63 57 57 51 51 59 65 60 61 69 72 71 69 55 53 55 59 54 57 61 53 50 50 56 61 62 67 68 61 63 60 60 58 65 67 61 65 57 52 54 56 56 59 61 63 61 61 70 74 66 72 79 73 69 67 61 51 52 51 60 63 60 66 69 66 60 56 59 63 73 71 72 76 74 77 69 65 66 67 75 71 65 57 57 49 49 49 49 51 45 46 46 45 51 52 50 60 63 71 60 62 61 60 61 63 59 62 65 62 66 70 70 74 66 74 71 64 70 62 61 66 71 66 60 68 68 67 71 64 56 52 58 55 60 67 62 63 75 72 70 73 72 79 80 65 62 65 67 65 75 73 66 64 68 55 61 59 60 52 50 53 64 67 56 58 60 57 42 53 51 47 57 58 54 54 50 49 54 54 54 55 58 59 59 55 60 67 68 71 69 73 63 63 62 55 58 57 55 55 51 54 61 63 59 55 55 57 57 58 63 65 64 63 63 60 61 65 65 64 64 71 76 74 68 65 70 61 60 60 60 64 66 66 71 77 71 70 72 75 77 75 76 77 64 62 74 72 74 75 71 69 73 66 66 70 70 68 67 69 70 67 59 67 71 67 61 58 62 57 57 56 56 57 58 58 55 54 48 51 58 56 69 75 80 66 69 69 69 70 67 63 62 73 71 53 58 63 64 73 94 91 90 112 97 91 87 92 94 92 96 90 82 87 76 81 77 80 86 78 72 69 71 68 70 75 73 70 72 74 75 77 74 74 72 75 75 80 89 102 97 93 81 101 104 101 92 88 83 76 82 83 85 85 89 92 79 78 86 90 93 88 91 94 111 131 128 115 116 119 124 113 119 106 98 102 101 95 103 114 112 101 95 96 100 103
85 89 89 87 91 95 89 83 80 79 78 80 81 82 84 83 80 75 68 67 67 65 68 70 72 72 68 68 67 66 68 70 76 85 88 81 78 73 68 64 66 66 73 68 67 68 66 70 75 80 96 90 72 68 66 70 68 72 73 77 77 78 81 81 78 75 68 63 60 63 65 71 72 68 68 66 74 82 89 94 75 70 71 84 80 93 91 93 78 80 79 79 74 70 65 63 62 58 65 63 69 69 69 69 64 58 54 51 53 52 51 52 52 54 58 59 62 66 65 62 59 58 59 63 72 76 75 80 83 79 82 62 51 58 57 62 66 68 67 73 71 66 72 74 78 78 74 72 65 63 58 48 59 63 62 67 65 60 57 59 65 68 66 63 65 78 78 74 71 64 61 60 58 56 50 55 58 55 55 54 54 54 53 52 52 48 51 59 61 66 66 60 56 54 63 67 61 64 64 60 61 75 81 77 70 77 77 71 67 66 63 63 62 64 67 73 76 81 78 69 67 70 67 60 63 64 75 76 73 64 75 69 59 64 66 67 59 62 60 57 63 71 71 69 64 64 60 47 47 49 49 46 44 43 45 48 47 49 45 43 48 54 53 51 51 54 54 52 54 62 69 71 72 72 67 61 62 61 58 57 61 60 73 66 64 72 68 65 62 62 57 56 58 63 67 70 67 66 69 67 64 60 61 65 68 66 70 66 66 65 64 62 62 61 59 58 64 68 69 64 60 65 60 57 57 65 68 65 59 54 53 55 59 58 62 62 60 64 65 64 62 59 64 71 68 67 68 79 80 78 78 74 80 68 64 63 70 70 69 67 64 59 59 55 55 58 55 55 63 59 59 61 59 55 54 57 60 65 61 64 64 68 81 74 74 73 69 68 68 65 64 59 57 57 60 61 64 69 75 81 88 91 93 92 87 88 89 92 96 99 102 95 88 91 91 91 91 86 81 71 68 71 69 68 63 63 73 71 69 72 76 82 79 76 79 90 94 92 93 99 105 106 105 103 105 103 93 88 87 86 91 88 88 88 91 90 85 79 72 68 65 70 78 77 84 83 77 78 84 86 80 90 100 92 89 91 91 85 81 78
95 93 92 95 92 88 87 84 90 88 93 89 86 76 70 66 66 69 67 70 71 73 69 67 70 74 78 76 79 87 87 97 99 84 89 73 74 77 83 78 75 72 70 76 77 82 96 92 89 77 73 74 77 80 79 74 74 76 71 67 67 74 68 66 70 68 67 74 84 83 81 81 82 85 75 69 72 87 77 67 79 102 111 88 72 77 77 81 74 77 89 85 69 58 61 65 65 70 73 79 69 57 56 55 57 59 56 55 54 58 61 64 66 64 65 65 62 59 56 60 67 77 79 76 72 70 71 69 82 57 68 75 77 82 80 79 82 90 83 71 77 71 77 71 68 67 69 75 76 62 57 57 63 59 61 60 57 52 57 61 60 56 50 52 58 58 57 55 56 58 53 51 60 62 62 56 49 49 53 53 55 49 50 50 57 68 64 61 64 62 58 64 61 54 58 55 56 60 68 69 76 76 66 65 60 65 62 48 56 61 59 57 59 67 74 67 55 56 63 61 52 49 52 56 60 56 54 52 50 54 54 56 57 72 78 62 67 75 64 69 69 68 56 58 58 50 52 58 65 62 56 52 48 46 46 54 51 46 47 53 55 56 55 52 50 53 57 60 63 63 55 60 63 65 72 71 67 68 70 70 73 65 57 54 53 55 62 60 57 56 55 56 59 62 61 61 62 69 76 74 75 74 67 62 61 65 62 63 64 71 72 67 65 57 61 64 63 68 72 75 75 81 84 85 91 75 67 65 71 74 71 69 56 53 49 56 62 65 61 61 61 63 62 70 68 67 74 74 74 72 69 71 64 59 54 52 49 50 54 55 58 64 64 62 54 54 55 49 48 47 48 51 50 54 60 61 62 72 74 76 76 74 66 64 63 62 61 63 60 59 59 73 75 72 69 64 62 58 53 56 61 74 81 89 103 109 108 94 92 95 97 98 98 98 94 80 87 99 101 90 93 80 77 76 76 80 76 69 72 71 71 64 70 71 71 70 73 76 82 92 101 98 99 104 115 107 97 100 101 94 91 95 96 95 94 95 89 87 87 83 75 72 79 82 83 88 96 106 110 97 89 89 89 90 91 90 89 90 85 88
94 88 84 82 82 80 78 80 80 81 81 79 78 73 69 68 74 72 76 75 84 87 98 97 86 79 73 74 81 90 93 91 83 73 72 71 77 80 81 84 90 92 89 93 95 94 86 72 62 64 66 66 71 75 72 66 60 59 61 65 74 71 74 71 62 62 69 74 73 64 60 62 67 68 67 71 75 78 71 75 75 70 71 81 81 79 86 86 75 67 63 62 68 76 67 61 63 56 54 56 55 55 59 55 53 55 59 58 57 56 60 66 59 61 63 60 65 70 66 74 74 65 67 70 70 66 64 65 63 61 65 68 70 73 75 78 80 73 69 73 75 92 83 67 75 75 65 58 53 54 51 53 55 54 62 67 64 68 69 64 65 69 64 66 58 51 57 52 57 60 61 58 52 50 45 46 41 44 45 46 50 61 60 58 56 58 64 68 66 61 67 66 68 67 75 72 67 69 63 61 67 74 71 69 72 62 53 49 51 57 59 57 62 59 62 59 58 56 63 66 68 72 63 64 72 63 71 59 62 65 66 64 65 70 75 73 54 47 52 50 49 48 45 50 61 56 55 55 62 59 60 59 58 60 62 59 51 50 51 51 55 52 59 56 52 57 61 57 64 56 62 56 56 49 57 63 70 66 71 76 67 59 62 65 66 61 60 63 66 62 69 65 58 59 58 59 57 58 60 62 57 54 61 67 61 62 63 67 65 65 64 56 56 58 59 59 59 60 62 68 84 86 75 73 75 69 64 60 64 61 62 66 68 65 61 61 58 59 57 59 69 70 67 67 70 68 69 71 67 67 61 55 58 65 72 73 65 52 49 48 47 51 52 53 59 62 58 56 56 58 64 65 54 50 55 57 49 54 57 64 61 71 73 70 67 70 70 63 62 65 66 62 60 58 65 72 66 64 63 60 57 58 58 59 62 77 87 92 93 89 82 80 83 80 77 66 61 59 63 67 77 87 89 101 90 83 87 88 78 81 79 74 80 80 85 84 79 80 84 81 78 78 80 83 86 97 104 93 87 102 104 101 96 96 99 100 101 102 106 102 102 95 85 79 75 75 75 77 78 76 84 94 93 106 100 92 87 86 85 80
88 77 80 86 87 96 92 84 87 83 78 73 69 71 76 84 89 96 87 84 77 73 70 69 77 87 93 98 96 101 84 75 74 78 86 82 86 88 85 78 84 85 90 78 64 62 67 72 66 68 69 67 72 74 78 78 88 93 99 84 79 74 77 86 85 77 74 68 71 90 94 86 91 89 84 83 79 71 71 72 72 74 76 73 68 69 65 60 60 66 67 60 56 52 52 54 54 56 56 56 52 50 52 57 58 57 57 58 58 64 63 65 64 72 67 70 65 64 69 75 72 68 65 64 59 64 73 73 60 57 67 79 81 74 83 81 82 87 89 85 78 69 75 84 82 71 59 57 51 50 53 55 51 54 50 58 62 58 61 64 66 70 58 54 52 57 61 58 54 48 37 43 39 40 45 45 50 53 58 60 63 66 68 77 70 64 66 70 66 72 76 66 67 89 69 71 60 63 61 66 70 72 73 73 72 63 62 63 60 59 58 57 58 65 71 65 66 57 63 70 65 65 72 73 74 82 80 68 69 79 70 63 58 52 47 43 54 51 49 44 43 45 47 50 51 53 55 53 60 60 62 63 57 60 59 60 59 61 60 56 57 56 50 60 62 59 68 63 63 60 55 51 50 55 59 57 57 66 65 65 69 66 62 56 55 63 67 68 71 70 69 68 64 71 69 59 58 56 56 63 63 62 65 72 73 64 64 61 59 60 66 65 59 58 60 60 62 60 63 65 64 66 71 77 76 75 72 69 65 67 70 70 64 62 66 72 74 73 70 68 72 72 70 70 73 68 66 70 66 64 71 75 72 67 66 66 73 77 71 60 64 61 59 59 59 62 69 74 71 63 61 65 69 67 66 62 63 66 59 59 65 71 76 80 81 83 79 81 82 77 76 77 76 71 67 69 73 75 76 77 79 73 68 68 71 65 63 72 83 86 89 92 104 108 114 121 112 98 93 82 74 72 78 82 84 91 105 101 102 98 93 91 93 74 63 66 67 64 71 82 87 86 83 81 81 82 83 87 87 85 86 88 96 93 90 89 90 93 107 103 107 110 114 116 112 105 97 93 91 91 84 77 76 89 88 100 104 106 98 90
86 98 96 89 78 76 88 89 86 84 79 79 82 85 87 72 78 77 76 76 83 93 88 93 102 94 95 87 73 63 63 80 78 71 86 88 87 87 85 79 68 63 63 63 65 64 66 66 64 68 76 77 79 82 91 95 94 93 95 95 90 79 78 79 85 83 86 92 99 98 97 89 84 88 97 96 79 82 77 70 62 64 58 61 65 60 60 57 56 58 56 55 63 66 58 64 67 72 67 61 64 67 67 62 60 59 63 58 59 60 60 60 60 60 58 60 58 53 54 59 58 60 60 63 72 67 58 58 64 64 68 67 63 71 66 60 64 77 79 71 68 67 67 61 58 56 53 51 54 66 59 62 73 70 65 63 69 79 78 65 65 64 61 54 64 59 43 46 51 43 43 44 51 51 53 53 53 62 65 67 61 48 49 54 58 63 60 57 55 54 67 67 68 68 77 78 84 84 97 79 82 73 61 56 59 61 58 60 62 64 65 56 57 57 63 65 85 85 91 82 74 79 75 63 64 60 56 52 48 44 42 44 44 45 46 41 43 43 43 46 51 53 48 54 54 50 49 48 52 53 53 56 63 63 65 63 61 63 61 60 66 67 61 56 65 63 67 79 86 85 86 85 75 72 69 70 68 64 58 58 65 67 64 54 57 64 67 60 58 59 56 63 68 71 67 64 57 57 53 54 58 69 76 77 74 64 66 72 71 72 73 71 72 69 63 55 59 66 66 57 56 56 55 55 59 56 60 68 76 74 69 66 76 84 99 100 96 86 73 67 70 67 68 79 79 81 83 83 81 81 77 77 77 75 69 67 65 64 67 74 75 75 70 74 74 71 62 64 73 74 76 73 63 65 76 74 73 65 64 65 65 66 57 58 60 70 87 93 89 88 88 92 91 95 91 72 74 72 69 65 68 72 76 82 87 88 76 81 79 82 91 91 92 91 90 94 103 106 108 117 115 108 108 99 104 103 94 98 96 86 85 95 97 103 100 97 91 86 81 87 83 77 71 69 78 73 81 74 68 71 75 80 82 78 79 80 81 81 83 86 84 88 95 105 103 106 105 99 96 101 106 102 105 96 102 99 109 109 119 124
78 80 85 81 75 75 70 65 65 63 61 60 63 72 75 77 70 67 68 68 71 71 68 69 63 59 57 62 64 65 62 65 63 66 74 74 73 60 62 65 58 56 58 50 53 63 71 77 86 93 98 94 85 83 78 83 84 71 79 88 90 86 83 82 82 80 83 85 81 80 79 81 84 65 58 46 45 44 47 50 50 45 43 45 46 49 52 57 61 60 58 63 63 65 72 70 60 66 65 64 61 58 60 61 62 61 62 61 59 57 63 68 69 65 64 68 70 78 74 73 73 70 72 69 68 64 66 75 74 69 70 70 82 79 87 85 78 68 65 63 66 65 67 54 57 50 49 59 63 71 63 61 62 64 61 56 56 62 52 56 51 50 43 40 40 40 38 40 42 43 47 54 61 59 64 65 65 66 67 56 50 52 45 49 58 56 65 78 78 72 76 68 68 79 74 64 58 52 50 51 51 54 58 51 48 55 59 66 55 54 54 63 66 65 66 69 64 57 61 58 47 43 46 46 42 40 42 46 49 42 42 41 42 47 48 50 47 46 55 51 48 49 52 50 55 56 58 57 60 65 70 76 73 73 62 63 60 60 56 57 60 59 55 66 72 59 58 64 66 74 82 91 82 85 87 75 68 64 66 58 57 59 62 63 57 55 57 66 71 65 67 66 61 56 57 59 54 58 58 57 56 48 45 54 57 68 64 68 63 65 67 64 70 70 58 58 53 64 63 53 52 56 67 58 60 60 57 54 54 55 51 51 50 42 41 53 58 58 61 64 70 66 70 70 60 56 77 89 92 86 78 75 70 76 84 80 73 76 66 66 65 65 66 62 61 62 68 74 84 82 88 85 85 79 73 78 81 79 79 83 76 72 81 83 79 61 57 67 69 71 74 77 69 68 62 71 81 79 81 76 72 66 65 63 65 62 62 66 68 70 66 69 72 92 104 87 83 85 89 79 88 91 87 92 98 84 78 80 84 88 90 99 93 87 87 88 97 98 97 90 94 95 87 89 90 93 95 88 89 89 85 78 79 80 81 92 103 90 86 82 92 88 85 80 83 86 92 96 104 100 86 79 80 80 83 85 84 84 80 77
68 67 64 61 63 58 58 58 61 59 55 53 52 54 61 62 62 63 63 63 64 66 66 63 61 60 60 58 56 54 57 56 56 57 55 51 47 46 45 47 48 52 56 60 56 62 65 70 72 69 69 72 69 69 70 64 61 62 70 68 66 71 72 74 72 79 75 73 66 56 55 54 53 49 48 52 49 49 48 46 49 53 54 59 62 59 59 59 59 63 68 74 77 83 84 79 69 57 54 54 58 62 65 73 68 56 59 53 50 52 63 78 77 77 70 71 66 60 59 66 70 75 73 64 66 70 66 75 72 74 75 80 83 93 86 74 78 75 67 63 62 62 60 52 48 49 50 53 56 59 59 58 56 57 61 56 49 49 48 46 47 45 44 39 41 42 42 45 44 52 53 55 58 50 52 56 52 53 51 55 59 57 58 63 61 59 58 56 56 51 54 51 48 45 36 34 32 37 38 40 42 44 41 38 41 42 43 40 42 45 45 43 41 42 42 39 38 34 33 33 36 37 41 40 41 44 49 44 47 45 50 51 45 46 47 45 45 46 51 53 57 77 76 66 64 75 72 65 61 65 56 56 58 59 64 69 67 65 68 60 61 61 57 55 52 55 56 53 55 56 51 48 59 64 54 50 49 52 55 50 54 51 47 46 49 51 51 53 58 66 57 57 61 54 54 53 51 54 60 55 56 58 60 60 58 47 44 50 53 55 60 64 61 55 56 50 51 48 46 40 40 42 48 52 52 50 50 48 44 40 42 44 44 43 44 44 44 42 38 35 46 51 49 45 48 49 49 48 50 56 59 63 66 71 68 75 89 87 81 77 71 69 72 68 63 61 60 59 54 57 68 72 78 91 83 90 90 83 72 75 81 82 82 84 92 91 89 88 76 73 70 69 71 74 82 79 77 78 71 74 78 75 70 73 64 60 60 58 58 61 61 66 68 68 64 71 73 67 64 68 75 74 70 68 68 65 65 66 73 69 69 72 70 77 82 84 87 87 87 86 86 81 104 109 101 97 93 93 94 91 97 96 93 90 87 89 88 90 89 92 91 88 87 91 96 96 93 85 95 103 119 125 114 102 99 101 99 96 96 96
60 59 58 54 50 57 50 47 47 50 54 59 62 48 52 53 55 63 63 57 60 62 60 54 52 50 48 47 51 54 56 54 54 51 48 50 52 55 56 59 64 68 76 77 81 81 76 65 64 65 60 59 54 56 65 60 60 59 58 53 54 51 50 52 51 52 54 56 58 61 65 55 50 50 46 45 47 48 52 58 60 57 54 62 62 47 51 54 60 63 62 62 58 58 58 63 59 57 75 74 68 72 62 55 54 58 55 51 58 56 58 61 58 57 59 61 55 53 61 63 63 65 62 77 79 69 70 71 70 70 61 63 65 65 70 67 74 79 80 74 78 55 50 53 59 51 47 47 47 46 44 44 44 44 44 44 47 46 46 45 50 51 47 52 50 54 51 53 54 68 65 65 64 71 67 67 59 57 53 53 53 59 60 54 47 44 42 41 34 37 38 36 35 37 37 41 35 41 38 40 36 35 35 38 41 36 41 46 50 48 46 44 46 47 44 42 42 47 46 43 38 37 40 45 44 44 44 48 49 49 49 47 47 46 43 42 46 46 45 41 40 42 48 56 60 63 65 67 60 51 54 58 55 53 58 67 71 58 54 55 54 52 51 52 48 42 43 42 44 47 44 38 39 38 38 36 34 33 35 36 45 44 45 48 46 46 47 51 50 55 63 68 67 61 58 49 55 56 61 62 68 62 61 58 51 54 58 59 54 56 54 63 66 61 56 58 60 55 62 51 47 45 45 42 45 45 49 51 50 54 53 45 42 41 40 41 40 38 39 42 43 38 37 34 35 38 34 38 41 39 48 51 51 53 53 48 65 79 84 86 79 76 60 71 69 68 59 59 68 77 67 63 73 72 76 72 66 88 76 73 63 63 63 54 52 54 51 58 70 77 76 78 88 82 79 68 64 66 74 67 70 84 77 75 72 68 63 60 59 59 52 55 56 61 66 73 81 78 82 83 79 73 75 70 73 78 73 76 74 81 81 89 89 87 80 75 72 72 77 89 86 80 75 79 92 93 98 94 97 98 92 94 100 106 115 98 92 88 89 80 84 98 90 90 89 90 88 83 82 83 80 88 111 120 129 119 118 123 121 101
56 52 51 52 51 57 57 61 61 61 57 58 64 72 74 74 70 68 62 57 51 46 50 48 48 52 56 58 56 54 53 55 55 51 56 59 61 68 66 73 70 68 65 63 66 64 61 59 59 60 54 54 54 54 53 54 53 52 56 47 47 48 51 53 52 49 46 45 47 46 44 43 45 47 49 52 54 60 61 62 61 58 58 58 60 63 65 60 61 60 59 67 63 61 58 60 61 63 65 60 54 52 49 45 46 48 51 51 54 53 51 50 55 57 58 59 54 53 54 52 54 52 50 46 48 48 44 46 45 54 52 47 40 47 43 43 42 38 38 38 36 38 41 42 44 46 43 44 47 46 47 49 48 47 43 43 41 43 50 51 45 46 55 54 52 57 61 64 61 56 56 53 55 56 56 54 56 61 59 56 60 46 46 42 39 35 34 32 33 35 35 34 33 33 39 38 37 38 39 35 32 34 36 37 42 42 43 45 45 45 44 43 46 45 38 41 42 37 38 38 42 43 46 48 50 42 39 37 35 36 37 44 52 53 58 57 58 57 65 65 54 49 52 49 53 53 51 48 45 44 45 42 44 43 43 38 37 38 36 39 41 40 46 40 39 41 39 38 41 41 44 41 38 38 37 41 45 48 45 42 43 43 42 40 46 54 58 55 53 48 46 50 47 48 49 51 50 47 44 44 48 48 48 55 55 51 52 55 52 53 54 53 58 53 49 51 53 56 59 63 65 62 55 44 42 43 48 48 53 56 61 61 57 53 49 51 52 57 54 49 49 46 44 46 41 40 43 38 39 38 40 41 42 48 50 49 45 47 58 66 74 83 86 81 73 71 70 72 69 65 68 75 67 66 70 69 68 65 62 65 61 61 58 59 56 52 60 56 55 55 53 54 59 64 71 77 82 79 68 67 65 67 75 78 76 71 78 73 69 71 78 77 67 63 61 59 61 72 79 74 69 75 72 65 62 68 71 60 68 71 69 68 70 71 72 70 75 75 73 72 73 67 63 62 64 63 68 82 80 85 87 90 91 90 90 94 88 85 80 78 77 66 72 72 72 71 72 77 81 70 65 68 71 76 102 107 116 111 113 119
61 63 64 65 66 67 57 52 55 58 61 60 61 60 60 53 54 46 51 52 47 45 53 58 57 54 56 59 62 59 55 53 57 59 61 69 68 75 74 75 76 77 75 77 59 62 65 63 58 56 59 62 60 58 51 67 61 56 51 50 54 56 56 52 50 57 63 60 56 51 51 55 58 58 60 59 62 68 73 71 71 72 77 80 94 94 93 84 95 84 78 79 75 64 72 72 68 66 57 50 46 45 45 45 45 43 47 50 51 48 50 52 55 56 53 48 46 49 49 45 44 39 37 41 41 42 41 43 45 38 37 39 37 36 35 33 33 36 39 38 43 45 41 43 42 44 46 53 56 55 54 50 48 48 49 52 57 62 59 50 54 55 57 59 58 56 61 61 60 63 61 56 55 55 59 61 74 70 50 47 43 37 31 33 33 41 43 39 36 33 32 31 31 33 31 33 34 33 31 32 36 36 37 37 38 41 42 43 44 41 39 45 41 37 36 40 40 43 43 42 40 46 49 43 38 36 33 36 39 41 44 52 51 59 61 52 52 51 49 55 58 54 55 53 51 46 36 35 39 38 44 44 51 53 53 46 39 44 40 44 46 50 48 47 41 42 40 37 36 34 35 37 38 38 40 43 47 51 50 43 45 52 52 49 46 45 46 49 50 53 53 49 49 47 44 46 46 43 51 44 40 38 42 46 48 50 46 47 47 49 51 56 48 48 47 44 47 49 43 43 48 60 63 59 54 52 48 45 40 43 41 51 52 59 61 61 61 55 53 56 62 56 53 53 54 60 58 57 53 45 52 57 53 49 49 51 48 53 54 49 46 56 63 70 87 76 69 70 68 58 51 50 57 67 66 65 64 65 58 54 64 63 58 60 67 66 67 65 65 58 55 55 54 56 57 63 66 68 73 77 73 66 64 65 72 73 74 77 78 72 69 68 72 74 73 67 59 60 61 67 73 67 68 75 83 84 89 82 82 79 77 76 77 77 74 75 82 82 76 70 81 78 77 72 64 64 60 53 66 59 60 75 81 79 85 100 89 82 79 72 75 71 69 64 70 66 62 59 64 65 66 65 62 60 57 51 57 67 79 96
70 65 61 56 61 63 62 65 63 61 63 66 65 64 62 58 61 66 64 63 63 68 64 71 74 69 67 67 62 65 66 75 86 87 89 80 75 74 72 62 59 55 53 56 58 62 59 58 65 64 61 60 59 56 55 51 51 57 69 73 67 62 54 48 49 55 46 46 47 49 52 52 56 56 58 64 66 67 66 68 65 64 63 68 62 57 55 51 52 59 58 56 59 66 59 60 55 44 43 43 44 46 49 53 56 52 49 49 48 52 52 52 58 54 55 45 42 46 48 48 42 42 43 45 48 48 52 54 46 40 42 40 42 37 38 38 42 46 48 50 48 51 46 44 46 52 56 59 49 45 41 43 42 44 43 43 42 44 48 50 51 57 60 56 56 60 59 58 63 54 62 63 63 59 57 46 43 40 36 35 33 33 37 41 37 39 43 44 42 40 43 38 36 36 33 33 35 36 35 36 41 40 42 44 40 37 38 35 35 36 34 36 38 38 34 36 40 38 41 41 41 38 34 33 34 33 34 41 46 50 47 43 41 45 41 41 42 42 49 46 43 38 38 42 43 41 39 42 42 38 40 43 46 52 49 52 52 59 55 50 44 46 44 46 47 44 43 45 49 47 42 41 48 48 45 46 47 48 50 50 50 60 63 64 70 69 65 58 51 48 44 46 53 49 46 52 53 49 50 44 43 45 44 43 39 36 38 39 41 43 44 55 55 54 56 55 55 51 52 50 54 46 55 51 52 48 44 46 47 41 43 43 43 45 48 48 57 66 69 73 71 68 68 68 67 63 61 63 74 79 70 61 61 59 58 64 62 58 51 59 60 64 59 64 70 69 70 64 64 63 63 65 55 53 52 56 59 68 73 71 65 68 69 70 65 69 71 67 67 75 71 75 63 59 58 62 68 73 77 72 65 70 72 71 71 69 64 68 69 69 66 64 60 61 60 52 61 62 58 54 49 50 56 50 50 67 79 71 77 81 76 72 71 72 83 75 69 74 67 63 66 68 69 65 65 71 72 63 59 61 61 56 56 63 65 69 75 91 98 96 90 81 93 87 82 84 77 67 66 67 59 58 61 62 62 53 56 54 52 50
58 66 68 70 70 77 74 72 71 72 69 66 62 58 62 62 60 67 70 75 76 75 67 73 72 69 70 73 78 85 82 79 77 67 69 67 65 60 57 68 71 71 65 54 51 44 54 56 59 56 62 66 67 60 56 55 58 58 57 56 52 52 53 53 59 57 56 58 57 57 59 70 76 72 71 71 73 75 70 69 76 73 68 57 55 58 59 62 60 61 62 60 55 49 46 46 48 49 54 48 42 47 54 55 50 50 53 55 55 59 59 62 59 48 45 46 47 48 44 46 50 54 60 61 61 65 52 41 43 40 39 43 45 47 50 51 48 47 49 54 48 45 45 48 55 57 43 36 39 37 37 44 46 45 45 47 45 43 43 43 41 45 46 50 49 50 52 51 48 49 53 54 44 40 37 34 31 31 35 39 41 42 43 45 44 37 35 38 44 35 41 41 44 43 41 41 38 39 42 47 47 45 46 47 45 39 36 36 29 35 33 32 34 39 43 48 50 45 41 41 39 36 38 41 41 43 41 44 45 43 47 46 42 44 42 41 39 43 41 47 50 47 53 46 50 48 49 53 51 52 52 48 48 44 43 41 44 38 45 50 45 44 48 48 46 47 48 60 57 53 55 51 48 46 51 57 56 55 53 51 55 47 45 50 49 41 41 47 49 46 49 57 53 51 51 54 55 50 41 48 45 49 47 48 47 57 48 44 41 39 40 47 51 52 52 52 60 63 62 65 54 58 61 58 57 56 53 53 49 49 52 55 54 49 46 48 48 45 46 49 53 75 75 76 76 76 76 69 66 60 55 58 69 64 53 51 56 58 56 62 60 58 54 55 59 54 62 69 68 63 64 62 62 65 64 62 51 52 68 69 58 57 57 63 67 74 67 68 74 67 69 72 73 63 63 53 53 54 55 53 69 74 73 69 67 72 70 68 60 59 58 72 59 64 76 79 79 64 61 62 68 75 72 73 64 59 53 52 52 55 59 74 78 79 70 71 72 68 62 65 71 71 66 72 73 68 58 67 62 61 61 64 66 62 54 52 50 50 69 76 81 74 71 71 80 81 84 82 76 76 85 71 73 67 66 64 60 55 53 54
72 71 70 66 66 67 70 68 68 63 67 67 72 75 76 75 72 69 67 71 72 67 64 67 69 66 70 75 78 78 81 85 79 76 67 63 64 69 70 68 69 63 62 66 75 81 80 78 81 78 70 67 65 64 61 66 66 62 59 56 53 57 60 69 73 76 75 90 94 93 94 83 88 85 81 78 73 75 71 77 72 77 65 65 68 68 70 69 65 67 61 54 58 56 56 57 57 62 65 67 65 67 63 49 49 53 56 53 54 57 50 43 42 44 42 45 46 45 49 49 56 59 66 68 63 53 53 50 52 53 54 55 49 52 41 42 42 39 36 35 36 38 39 37 37 39 39 43 47 51 48 49 47 49 49 48 45 50 52 47 48 52 50 47 47 45 45 42 46 50 48 44 41 38 34 33 33 34 35 38 40 40 38 39 38 41 39 38 37 37 40 45 41 49 48 49 51 50 49 51 48 46 50 50 48 47 49 44 39 39 39 40 38 36 35 35 35 36 38 39 40 37 41 39 42 41 42 39 34 32 35 37 43 45 47 46 43 40 41 37 39 41 41 45 53 52 52 55 48 47 45 45 48 46 48 48 43 46 47 49 47 43 40 44 46 43 46 49 54 58 58 66 58 53 51 50 48 52 54 57 52 50 50 46 48 53 56 45 42 42 48 48 45 44 45 50 52 54 56 56 52 53 54 53 51 52 50 49 48 55 53 54 54 57 72 60 64 63 62 64 67 63 70 66 60 59 61 66 55 58 58 56 51 56 57 57 54 51 56 51 49 47 49 49 45 45 52 65 64 75 62 59 53 58 59 60 56 56 58 58 57 57 54 52 46 45 45 50 58 62 61 58 58 55 57 62 58 63 57 61 85 70 74 69 64 67 73 71 70 71 72 61 55 61 68 68 63 56 61 58 55 58 76 76 71 69 72 76 82 77 70 63 60 62 65 65 80 74 75 80 76 72 63 57 65 73 74 61 62 64 62 55 55 57 58 64 65 72 80 81 79 74 73 74 80 78 68 65 69 74 68 67 69 67 65 69 71 68 61 66 64 73 88 92 95 83 75 79 88 95 87 80 80 84 81 74 75 73 69 63
65 72 73 79 79 76 70 67 78 78 74 73 74 65 66 67 76 77 71 73 73 73 73 68 72 72 72 80 87 70 68 60 60 62 62 63 67 71 63 55 65 70 72 71 67 77 89 80 75 73 72 78 76 73 66 67 60 64 76 74 71 69 75 68 68 67 69 69 81 86 85 83 80 77 73 78 79 80 72 60 60 63 69 73 63 60 61 69 66 55 47 46 45 47 50 53 55 56 50 55 49 45 46 49 51 51 54 58 60 54 43 51 48 48 50 52 55 62 60 64 75 70 68 57 57 43 50 48 46 42 39 43 44 46 44 42 36 37 36 37 38 39 43 42 41 39 40 43 43 45 47 46 43 40 41 45 50 52 48 51 50 46 41 44 44 45 44 47 53 48 48 40 41 39 39 37 36 34 38 43 45 46 43 43 42 36 39 39 37 38 36 36 43 44 43 52 54 55 56 52 49 48 45 40 40 41 39 40 39 37 37 40 41 39 38 36 44 48 45 43 44 45 43 39 39 39 45 40 37 39 40 43 44 45 44 47 49 46 46 43 42 37 39 37 42 48 49 50 49 49 52 52 49 45 47 49 49 51 58 56 54 58 52 50 51 52 46 41 50 48 45 43 46 51 51 56 54 49 57 56 58 59 62 57 57 58 63 63 59 57 55 49 44 50 51 52 47 52 58 60 64 53 51 53 49 50 55 57 56 53 50 47 48 45 46 54 75 70 72 74 62 59 62 67 66 66 67 70 69 68 59 60 67 72 71 66 64 61 60 56 52 43 54 46 49 49 49 57 50 49 54 59 66 68 66 64 65 65 65 62 61 58 53 51 50 56 55 51 51 58 62 68 70 67 60 54 60 67 66 63 64 81 91 86 77 72 64 59 59 64 63 68 71 63 57 63 60 58 62 67 71 62 56 59 70 75 74 71 68 64 67 62 60 58 58 55 49 71 80 71 74 79 84 76 71 74 86 94 82 74 68 80 76 75 71 78 78 73 85 68 73 72 70 68 69 72 70 69 67 61 65 61 63 64 62 64 64 69 64 67 62 61 66 74 77 89 89 90 94 87 80 76 86 87 90 88 86 78 83 85
63 59 58 59 64 66 64 62 58 57 61 63 66 78 74 73 71 73 80 79 82 80 78 76 82 80 77 67 69 76 85 80 73 77 79 69 67 79 80 89 78 84 92 94 78 84 79 70 66 69 70 72 73 67 65 83 85 83 74 75 74 79 80 86 86 89 92 94 87 87 81 81 78 73 71 76 75 72 67 65 69 78 77 77 73 63 61 58 55 54 50 47 48 51 50 53 54 49 58 62 61 64 67 75 75 70 68 52 48 48 53 49 60 64 63 55 59 64 67 74 75 67 52 49 44 42 40 41 45 40 46 45 47 42 41 37 39 41 43 54 53 41 39 40 38 41 45 47 52 57 52 53 58 62 63 56 55 56 50 49 49 48 47 50 52 50 52 55 49 47 40 40 43 41 42 45 45 39 40 39 39 37 38 41 42 42 46 44 42 41 43 41 42 41 43 52 55 49 48 45 45 40 39 43 42 39 40 35 37 38 42 42 38 40 40 41 44 46 43 43 44 46 41 39 37 34 50 50 44 41 41 47 44 41 45 47 51 59 55 56 56 50 51 47 47 46 44 37 47 50 53 49 45 42 43 44 41 43 50 50 51 46 47 54 56 55 59 60 63 68 62 65 64 54 56 58 63 80 71 65 61 57 59 54 53 48 48 43 42 45 48 50 51 52 55 47 53 61 67 64 63 71 71 64 66 61 54 51 53 47 46 52 53 52 45 52 55 48 54 47 60 56 48 50 60 65 64 65 68 79 77 83 69 68 67 65 74 76 76 69 61 60 63 66 67 58 54 49 45 44 45 46 50 59 59 73 67 66 60 56 58 58 62 65 60 63 58 57 61 66 68 63 67 77 78 72 68 65 58 56 66 74 74 76 76 75 70 71 66 64 72 73 74 72 66 67 68 63 59 65 61 62 69 71 59 55 57 64 72 70 70 71 72 68 65 67 61 59 55 53 57 65 62 80 95 100 95 91 94 89 83 71 78 79 76 81 78 78 83 96 91 86 87 84 75 77 77 81 81 79 73 69 75 69 66 72 74 73 71 67 67 67 69 68 65 69 70 91 95 90 75 76 75 70 71 77 91 102 96 90
74 72 65 59 60 58 64 62 65 67 59 58 60 60 63 65 65 68 77 82 78 77 86 81 75 76 86 80 77 76 72 77 79 82 94 103 105 97 73 67 65 64 61 72 67 60 63 64 68 65 61 71 73 73 74 65 62 66 72 69 69 74 75 88 85 83 83 70 70 64 62 67 67 80 85 80 67 67 71 76 72 59 60 69 67 67 53 57 50 50 55 57 59 61 54 51 59 63 61 57 43 68 59 46 48 49 48 51 56 59 51 49 51 53 58 60 68 70 61 57 49 38 42 43 43 43 44 39 47 38 33 33 34 35 40 42 45 44 46 44 42 43 45 51 55 54 57 58 56 57 50 50 54 63 64 66 55 48 55 54 44 43 39 45 46 45 37 38 39 34 41 43 44 45 46 40 39 40 35 35 37 34 34 38 40 40 43 51 56 56 60 57 50 48 49 47 48 51 57 52 47 38 40 40 39 40 42 42 39 39 37 35 37 37 36 35 35 33 38 37 35 37 41 46 46 34 39 44 44 48 47 42 39 39 42 43 43 42 41 38 38 36 40 45 44 46 46 47 50 48 53 51 47 47 54 58 58 54 57 55 55 52 48 48 47 47 49 49 59 59 74 83 75 69 61 66 64 68 67 55 53 59 58 57 55 51 50 51 55 53 63 60 55 51 53 52 53 57 56 63 53 51 51 53 54 53 51 53 56 58 59 60 55 62 63 64 58 56 59 57 56 54 54 58 71 68 68 71 75 68 65 69 72 72 66 68 72 77 86 84 84 88 84 91 87 79 77 74 77 71 53 49 51 57 57 52 63 78 78 73 67 66 67 65 63 66 63 57 62 67 67 64 60 61 71 72 74 76 76 71 70 69 80 81 75 73 74 77 77 82 71 64 65 73 67 61 63 65 66 55 53 54 61 53 58 58 59 57 69 73 69 64 62 88 75 69 69 61 56 71 69 58 50 48 58 68 76 82 89 88 92 93 87 84 76 75 76 89 92 92 93 88 85 91 103 112 110 99 89 84 82 84 88 81 73 68 70 76 75 70 71 70 69 64 62 62 65 62 62 74 84 83 96 93 84 77 76 69 66 66
62 68 68 64 73 67 60 61 63 58 63 66 65 62 60 60 58 61 65 63 60 56 67 70 67 68 75 80 82 78 74 78 65 67 60 54 57 62 63 66 71 55 51 56 57 59 53 49 48 56 56 59 49 46 47 52 54 50 51 54 52 58 63 67 71 64 54 55 54 55 57 62 66 60 60 61 55 50 46 47 52 53 48 47 50 54 49 46 46 43 42 42 38 42 49 51 51 46 47 49 51 45 50 51 53 53 51 48 46 45 54 55 53 50 49 54 47 40 36 33 31 28 28 28 29 32 34 36 32 33 35 39 39 35 37 40 42 43 43 44 51 53 52 46 46 51 46 44 45 45 48 57 51 43 42 47 47 45 45 44 50 57 51 43 40 39 38 35 30 33 29 30 32 34 33 34 33 36 37 37 41 43 40 43 42 39 43 43 45 45 46 38 38 47 43 40 41 41 40 39 40 41 44 49 42 38 40 42 37 37 34 32 34 40 42 39 37 38 43 48 50 48 49 46 49 46 43 41 40 40 41 42 47 47 48 51 43 36 39 40 41 44 41 41 39 35 33 37 37 38 40 41 45 48 51 49 48 51 53 54 55 60 59 54 52 55 56 63 70 75 74 69 69 72 72 68 59 47 45 43 45 47 43 41 48 51 55 49 52 49 50 53 56 59 62 58 47 42 38 36 36 33 37 37 38 41 38 40 42 41 45 43 43 49 57 56 57 53 65 66 60 58 56 54 52 52 51 52 58 63 68 69 72 76 79 66 68 65 60 60 64 67 65 63 68 61 62 73 63 62 56 50 48 50 50 52 53 51 51 57 64 66 66 63 65 62 62 63 67 63 59 61 60 62 59 60 59 59 56 65 71 67 67 73 78 72 65 67 65 70 71 74 76 73 76 71 74 71 69 74 79 69 54 51 61 63 55 59 62 67 91 90 79 63 59 60 59 59 58 60 57 57 54 52 48 48 47 52 52 59 57 71 67 60 58 54 53 58 53 62 70 80 92 95 89 86 85 86 91 92 86 75 71 76 71 66 65 67 65 67 71 71 62 71 73 73 72 69 64 64 69 75 93 89 90 93 97 96 84 76
56 50 54 61 62 61 60 62 61 61 63 60 58 57 56 57 58 55 58 61 66 72 71 71 68 54 47 44 51 51 47 49 51 53 62 68 68 69 63 59 60 59 60 54 52 55 50 54 57 56 55 51 51 46 49 54 59 57 57 57 64 74 61 59 54 51 51 54 56 63 68 61 46 43 49 54 49 48 50 54 58 47 45 49 50 44 41 43 43 45 40 42 42 40 41 41 42 47 44 50 50 57 59 59 49 51 53 52 54 54 51 45 45 43 42 36 35 34 30 30 32 30 30 30 29 31 34 34 37 38 38 41 45 45 40 38 41 46 47 46 44 42 41 39 42 45 41 43 44 42 41 41 37 41 45 42 51 48 47 46 45 44 38 38 39 39 39 34 35 32 33 30 32 31 36 36 35 34 36 37 41 43 54 53 52 43 46 42 41 36 37 41 42 37 41 42 39 41 43 45 42 42 43 38 39 45 45 41 43 45 48 47 50 50 42 39 38 37 45 48 49 40 41 38 34 39 48 39 40 43 48 48 44 46 41 44 41 44 44 45 43 46 48 40 34 35 37 37 38 43 40 36 38 40 44 48 53 45 52 53 49 48 54 40 56 60 60 50 42 36 33 32 36 37 38 36 35 37 42 41 42 40 40 43 38 43 41 41 44 44 45 44 43 40 40 47 46 39 36 43 52 48 44 44 45 42 42 40 43 48 45 44 42 41 43 44 50 52 52 58 59 56 55 58 51 49 48 51 53 47 49 49 51 56 49 51 47 39 39 48 55 51 51 53 52 54 60 56 56 55 60 64 57 56 53 53 54 47 45 48 52 59 63 76 75 76 71 75 71 71 73 69 67 67 70 74 76 70 72 69 62 61 56 58 71 85 76 70 62 62 61 64 71 76 81 77 73 73 77 71 71 75 79 70 59 54 55 54 50 55 54 65 78 85 73 70 71 63 64 65 63 64 61 60 63 56 51 47 52 58 63 62 60 67 84 74 64 60 56 53 60 59 59 75 78 86 86 86 86 89 89 89 86 87 75 87 82 79 79 68 66 65 64 60 69 67 66 71 74 79 69 64 63 69 79 91 103 103 97 107
63 68 72 65 61 63 66 57 65 69 66 61 61 60 60 62 64 67 67 63 64 70 64 59 54 60 62 57 60 68 72 82 90 78 73 69 60 54 55 61 60 57 56 56 56 57 60 67 62 54 55 61 64 71 76 79 81 90 98 85 73 59 58 54 47 45 51 55 45 43 47 49 55 64 61 66 69 65 58 58 55 57 57 54 44 52 49 46 45 48 48 45 46 41 46 51 50 46 46 47 48 46 53 60 56 59 62 55 57 54 51 48 43 39 36 36 36 33 31 32 34 34 37 40 40 42 40 40 42 39 46 47 41 41 44 48 47 45 52 46 43 45 48 51 51 50 47 45 45 45 46 43 48 50 46 53 55 57 50 48 47 42 41 41 39 41 40 43 41 40 43 42 40 42 43 39 34 37 44 48 51 54 43 40 40 37 38 43 43 47 52 47 44 47 52 46 44 42 39 39 34 37 39 36 40 40 44 50 50 63 62 63 60 60 61 58 52 48 54 47 39 36 38 40 43 44 45 46 51 47 48 51 44 42 40 37 37 37 38 36 38 33 37 38 39 40 40 43 42 41 43 45 46 46 41 46 49 59 58 60 57 61 61 60 53 41 39 35 35 34 33 33 33 38 46 54 45 39 36 35 33 34 34 38 39 40 40 44 47 49 45 48 49 49 44 43 46 47 42 38 41 42 50 56 58 58 56 50 48 49 50 47 44 44 45 42 43 48 48 54 46 52 57 68 69 61 59 54 54 57 52 45 43 44 51 53 53 54 54 47 48 51 48 48 43 47 42 45 46 49 61 67 75 75 63 56 59 61 61 53 44 40 42 41 41 41 44 44 44 48 51 56 54 56 54 54 53 52 56 52 54 53 53 52 55 68 81 81 83 83 79 74 71 77 69 72 75 73 78 80 74 75 88 99 89 81 72 74 67 61 56 55 55 56 97 100 94 83 73 82 88 91 88 77 68 70 71 72 65 65 63 63 66 69 66 68 68 69 73 74 66 61 57 57 57 68 68 69 75 86 96 92 90 87 88 78 76 78 81 78 75 80 82 91 80 78 76 73 83 72 70 75 84 81 74 71 68 69 85 99
69 64 68 72 67 71 77 67 61 62 60 57 54 59 57 56 62 59 56 55 54 54 55 54 56 65 74 85 87 82 71 80 74 69 60 55 57 56 53 55 58 61 67 64 63 64 66 59 59 66 64 60 63 70 61 60 61 59 59 59 54 46 47 46 55 54 50 48 51 55 55 61 66 58 55 53 59 61 59 59 55 53 51 49 51 51 52 50 49 50 49 48 51 55 55 54 61 60 65 65 61 55 54 49 48 49 49 47 42 42 40 35 32 33 32 33 34 33 32 34 35 37 41 44 47 51 54 50 44 47 46 50 51 51 50 47 43 50 52 51 57 53 48 51 50 42 48 48 48 50 53 52 50 50 50 46 52 52 54 51 45 46 44 40 39 40 40 39 45 48 54 58 53 46 40 41 46 49 46 50 49 45 46 43 41 47 40 44 48 51 52 51 50 52 55 55 49 45 43 37 47 44 41 43 46 54 58 57 53 59 54 45 51 49 48 50 54 35 36 39 43 42 46 44 39 42 42 47 49 38 39 41 41 42 39 40 40 39 38 39 40 40 35 41 47 45 48 43 41 38 38 40 40 45 44 43 43 40 40 36 37 39 44 45 45 43 41 40 40 40 40 41 42 43 40 39 42 49 48 46 42 44 47 48 42 44 43 43 43 47 45 45 48 44 48 48 49 52 58 55 50 43 40 37 34 42 45 48 51 54 59 54 51 50 47 50 47 44 39 43 54 56 51 48 52 66 71 63 56 53 57 61 54 49 48 47 50 53 56 56 51 53 55 53 49 47 44 40 45 45 47 46 55 61 60 61 64 52 47 42 38 34 37 38 35 35 37 45 44 39 35 34 38 39 41 39 37 36 38 37 38 39 35 35 35 37 42 53 67 68 87 96 90 79 75 74 74 77 82 86 72 70 68 72 81 88 89 86 81 73 71 67 55 52 55 53 51 66 72 70 68 59 67 61 66 79 85 79 74 64 72 69 69 71 66 71 73 71 78 76 72 69 67 57 56 56 54 52 51 55 53 63 72 79 87 92 88 91 85 77 67 65 64 63 62 68 69 69 64 67 79 79 71 82 94 88 81 79 70 64
59 60 60 50 48 49 51 47 47 49 52 54 56 58 59 54 53 55 55 62 54 50 51 51 64 61 58 59 57 65 65 68 63 56 58 60 66 67 70 68 67 69 72 74 74 74 77 71 77 73 68 69 68 65 59 54 48 47 44 42 40 47 49 45 45 47 51 54 56 62 62 65 63 58 57 61 61 53 50 51 47 49 49 47 44 43 45 47 46 51 54 59 62 65 68 66 56 53 55 48 48 50 53 49 44 43 38 36 34 36 32 32 35 35 36 36 37 38 40 41 45 51 51 57 56 53 53 57 59 57 68 63 58 46 45 56 65 70 59 53 50 51 54 55 57 60 54 56 52 52 48 54 54 54 54 58 59 49 46 44 46 43 37 37 36 43 52 49 41 42 54 57 52 54 53 55 60 62 62 56 59 43 46 48 46 49 50 50 53 52 56 53 52 46 43 41 44 45 43 42 41 44 49 58 55 64 59 60 57 49 51 53 49 50 49 47 43 42 52 50 46 41 40 43 42 43 40 41 42 43 42 43 40 44 41 43 42 41 41 46 47 46 53 50 52 51 51 52 43 41 48 51 51 52 53 53 49 47 45 44 47 47 46 48 49 47 44 48 53 52 53 53 43 42 41 38 39 39 49 59 58 56 56 50 57 54 52 48 51 46 44 44 43 41 47 53 52 53 50 44 42 43 42 42 44 43 41 37 36 33 39 47 44 46 48 45 50 52 46 43 47 54 53 53 50 50 52 48 49 54 49 50 46 49 46 43 38 40 41 41 39 38 43 50 47 45 44 47 46 46 42 40 39 45 47 47 46 43 45 41 43 36 36 35 40 46 47 41 38 41 42 38 36 37 42 41 43 45 41 38 39 41 45 44 42 39 37 35 35 38 41 41 48 47 52 56 62 64 68 64 71 83 80 67 59 58 56 66 79 85 72 81 86 78 66 67 60 53 56 63 68 68 70 84 79 76 77 82 84 81 76 64 68 66 66 58 51 57 60 52 55 62 68 73 65 57 57 69 64 65 65 69 66 74 78 76 74 75 72 77 75 67 70 70 69 69 71 69 62 61 61 65 71 81 69 70 81 105 121 116
49 46 48 49 49 50 51 54 56 60 59 55 54 54 53 50 51 50 50 47 50 51 53 51 50 50 59 66 66 63 54 59 66 72 77 73 68 71 80 77 65 61 61 60 61 61 62 59 56 57 53 48 45 44 45 55 53 52 50 45 45 42 45 50 52 54 57 62 60 58 62 61 54 62 62 51 54 55 51 55 56 63 62 50 50 48 47 47 50 56 63 67 69 65 63 65 55 51 57 54 52 43 42 45 45 47 46 41 42 39 39 42 43 45 44 45 45 46 52 55 55 56 53 49 42 49 53 54 52 48 47 48 50 50 48 53 59 58 56 51 51 50 49 57 53 53 50 41 42 43 44 48 54 55 52 43 41 42 39 36 37 45 45 42 43 49 45 52 45 43 45 48 45 53 56 59 57 56 61 44 45 43 48 55 46 53 55 45 47 57 59 54 56 48 47 47 40 37 36 37 41 40 39 42 45 53 53 50 55 62 65 68 71 55 53 44 47 48 46 51 58 52 50 56 51 41 37 33 31 30 28 28 29 28 29 31 33 43 49 47 55 56 56 49 38 43 44 42 40 42 45 45 45 48 48 49 39 44 41 40 35 37 41 43 57 57 58 62 62 51 52 50 55 55 56 60 54 43 46 50 49 46 50 56 56 51 46 46 46 47 45 43 38 37 37 46 49 49 51 57 58 54 48 47 45 47 42 39 38 36 35 39 41 44 42 39 40 43 46 47 46 40 44 47 48 48 48 46 46 46 49 48 50 55 63 47 51 51 47 42 40 43 45 47 47 51 49 50 52 48 46 46 41 42 47 48 49 49 50 48 50 43 39 45 41 41 39 36 37 39 37 38 40 37 35 37 34 38 50 49 42 40 38 37 38 40 44 42 39 37 38 43 40 42 47 47 48 48 51 61 64 56 61 81 81 82 73 61 55 63 66 63 64 69 76 83 84 76 71 62 58 79 80 76 83 81 73 75 67 61 59 63 75 76 82 78 74 73 64 59 61 60 58 57 66 63 62 55 52 54 58 61 55 61 62 62 74 64 70 77 78 79 73 69 63 69 69 59 65 61 66 66 65 70 71 75 72 64 74 82
48 49 48 48 53 57 52 52 50 54 59 60 56 54 58 58 57 54 54 52 57 64 68 66 68 78 67 67 63 60 70 71 71 69 74 75 77 71 72 70 72 68 64 62 59 52 46 44 45 44 50 50 53 55 57 51 50 48 47 49 59 58 61 61 58 60 59 56 57 55 55 53 50 54 60 63 64 62 61 58 52 45 48 51 53 58 63 68 69 70 73 71 61 62 59 53 42 40 38 38 39 42 43 40 45 44 41 39 40 39 39 36 37 39 40 44 44 54 58 54 60 60 56 52 53 53 53 48 46 47 45 42 47 50 50 54 56 55 44 45 51 54 56 58 52 52 55 56 56 65 79 62 53 47 43 46 41 38 46 55 63 56 49 46 45 43 47 57 60 64 61 61 61 54 61 56 51 57 56 59 54 53 51 52 47 48 46 56 72 54 50 49 47 38 37 37 41 43 45 44 42 41 40 42 40 34 34 41 42 40 43 49 46 54 54 58 54 53 58 57 43 46 45 41 35 36 35 36 32 31 30 31 29 29 28 31 29 29 32 26 26 26 26 27 33 35 36 38 46 47 49 45 45 46 43 45 47 43 39 46 47 46 46 44 48 44 39 40 51 50 52 52 46 45 49 46 45 49 50 48 49 60 58 53 56 61 70 67 60 56 51 47 46 47 45 42 46 45 51 59 52 38 39 41 47 48 55 62 55 47 42 41 37 37 39 43 46 43 44 39 41 47 46 48 53 46 50 50 47 45 37 44 38 42 43 50 60 58 52 50 47 46 45 42 40 43 46 47 44 40 42 48 50 43 40 41 51 54 54 51 58 64 62 51 44 43 43 47 42 42 39 37 40 40 38 37 40 41 38 41 47 48 45 43 40 42 44 37 36 37 38 41 37 36 39 35 38 43 38 40 45 48 48 49 48 61 79 91 81 73 73 67 69 65 62 61 71 78 88 86 76 72 69 66 61 67 66 65 68 66 63 54 56 64 65 66 71 79 76 78 72 68 59 51 50 52 69 76 79 53 57 55 53 63 55 57 54 60 63 61 59 66 69 75 78 74 71 71 70 72 69 63 61 62 61 58 56 56 63 68
53 54 54 57 53 50 53 62 65 64 60 58 63 61 55 54 60 64 63 63 61 60 60 61 61 66 67 63 58 58 50 47 48 48 51 52 56 57 61 62 60 65 58 50 53 53 54 54 59 57 57 58 58 50 45 48 51 54 60 59 63 63 60 57 61 57 56 56 54 51 46 46 53 56 66 61 57 55 47 51 52 53 50 51 56 67 84 77 60 47 48 42 37 35 33 35 35 35 40 40 41 41 36 35 34 35 39 42 44 45 48 46 43 45 48 51 62 56 56 55 59 50 51 50 47 44 46 47 46 52 52 57 54 49 51 50 51 49 53 62 64 61 50 60 61 52 46 54 57 55 49 46 45 45 39 44 40 40 39 44 41 42 44 47 49 45 49 43 44 41 40 42 34 40 40 42 40 46 53 57 55 60 58 54 55 53 51 49 48 49 52 52 49 48 45 45 53 48 47 41 43 43 44 41 35 35 34 33 38 41 44 43 50 48 52 51 49 43 43 50 49 46 43 43 43 38 36 34 32 30 30 27 30 30 29 29 31 33 30 30 28 25 28 28 26 25 23 28 29 29 30 37 38 38 38 36 33 35 38 32 35 35 33 32 36 37 39 38 36 38 39 38 42 42 48 49 48 46 47 47 55 59 56 62 66 68 65 64 63 62 53 47 46 43 49 41 35 36 38 38 40 40 44 43 39 40 45 50 49 48 51 46 44 43 47 45 41 40 42 40 40 45 42 41 39 41 45 48 44 41 39 39 41 37 39 45 46 48 51 58 57 51 45 48 45 45 44 39 38 37 38 41 41 41 39 34 35 38 42 48 52 58 62 62 57 52 48 45 45 44 42 41 41 41 39 38 37 40 40 44 49 54 51 45 42 32 40 42 40 39 38 40 44 43 40 37 35 37 38 40 42 41 44 48 53 49 46 45 56 66 79 84 69 63 66 69 62 62 66 73 102 100 89 78 73 69 65 67 61 66 67 68 69 62 51 49 51 58 60 60 57 55 51 48 47 49 46 45 50 66 78 72 64 55 57 64 62 65 68 66 61 56 74 73 69 66 69 74 75 74 76 74 70 60 70 71 66 66 64 58
53 61 65 59 62 66 62 59 60 60 56 52 51 53 62 59 58 59 58 63 60 60 65 74 78 70 66 63 52 51 52 53 56 60 65 64 64 62 59 50 48 47 45 47 51 55 59 64 58 56 49 46 46 53 60 65 64 56 55 62 68 59 60 55 49 50 51 50 52 56 56 52 54 50 45 43 47 46 49 50 50 46 50 55 56 54 48 44 42 43 45 43 42 44 43 38 39 39 37 37 37 36 40 46 45 44 43 46 44 40 40 46 57 58 60 63 58 58 59 58 49 44 48 52 56 59 61 59 69 58 51 49 52 50 51 48 47 49 46 47 48 45 50 52 48 44 49 47 46 43 41 40 43 44 39 37 37 39 43 44 42 43 47 49 55 59 59 43 42 44 46 44 50 58 59 63 67 61 70 63 62 64 63 69 69 72 73 66 57 51 52 52 56 59 56 59 55 57 50 56 53 51 48 46 42 40 40 37 37 35 33 29 29 27 29 31 34 35 38 36 33 37 39 40 42 38 37 34 33 34 33 34 31 31 31 31 29 26 27 26 27 30 33 32 31 31 31 28 30 28 27 26 30 32 31 31 36 29 28 34 34 36 37 36 37 37 37 37 36 43 42 39 38 48 46 47 48 45 48 49 46 57 63 65 56 57 53 50 49 49 49 46 44 46 38 37 37 36 37 37 39 41 43 44 45 43 37 36 32 36 40 48 50 51 55 51 47 48 47 45 42 49 46 44 41 38 41 45 47 53 49 45 45 48 48 45 39 42 40 39 40 39 45 52 48 46 41 37 42 41 37 34 35 38 41 41 40 39 41 46 44 47 49 51 57 66 63 57 54 49 49 52 45 43 47 43 41 38 34 33 37 39 41 44 42 47 38 39 41 37 36 35 38 40 41 42 40 42 41 36 38 40 41 38 35 42 49 55 54 54 54 53 61 65 66 66 72 76 70 63 64 67 66 68 79 80 71 68 69 68 64 61 63 67 66 63 55 55 59 63 63 62 58 58 58 55 51 48 40 44 43 45 56 76 68 64 61 58 57 63 61 60 64 47 48 54 59 51 66 66 60 71 75 72 73 64 61 73 73 70
67 54 50 55 59 63 63 59 53 54 58 59 56 52 54 57 58 63 68 75 81 81 81 76 75 57 52 53 58 72 81 84 87 72 61 48 44 45 46 52 54 57 64 68 65 60 60 63 61 56 59 58 62 61 54 52 54 61 71 65 59 54 53 54 50 52 54 54 49 48 45 44 45 43 41 45 48 50 51 53 54 55 51 44 44 44 41 39 38 39 36 38 42 46 42 39 39 45 45 41 40 43 43 40 39 44 42 44 46 55 64 70 69 73 68 61 63 58 53 51 51 52 57 54 59 62 61 53 45 46 44 50 47 47 47 51 54 61 54 51 49 46 47 52 52 51 48 48 41 46 51 50 42 38 40 36 39 42 42 44 48 59 54 47 45 42 42 42 44 44 56 61 61 60 60 73 57 59 54 50 50 60 60 56 78 68 52 48 57 60 62 61 60 59 56 50 58 55 44 41 39 37 45 46 49 47 45 40 38 35 38 35 33 33 30 32 33 30 28 31 33 33 38 45 46 42 37 43 41 39 43 35 32 32 31 31 33 32 29 29 29 28 26 29 31 36 37 35 33 34 34 35 35 35 32 33 32 33 31 31 35 31 29 31 38 37 40 41 44 42 41 46 48 48 51 50 47 51 45 44 47 46 48 45 43 46 46 50 48 46 47 43 38 39 45 46 39 37 32 39 38 41 39 40 38 34 36 35 37 37 35 38 44 47 48 50 50 51 52 47 39 47 51 41 40 38 38 42 45 50 57 57 49 49 52 52 44 39 44 43 43 38 41 43 50 58 62 53 46 45 43 38 33 31 32 35 41 40 36 36 34 37 44 51 46 46 52 62 57 52 50 48 49 46 40 38 38 37 40 38 38 37 38 37 38 41 45 46 42 38 39 42 45 40 39 44 49 49 42 41 46 43 44 44 43 41 39 41 45 45 48 51 55 54 51 47 51 53 54 53 60 60 69 70 73 73 65 72 76 76 76 84 76 70 77 71 70 64 64 62 59 77 77 78 61 59 59 62 64 63 55 51 48 45 48 58 67 69 66 59 59 61 62 70 73 73 57 53 55 51 47 50 49 55 56 63 85 85 71 63
54 63 68 69 67 61 64 58 57 53 54 56 62 75 70 67 73 74 72 70 67 65 60 61 62 73 85 98 89 86 75 63 58 52 48 52 56 53 53 53 56 56 57 56 55 60 55 56 56 65 71 64 56 59 64 70 79 66 51 53 54 57 54 53 53 59 55 57 56 49 51 52 54 56 55 52 49 50 47 37 39 42 43 38 37 37 39 49 45 42 34 36 37 36 40 39 40 39 39 39 37 37 38 41 45 46 49 54 47 53 53 49 55 53 47 50 48 47 50 54 54 53 55 63 56 53 46 44 43 42 45 43 41 46 48 50 45 46 46 51 55 51 42 39 40 41 38 39 37 39 36 42 42 44 46 45 46 54 57 56 50 44 42 39 37 38 42 43 49 50 47 48 51 52 53 48 45 46 47 51 58 73 54 50 45 49 56 53 47 59 54 58 51 47 49 47 45 47 49 48 48 47 46 37 36 43 38 40 38 40 34 33 32 30 26 26 33 31 28 27 29 26 30 32 37 39 44 48 47 43 50 49 38 37 38 37 33 34 37 35 33 34 35 35 34 34 36 36 34 35 36 30 27 26 26 26 27 28 28 30 34 32 34 35 38 32 31 35 43 42 42 47 45 44 40 35 36 36 42 45 43 41 34 34 32 29 29 30 33 44 42 42 36 35 35 34 37 36 33 33 33 36 37 43 48 51 48 48 47 44 42 42 39 40 50 46 42 43 37 42 41 36 42 46 48 50 51 50 45 50 49 50 51 49 49 50 51 43 35 38 47 51 48 41 40 40 41 47 47 47 50 48 43 40 35 36 37 34 39 42 40 36 35 35 37 42 41 41 49 60 59 59 48 49 59 56 46 42 41 42 42 38 36 41 43 44 43 45 51 49 46 44 44 45 41 40 38 42 44 45 48 42 39 34 39 41 41 34 37 43 46 44 45 48 50 52 48 46 43 47 45 46 52 52 51 50 55 61 62 61 65 68 70 74 80 82 80 78 68 64 63 62 71 82 81 75 78 75 69 61 63 64 61 57 58 51 51 58 59 59 61 61 63 54 63 61 61 69 66 61 57 53 52 51 53 54 60 53 60 73
61 63 61 53 55 59 57 56 57 60 65 70 78 73 72 69 69 68 63 57 54 54 58 60 63 63 63 61 52 46 44 44 44 49 54 53 48 50 50 52 56 60 66 67 65 65 71 72 67 56 58 58 59 62 64 53 52 57 61 60 57 60 59 59 66 66 60 50 55 54 58 54 46 44 46 39 38 36 36 34 35 38 37 37 37 39 39 35 33 34 33 36 36 39 40 41 43 39 40 48 45 51 51 51 51 49 45 44 50 52 51 47 47 52 56 55 51 50 48 52 46 49 54 50 43 46 46 50 47 47 52 49 54 54 52 51 47 50 49 45 43 37 37 42 44 44 44 44 43 41 46 49 52 48 47 48 47 45 46 51 49 47 49 41 43 47 41 39 37 38 34 32 33 33 32 35 36 37 36 35 33 32 34 38 43 46 49 39 37 32 34 37 37 43 45 47 50 49 51 49 57 56 57 57 52 51 43 42 43 45 38 34 32 32 30 27 28 34 33 35 33 32 32 35 39 41 47 44 41 43 44 47 43 48 48 44 41 37 38 40 40 38 41 38 36 31 32 33 29 33 34 31 30 27 29 31 28 27 28 27 26 28 29 32 30 28 30 31 32 31 29 29 29 28 28 29 28 30 31 33 31 33 36 41 33 35 37 36 35 33 37 42 42 44 38 35 38 42 42 38 38 37 34 33 32 40 43 44 42 41 41 39 40 38 37 36 37 46 45 41 41 37 36 38 42 42 43 36 37 42 44 45 50 46 41 45 52 54 50 49 45 41 38 40 44 44 44 44 48 47 48 51 48 50 53 53 49 45 40 42 43 38 41 41 40 36 41 40 37 40 40 46 52 52 59 60 61 61 62 55 50 50 49 43 39 39 36 43 42 45 44 50 48 48 46 46 44 38 39 39 42 41 42 41 35 35 35 39 37 37 43 46 49 46 41 49 54 54 50 49 43 38 36 36 40 42 44 46 46 50 53 54 50 52 60 80 76 74 72 90 80 68 61 68 76 82 85 80 72 69 69 65 67 69 66 60 59 64 65 66 66 67 72 71 64 59 54 51 59 63 56 49 49 60 55 51 47 55 57 56
66 67 63 61 65 69 64 61 57 59 67 65 65 70 67 64 56 62 65 66 64 63 74 73 66 52 49 41 40 46 57 58 55 50 47 49 52 59 63 63 64 66 68 63 62 57 52 56 66 63 68 69 69 58 57 64 60 61 56 54 54 52 48 42 43 43 46 46 47 48 40 40 43 46 38 32 31 30 31 35 35 35 36 39 36 33 31 32 33 36 40 39 40 48 39 37 36 39 41 43 52 54 52 43 36 37 41 45 47 50 45 51 51 51 51 46 42 44 43 41 42 37 36 35 43 42 42 45 55 62 65 63 56 55 51 49 47 54 44 46 46 45 46 48 42 41 43 41 38 44 46 48 45 46 54 45 41 35 35 34 35 35 34 36 36 34 36 35 32 32 33 36 38 32 32 33 35 31 34 33 33 38 40 38 31 29 30 33 33 35 34 34 31 32 32 33 41 43 48 55 59 62 58 55 51 44 44 45 39 45 44 45 40 38 35 33 34 31 33 34 33 34 29 27 28 31 31 36 35 39 39 47 52 54 49 44 48 47 46 46 43 44 43 41 38 35 33 29 28 28 30 30 29 25 29 29 29 31 30 30 29 27 24 26 26 25 27 29 30 32 30 32 31 31 36 37 33 33 31 29 27 26 27 27 34 34 33 32 33 34 31 34 37 39 39 34 34 33 30 29 31 34 37 39 38 40 38 36 38 36 30 31 32 33 38 41 38 41 38 36 35 43 36 42 39 38 41 40 42 39 38 33 40 40 46 45 47 48 44 43 45 50 52 45 44 48 43 47 43 53 50 49 48 44 41 35 37 39 41 50 49 47 44 42 40 35 34 40 40 37 37 36 37 43 44 41 54 57 57 48 48 42 41 40 37 37 38 37 37 45 46 46 43 39 40 42 38 38 41 39 37 34 35 39 39 42 39 35 34 35 33 32 35 38 43 44 42 41 37 34 36 39 40 46 44 41 38 40 38 39 43 55 58 60 56 53 60 70 84 82 69 83 89 81 71 69 70 74 75 85 87 77 72 63 60 61 65 64 59 53 51 54 57 56 58 61 64 61 61 61 65 71 75 63 57 58 61 58 59 60
64 68 65 62 58 59 56 62 63 61 62 63 61 61 63 63 64 62 61 62 64 62 55 51 50 51 56 56 60 56 48 49 50 54 53 56 58 56 58 64 61 56 50 52 52 60 68 71 69 66 66 67 61 60 56 53 59 61 57 50 46 46 50 50 48 47 45 44 42 39 48 49 40 32 33 32 35 37 39 38 37 39 41 36 38 40 43 47 44 44 39 37 35 35 41 43 43 46 48 48 44 40 43 45 48 52 54 54 48 45 47 51 47 49 48 43 42 42 44 50 47 42 44 47 49 43 42 49 49 55 53 60 66 61 66 58 62 51 41 41 43 43 45 43 39 42 49 59 58 60 56 46 38 35 33 32 37 38 32 36 40 35 31 32 33 35 34 36 39 35 37 38 35 32 36 36 37 40 39 39 40 40 36 33 35 35 34 37 41 34 33 36 38 35 37 33 42 37 32 32 37 35 34 39 54 43 41 41 40 33 33 35 38 37 39 38 41 38 35 35 36 34 31 33 30 33 32 33 33 33 34 34 54 49 47 47 52 58 58 57 55 46 45 43 47 51 48 46 38 41 43 35 35 33 34 38 37 38 33 36 32 30 30 33 36 30 30 31 28 29 29 27 28 26 26 29 29 28 31 29 26 26 28 28 31 33 38 41 41 43 44 38 35 35 35 33 34 36 37 36 37 37 40 41 44 47 54 55 52 48 43 43 43 39 36 34 36 33 33 36 35 38 42 42 46 47 51 52 49 49 46 46 49 48 47 47 52 53 53 49 51 47 45 47 53 53 50 53 48 49 43 48 49 49 46 48 45 45 48 45 48 45 45 42 42 41 40 40 48 48 44 39 38 42 45 50 50 46 51 59 56 55 53 54 54 50 47 49 44 44 45 45 43 43 46 37 41 41 39 35 34 38 38 37 35 39 41 46 44 42 33 36 37 37 41 41 37 42 42 42 42 41 40 38 36 36 37 37 33 35 38 37 38 44 54 56 56 56 56 56 68 71 72 72 68 79 82 81 77 74 67 61 67 73 81 77 77 77 84 81 77 82 79 71 68 67 68 70 73 71 64 68 65 62 58 61 58 56 59 58
61 64 68 64 61 66 67 63 66 64 66 62 59 60 60 61 71 74 75 74 66 54 55 54 55 55 52 47 49 52 53 57 51 54 57 54 64 68 57 53 52 54 50 51 50 53 51 49 47 50 54 51 51 54 59 57 46 40 48 51 49 52 52 49 47 47 44 43 45 49 46 39 38 38 43 43 45 46 40 40 37 40 40 39 45 46 42 38 38 39 41 41 44 42 44 44 48 48 49 42 36 37 43 48 51 51 51 45 43 42 41 42 42 40 38 40 48 53 57 49 39 34 42 44 50 56 53 52 50 56 54 53 50 55 49 42 38 37 41 45 40 39 46 49 51 52 53 55 51 50 44 37 35 35 40 45 47 47 47 46 38 36 37 38 34 32 32 35 34 30 30 36 30 33 34 33 36 36 40 40 38 39 36 40 40 36 36 36 34 37 44 42 37 35 41 38 39 41 43 40 34 31 29 30 30 31 34 32 32 36 42 45 48 48 48 41 41 36 38 35 32 37 35 29 29 27 27 25 27 29 32 33 32 35 36 37 46 50 47 40 45 45 44 38 39 39 39 44 45 42 42 40 44 44 37 39 36 35 35 36 33 33 34 30 29 27 28 24 23 28 28 25 28 28 28 25 25 27 25 27 30 30 29 30 29 31 29 28 29 37 37 35 38 37 38 43 45 43 42 37 40 45 54 56 56 50 46 47 47 51 51 50 46 41 40 38 38 39 40 41 41 43 50 50 40 41 39 39 45 54 53 49 53 53 47 44 44 47 57 56 54 52 52 54 49 46 42 48 52 52 52 48 53 58 54 59 57 56 51 53 49 48 50 47 47 47 41 39 42 43 55 49 45 36 36 40 40 42 39 39 50 52 57 57 55 54 49 46 43 43 44 45 48 43 43 44 41 45 41 45 44 45 42 37 40 44 40 38 38 41 47 48 47 42 41 40 45 43 38 37 38 43 41 43 42 40 37 35 33 35 40 40 37 36 36 36 36 39 45 54 54 49 53 66 68 54 55 58 53 63 96 90 81 71 68 71 76 75 66 67 63 62 58 61 79 65 66 66 68 71 72 76 86 83 71 65 62 52 50 51
67 65 63 64 60 56 67 65 68 65 66 69 83 90 91 83 69 65 59 60 55 51 49 54 57 48 49 49 48 47 43 45 50 55 56 54 49 54 53 49 45 48 50 47 52 51 53 53 51 52 46 48 51 50 44 42 46 48 49 52 58 53 50 53 50 51 53 57 51 42 44 44 46 48 47 41 36 37 37 41 43 43 37 38 39 40 41 43 41 44 44 43 45 46 47 48 50 41 39 46 51 56 64 67 58 56 45 43 46 46 47 48 47 45 59 58 57 53 47 42 52 62 68 61 53 60 63 57 56 52 47 46 41 40 39 42 41 37 37 41 42 44 42 46 52 61 48 41 38 39 39 42 47 53 60 49 44 46 47 38 37 41 37 34 30 31 30 30 34 31 31 34 36 36 40 36 35 37 37 38 38 35 37 37 43 38 37 41 41 40 36 33 32 33 34 32 29 31 40 43 46 37 34 37 39 39 31 30 33 31 31 31 31 31 36 37 33 36 35 34 32 31 29 29 26 26 32 29 27 29 27 26 29 32 31 31 34 35 36 45 46 43 43 46 47 46 44 42 42 45 38 30 28 27 28 30 32 33 34 34 33 33 30 33 34 34 28 27 26 26 25 25 28 28 28 29 27 26 28 27 28 31 31 35 33 31 32 32 30 31 34 33 34 38 37 37 41 43 46 47 48 48 50 44 42 40 41 37 41 41 37 38 38 36 32 34 37 33 34 35 39 42 46 45 49 47 46 43 42 40 44 55 57 57 47 47 50 46 44 41 41 41 43 41 44 43 42 41 38 39 41 47 45 49 53 53 44 43 38 36 35 40 39 42 44 40 41 39 39 37 36 46 52 51 50 48 46 42 46 43 42 50 46 44 44 50 46 47 48 46 43 41 42 46 41 45 45 41 36 38 37 37 44 48 42 38 40 35 39 39 36 36 41 47 44 46 49 45 43 47 44 41 41 44 39 38 37 43 43 39 37 37 39 38 37 36 36 34 35 39 38 40 40 43 49 58 66 65 65 66 64 60 61 67 72 66 63 63 62 68 69 72 75 70 68 65 59 62 66 64 65 61 53 55 64 66 65 64 63 58
59 54 56 61 67 69 69 76 83 82 93 96 90 81 68 62 58 51 46 46 50 55 58 50 46 48 50 50 47 48 48 53 50 45 48 47 46 47 47 47 47 47 46 46 48 46 46 48 48 47 47 45 45 48 50 50 49 46 47 44 43 43 44 50 50 46 42 41 40 37 31 33 31 28 35 38 44 42 43 43 44 39 42 46 46 43 40 43 47 45 49 49 54 52 41 42 43 51 59 71 74 66 62 54 46 44 41 46 51 55 61 60 59 50 49 41 44 48 59 67 69 61 62 57 53 59 54 54 50 43 38 35 36 36 36 38 39 40 44 43 49 53 52 48 47 44 43 44 46 44 49 51 56 50 45 38 37 35 33 32 33 32 36 34 34 34 32 30 31 35 37 46 41 40 47 41 41 41 42 38 34 34 37 37 36 40 42 44 38 33 35 33 34 40 36 35 33 34 35 37 35 37 36 37 34 30 30 31 32 38 40 40 36 38 40 36 34 33 32 33 39 41 37 37 38 39 40 36 32 34 32 30 28 27 30 30 29 27 29 32 41 39 36 39 37 41 44 46 40 39 37 35 38 32 30 30 32 35 35 39 35 36 37 33 29 31 30 28 27 27 26 26 28 29 28 31 34 37 30 26 28 27 30 32 31 29 28 29 29 30 32 39 45 47 48 45 44 43 44 48 41 41 37 38 45 44 39 38 38 37 42 35 34 34 33 31 36 34 34 32 30 32 32 36 37 40 43 47 49 50 44 39 44 53 52 50 53 49 49 52 53 49 47 48 43 54 56 53 51 52 50 45 43 48 55 52 50 53 54 59 55 45 46 47 48 46 52 54 47 40 40 40 42 50 56 63 70 68 60 48 47 50 61 56 52 47 48 43 42 46 47 49 41 43 42 40 40 41 41 42 41 46 38 40 39 43 40 39 39 41 43 36 37 35 38 40 44 54 54 56 51 51 48 49 55 55 50 45 39 41 46 46 47 45 42 42 42 42 39 36 42 40 37 36 40 43 46 48 50 60 66 63 60 64 75 73 68 65 64 66 68 62 73 75 73 79 80 66 62 56 50 68 82 89 75 69 68 71 68 64
65 65 67 69 71 77 92 97 100 87 78 67 63 58 57 56 55 53 56 59 65 48 45 50 49 47 48 52 48 45 50 48 47 46 42 44 41 44 47 45 46 45 49 51 54 50 51 53 49 49 49 49 47 43 43 42 42 45 44 44 49 50 49 45 42 42 40 37 33 32 41 40 36 41 43 43 43 43 49 53 53 51 50 50 46 50 52 52 49 49 51 47 47 49 44 46 52 57 59 55 58 52 50 51 45 48 53 64 67 58 53 48 45 50 55 57 56 59 55 58 55 46 43 40 35 41 43 41 34 34 36 41 41 41 44 45 46 50 48 49 50 51 49 48 42 43 47 50 48 41 39 37 37 40 42 46 42 37 35 40 40 37 36 36 35 39 48 46 46 41 44 52 46 49 47 45 41 41 43 38 44 46 46 43 46 47 47 46 39 39 40 39 38 38 36 34 34 37 36 37 33 34 39 35 34 32 33 34 33 31 33 36 34 35 36 37 36 34 33 33 34 39 43 40 40 35 34 36 36 38 34 33 33 33 32 31 30 28 28 27 26 25 30 34 34 35 35 40 41 39 39 38 34 37 33 29 30 28 28 38 45 39 41 40 36 35 43 42 32 30 28 30 29 28 28 29 28 28 31 34 34 30 30 32 31 31 29 31 30 27 29 28 36 39 41 37 43 49 55 53 50 56 50 48 42 42 43 40 37 39 38 38 39 40 44 39 37 36 31 32 36 32 30 34 39 41 42 40 41 42 38 38 35 36 39 44 52 50 49 48 49 49 44 50 49 46 54 55 60 54 56 59 50 49 48 53 57 54 53 48 53 61 55 47 45 42 43 51 49 48 46 46 44 42 43 43 44 43 44 49 45 43 43 42 57 54 51 47 47 47 43 53 52 49 48 44 41 41 39 39 44 40 38 39 43 44 41 38 34 33 35 35 37 37 37 37 33 33 33 44 50 53 52 52 49 47 56 63 58 50 44 41 39 39 39 42 42 44 42 41 37 35 38 44 41 37 42 45 49 45 46 57 61 58 62 74 78 71 69 70 68 66 70 63 62 59 51 51 60 63 56 58 58 56 62 73 79 72 71 71
62 68 72 86 89 82 83 65 58 58 55 52 59 57 56 65 61 60 59 51 46 49 55 52 58 52 50 42 41 37 41 44 42 40 44 44 45 43 43 41 42 43 45 47 44 51 49 45 47 42 40 40 43 43 48 50 53 53 51 52 53 48 48 47 45 41 40 44 42 43 49 45 49 49 51 42 50 48 48 47 46 47 48 55 62 51 40 47 51 52 49 45 47 48 55 62 58 60 60 66 67 60 51 50 51 58 57 58 59 58 49 53 57 59 57 59 52 51 50 43 40 39 40 47 50 47 45 46 45 50 50 46 49 55 56 51 54 62 66 67 70 51 47 49 44 44 43 44 46 50 42 45 41 36 32 38 46 51 46 47 44 37 37 43 45 51 51 53 58 54 59 58 56 53 53 58 56 60 56 45 49 44 48 42 41 43 39 44 51 54 48 51 47 51 46 49 52 57 54 55 47 40 40 45 45 39 44 45 45 41 40 35 35 36 37 37 35 31 31 30 33 34 41 46 41 39 37 42 39 34 31 32 32 34 38 36 37 37 33 34 35 34 34 39 45 48 43 38 35 35 31 37 38 42 42 36 33 32 30 28 38 38 40 40 38 35 42 44 40 37 34 29 33 32 32 30 38 47 38 38 42 40 39 38 37 36 31 33 31 30 28 29 28 28 33 38 43 40 40 43 53 61 54 55 51 52 50 48 45 51 54 51 47 46 48 54 45 53 45 44 41 37 36 34 32 35 37 39 43 51 54 53 48 39 35 33 37 38 42 44 47 53 52 50 46 50 45 43 54 53 49 52 52 50 57 55 51 60 64 68 55 46 57 60 56 51 51 53 57 61 62 54 48 46 45 45 45 46 41 38 38 41 50 55 54 54 68 65 62 57 53 52 55 54 53 53 57 54 50 49 44 42 43 42 43 45 46 45 44 42 40 37 39 38 40 41 41 40 40 40 41 41 42 46 50 50 51 49 46 46 52 50 51 55 50 46 46 50 51 47 47 56 46 44 44 50 47 40 43 42 46 41 39 40 49 56 66 74 77 65 69 67 66 73 76 86 78 77 71 67 63 68 64 57 58 55 55 81 76 72
82 84 88 84 79 65 66 66 59 56 60 58 58 56 60 57 57 53 53 49 57 60 59 50 45 45 44 46 52 52 51 44 44 45 45 41 43 43 39 41 42 43 43 43 50 47 46 43 43 47 52 50 47 47 44 42 42 42 51 47 41 47 42 40 44 41 40 43 47 50 52 46 42 41 44 44 47 49 52 53 55 57 62 51 46 47 51 53 51 49 46 51 54 58 62 61 60 58 46 41 50 42 41 45 42 40 39 36 39 41 43 44 47 49 43 46 45 43 41 42 46 47 49 45 41 45 51 48 48 47 51 52 51 51 56 52 55 48 42 44 38 37 51 46 45 48 48 44 45 40 36 39 39 43 45 42 35 38 39 35 33 37 38 47 47 51 52 53 59 52 59 63 56 51 53 55 52 48 52 48 48 38 41 49 49 42 39 38 44 48 61 60 56 58 65 73 58 55 45 48 37 41 44 46 55 55 57 51 48 48 44 45 42 41 41 37 33 34 33 32 30 30 29 32 35 37 32 34 32 29 30 29 30 32 33 44 37 35 40 36 42 46 45 40 41 43 40 36 41 40 39 37 33 34 37 43 45 40 31 29 31 37 38 41 36 36 40 40 41 42 39 36 34 32 34 35 36 40 41 40 36 37 38 37 38 37 35 38 45 37 42 44 37 29 28 32 34 37 35 34 38 37 43 46 50 50 51 46 43 44 47 50 49 44 44 45 51 53 50 49 47 43 41 41 38 36 38 35 35 37 39 34 36 34 38 40 37 32 37 37 44 41 41 44 43 44 39 37 39 53 52 51 51 48 43 38 47 54 60 70 78 67 63 60 62 57 57 63 55 55 59 56 52 50 47 46 44 50 47 44 46 45 49 50 52 52 59 69 77 75 66 53 53 50 46 61 69 67 62 55 60 63 64 50 46 43 44 47 50 46 45 45 40 38 34 37 37 38 44 43 42 44 41 40 43 44 47 47 46 42 40 41 41 47 48 51 50 49 50 52 53 53 51 51 49 52 48 47 50 52 53 54 50 46 42 42 46 51 83 96 73 65 68 66 64 69 76 86 89 89 86 82 74 71 68 65 59 58 67 65
65 68 61 62 60 57 55 54 52 52 50 50 50 49 44 45 45 46 48 55 46 41 40 46 49 48 45 45 48 45 47 46 46 47 45 43 44 40 41 44 43 43 41 43 44 44 44 46 45 39 38 39 39 37 38 41 37 34 34 35 35 38 41 39 39 39 43 47 49 41 40 41 43 43 45 49 54 53 56 48 43 45 43 44 47 52 54 51 47 46 46 51 63 55 46 40 39 41 41 38 38 40 42 42 41 39 40 44 41 45 40 41 38 43 40 42 44 39 37 37 41 45 46 42 42 45 44 44 44 44 48 46 43 41 37 36 33 36 37 40 37 38 42 42 44 36 34 32 30 31 33 35 36 33 37 36 34 36 38 39 42 45 50 54 56 59 58 58 67 65 68 52 47 46 40 30 32 35 32 34 44 41 42 38 38 40 45 45 42 36 36 33 35 36 33 32 30 31 30 27 27 27 24 27 28 30 28 32 34 37 37 36 37 40 36 40 38 35 34 31 30 27 26 25 25 31 28 31 36 42 40 39 36 33 32 31 33 32 36 38 35 33 36 32 29 31 35 33 29 29 31 32 36 37 36 34 37 35 32 30 28 33 32 30 30 33 34 35 39 50 43 39 40 38 33 28 27 26 25 29 32 31 35 34 30 32 33 34 38 38 34 34 33 31 31 32 29 27 32 34 34 35 34 36 35 44 46 47 41 46 51 48 59 54 47 42 41 43 44 44 43 37 40 40 37 37 36 37 42 39 40 38 37 32 32 36 41 34 31 29 27 29 32 29 30 34 35 35 33 33 32 35 38 42 34 41 45 39 39 43 47 52 60 66 62 59 60 47 44 45 47 54 57 53 51 47 47 45 44 46 47 45 39 36 41 41 43 54 55 61 58 59 61 59 53 47 45 51 57 52 52 58 51 51 52 48 46 46 53 49 40 40 39 41 38 37 32 31 32 31 29 28 28 30 30 33 37 37 36 40 43 43 41 40 47 42 39 45 44 41 52 46 46 45 53 58 43 47 46 46 47 44 51 51 46 45 43 40 43 50 63 73 67 71 64 56 52 62 71 63 82 86 76 78 73 73 74 66 59 57
73 71 69 64 58 51 50 49 44 50 52 44 43 44 46 49 50 50 48 45 48 49 44 45 45 48 53 52 52 51 50 52 50 47 44 42 39 40 45 47 48 48 44 42 42 42 42 40 38 41 44 41 40 42 37 41 41 42 39 42 42 40 40 37 37 41 44 43 38 42 44 55 51 47 50 50 46 47 50 50 43 48 56 56 60 59 54 51 49 47 46 42 39 41 43 46 46 45 44 46 47 44 46 47 44 44 46 46 51 49 48 44 40 41 41 38 37 36 40 43 41 37 33 37 36 38 42 42 39 39 39 42 44 40 37 36 38 42 43 39 40 36 36 34 32 33 29 30 31 34 31 31 27 28 28 29 29 33 37 41 48 47 49 51 51 48 46 53 50 39 34 31 36 32 33 33 36 38 33 35 37 38 43 47 44 47 50 45 44 53 50 42 39 34 36 34 33 32 27 25 25 26 27 29 31 28 25 26 27 30 30 35 36 36 38 38 39 37 37 33 33 32 30 28 26 27 29 30 31 28 31 31 29 30 29 27 31 31 29 30 31 30 33 35 38 35 31 32 37 37 38 36 43 42 43 45 38 37 38 35 32 29 27 29 30 33 30 28 29 43 45 46 40 39 36 37 35 32 29 28 29 31 32 31 29 29 27 30 34 35 35 32 32 32 32 30 30 30 29 31 29 33 32 31 28 32 40 41 38 39 43 39 36 44 47 45 41 39 43 41 41 42 44 37 39 43 42 45 40 40 39 40 39 42 38 34 31 39 43 36 32 30 31 31 29 30 32 31 35 36 32 33 32 36 35 33 30 30 32 34 38 45 53 59 60 52 49 50 52 45 41 48 53 50 46 47 43 43 42 43 46 47 48 44 44 42 43 41 47 44 42 43 45 49 57 53 47 44 45 50 51 48 45 48 48 54 49 46 48 51 55 58 51 45 41 42 37 35 32 30 31 29 29 27 28 29 29 31 34 34 32 30 29 29 28 28 28 28 32 34 32 33 34 34 45 48 45 45 42 46 50 48 45 41 38 41 40 36 39 44 50 59 61 75 80 81 78 65 56 57 62 64 87 88 91 96 87 77 81 75
59 60 54 52 52 46 45 50 57 44 42 41 44 45 44 43 46 43 44 42 43 47 51 50 51 51 47 47 45 47 45 41 41 41 42 45 46 48 46 42 42 42 45 43 39 41 40 38 39 41 39 36 41 43 42 43 48 41 39 39 41 45 43 43 50 54 56 44 43 44 43 43 43 43 43 48 62 54 50 47 52 57 54 49 45 41 41 45 46 41 36 37 38 36 37 42 36 40 45 41 39 37 38 39 46 39 35 35 38 35 37 40 38 38 38 43 44 44 41 37 37 39 41 42 38 38 39 37 36 36 37 35 35 35 38 48 49 45 44 42 44 44 37 35 31 30 28 28 26 25 24 22 23 26 27 30 32 30 36 37 40 37 40 42 40 40 41 34 33 32 36 46 44 41 39 40 37 34 37 38 40 41 39 47 48 55 57 49 48 43 40 41 35 29 29 27 25 26 25 28 29 32 31 27 28 29 29 28 28 31 31 32 31 37 37 36 35 34 38 44 41 37 35 30 33 28 28 25 26 24 26 25 22 23 27 28 24 22 23 24 24 24 26 26 29 28 28 33 34 32 28 29 27 30 31 32 32 32 35 33 32 35 32 31 34 39 35 33 30 31 32 35 39 39 36 42 39 38 35 35 28 29 29 28 29 30 32 32 34 36 34 36 37 34 31 28 29 31 27 29 28 30 30 30 31 30 31 31 32 35 32 31 33 34 37 47 52 55 50 55 51 45 41 39 42 39 33 30 29 30 29 33 36 42 44 42 36 33 37 42 44 39 36 33 32 32 30 31 32 37 35 34 36 37 37 37 38 37 34 32 29 30 34 40 38 42 45 56 52 56 47 49 41 46 47 45 49 54 50 45 41 44 44 42 43 44 43 50 50 49 51 50 41 46 47 48 52 52 53 47 43 46 46 44 45 46 48 48 46 47 47 47 55 52 51 52 51 48 42 43 39 34 35 37 33 30 30 29 28 35 35 34 33 33 33 31 30 29 25 26 29 32 32 32 37 35 38 36 37 41 44 48 53 47 43 46 43 40 41 39 37 37 44 52 51 56 63 72 69 64 65 67 65 62 68 86 86 84 90 85
62 51 45 48 50 51 50 48 43 42 44 48 48 47 50 50 51 47 49 52 51 54 52 51 52 52 51 48 47 49 54 52 52 51 46 47 49 47 44 47 47 44 46 44 44 43 42 46 45 44 44 46 49 55 53 48 41 44 47 48 47 43 54 66 58 50 41 42 44 48 48 43 44 47 49 48 42 36 35 36 35 32 33 32 36 40 38 36 36 35 36 32 34 39 38 39 40 36 33 33 31 35 39 44 38 37 41 37 32 33 34 36 37 36 39 38 34 32 35 38 40 40 46 44 49 48 46 47 47 46 49 41 38 38 40 37 38 36 36 32 32 28 25 25 26 28 28 26 26 26 24 28 32 28 29 31 38 35 39 34 34 29 33 34 37 36 37 38 33 30 32 31 30 33 36 39 38 42 50 43 45 43 45 44 37 43 47 49 47 39 42 38 35 35 36 35 34 36 34 32 29 30 29 23 27 30 26 29 30 27 29 29 30 28 26 28 29 27 32 33 37 31 29 32 28 28 25 24 23 27 26 24 24 24 22 26 24 25 25 24 24 24 21 22 21 24 25 30 30 31 31 33 32 34 35 33 36 39 39 35 34 34 31 30 28 29 25 27 29 29 29 28 27 30 34 33 31 35 31 32 34 32 32 31 32 32 30 31 33 41 46 43 40 34 33 34 35 40 42 39 38 34 36 39 40 37 33 33 36 39 39 32 36 34 31 32 32 32 30 34 30 31 33 38 35 31 32 30 28 28 27 26 28 31 33 35 36 38 35 31 31 30 36 41 36 34 34 32 30 28 29 30 30 30 34 38 38 37 38 44 36 34 38 37 38 37 34 34 37 37 35 37 46 53 52 47 47 47 46 46 50 54 56 50 48 46 43 40 46 50 54 60 58 53 55 55 51 55 54 52 52 52 55 53 53 43 43 50 50 51 53 47 47 44 46 47 51 54 50 44 44 43 37 38 40 37 36 39 36 33 30 29 31 33 35 35 36 35 34 32 29 26 31 34 31 33 35 34 34 33 34 37 39 41 44 43 45 46 44 45 47 47 44 43 40 41 44 49 46 48 57 61 58 59 60 59 68 80 87 90
54 49 51 50 44 40 40 40 40 41 45 47 46 46 46 47 47 43 44 54 50 49 47 47 55 49 48 51 51 51 56 56 59 58 58 59 55 50 52 48 44 51 50 46 42 46 46 49 47 47 52 49 44 42 40 47 49 49 51 51 55 58 57 47 41 38 37 39 42 43 40 39 40 40 40 43 40 36 33 32 36 37 39 37 40 42 39 36 37 39 45 42 47 44 43 41 34 37 38 45 46 44 38 36 35 35 35 40 38 35 34 30 30 32 32 32 34 33 32 34 37 46 47 45 44 41 43 44 46 43 41 45 42 41 43 35 32 32 31 30 26 24 24 28 29 30 31 31 31 32 35 33 34 34 33 32 29 32 30 30 32 34 29 26 31 32 33 30 33 38 33 35 39 45 52 46 44 44 39 36 40 41 41 42 45 41 35 31 29 30 29 30 30 32 37 43 42 44 37 37 32 32 34 31 29 26 28 30 30 29 30 28 26 29 38 34 37 36 39 37 32 31 32 31 30 29 29 26 26 27 26 25 24 25 27 29 27 31 30 27 28 28 27 26 27 25 27 23 24 27 34 32 34 37 32 32 32 28 29 29 31 31 30 33 38 38 35 34 25 25 27 29 29 30 31 29 27 30 31 34 35 35 31 31 35 33 32 30 29 28 30 35 41 41 42 41 41 37 35 37 34 29 32 35 36 35 36 33 37 37 33 39 37 35 37 37 35 35 30 32 29 29 30 29 32 36 36 34 30 28 27 29 28 33 44 45 38 45 44 43 41 36 31 32 35 36 35 34 33 30 30 32 32 33 33 33 35 36 38 42 38 33 35 36 35 38 40 37 37 38 54 45 41 40 41 45 46 47 61 57 56 49 53 61 54 54 53 54 56 55 54 55 50 51 56 44 52 47 50 49 44 45 47 54 67 69 60 52 52 54 52 56 62 62 51 52 49 49 57 59 51 51 50 43 40 41 38 35 38 34 33 39 37 35 33 34 37 39 40 37 37 37 32 29 28 29 29 33 34 30 31 32 33 36 38 38 40 38 37 40 40 37 51 52 48 48 51 50 50 50 49 51 56 60 62 58 56 57 62 68
51 47 45 43 36 35 38 40 42 45 45 49 50 44 39 37 40 41 37 37 38 37 37 31 30 34 37 41 38 34 36 36 45 51 49 43 43 42 43 45 44 43 41 46 47 49 47 44 41 42 42 48 50 50 50 55 54 62 61 58 52 48 46 40 39 42 43 43 42 36 42 42 46 44 44 43 41 39 37 42 44 37 35 37 40 39 39 41 39 45 44 49 47 42 43 42 46 45 44 46 47 43 36 31 30 32 32 30 31 32 32 38 37 39 41 34 35 35 35 40 37 36 32 32 37 36 35 31 33 35 41 42 44 38 35 32 31 32 29 28 27 27 28 27 29 29 28 29 33 36 36 38 35 36 39 39 39 30 28 27 28 29 32 34 31 26 27 30 30 32 35 37 35 33 41 42 48 45 45 48 49 38 40 41 45 39 34 31 30 33 36 40 39 37 40 35 32 37 39 33 33 33 34 29 29 28 30 27 27 26 28 32 31 33 36 35 31 29 29 28 35 40 38 40 37 35 34 32 28 27 24 27 27 29 27 25 23 22 25 26 27 26 27 25 22 22 23 23 24 23 22 26 27 31 28 26 31 33 29 27 35 35 43 39 35 37 35 30 27 27 28 28 27 27 27 29 35 35 32 33 33 28 33 31 33 34 30 32 32 27 27 27 26 28 27 31 33 32 36 34 37 34 30 29 32 30 29 29 33 34 34 30 31 30 37 40 35 32 32 33 35 36 31 34 32 32 34 34 37 38 35 33 28 28 27 29 30 29 28 37 38 44 43 35 34 34 36 39 42 39 45 40 40 38 39 32 34 34 33 31 39 36 34 35 39 39 38 39 37 36 34 32 40 41 41 43 44 45 48 45 52 53 47 52 55 55 56 52 44 43 42 45 43 42 41 41 41 44 41 39 41 40 37 36 37 39 44 51 56 51 51 53 52 57 51 48 45 44 43 48 48 57 61 57 51 47 39 36 36 35 40 38 36 36 36 37 36 37 38 39 42 44 43 37 39 40 36 34 32 32 33 32 33 35 34 36 40 39 36 32 32 33 36 38 42 42 42 43 46 45 42 45 45 44 46 48 53 57 57 57
43 41 35 39 44 44 45 48 55 50 42 41 44 43 43 41 43 45 46 41 41 39 38 39 41 42 42 39 37 42 43 44 40 38 43 46 40 42 44 47 42 40 41 41 43 45 46 50 50 48 53 51 48 52 54 61 52 52 52 45 34 35 36 40 39 39 42 45 46 47 47 46 43 41 41 38 37 42 41 37 39 43 55 53 47 40 40 44 50 49 45 44 45 42 40 37 43 42 46 45 35 32 32 39 36 35 43 43 42 47 47 39 40 40 36 35 39 39 38 32 30 29 31 34 34 33 33 36 33 33 36 35 33 32 32 30 31 33 33 27 28 30 27 24 28 26 30 32 37 36 34 34 32 33 33 29 30 33 32 34 30 30 30 30 29 35 36 37 36 38 37 34 33 37 37 35 36 34 30 40 35 36 34 34 32 35 32 32 35 37 38 33 33 37 34 33 32 30 34 30 31 32 30 31 35 32 36 38 33 39 41 38 33 31 27 28 29 29 31 33 34 29 28 31 31 32 36 33 29 29 30 32 29 28 27 24 23 20 19 22 23 23 21 20 21 23 22 23 22 22 21 18 20 22 23 26 29 31 30 27 30 32 33 34 31 27 30 33 32 31 29 29 28 30 30 30 32 31 31 30 32 33 33 34 29 28 27 29 31 31 27 26 27 27 26 27 27 27 27 29 30 35 36 32 33 40 34 33 32 28 27 36 32 29 25 29 30 32 34 37 34 32 32 33 35 33 32 33 36 36 34 36 32 28 27 28 34 34 32 32 37 45 44 37 45 42 41 40 36 40 38 32 33 30 26 27 25 28 32 35 30 30 33 35 36 36 36 38 41 40 39 35 33 33 35 33 35 40 30 30 30 30 30 37 38 40 45 44 43 51 51 47 48 52 52 49 47 44 51 52 48 45 44 37 35 39 36 33 35 39 37 38 46 50 59 66 59 52 55 47 45 46 44 46 61 60 61 60 48 47 48 40 38 41 41 38 37 35 34 33 36 37 41 42 39 36 37 40 39 39 36 35 32 36 37 39 38 42 44 44 41 39 35 35 41 43 43 40 36 37 42 41 40 42 43 42 40 39 40 43
41 43 46 46 50 56 58 55 52 48 44 45 48 49 51 51 46 41 41 44 43 43 44 42 43 46 47 47 44 45 44 49 49 47 43 42 40 44 42 44 43 44 43 45 48 45 45 42 43 42 43 42 46 46 44 45 47 50 43 43 44 41 40 41 47 50 48 49 43 45 52 47 40 36 35 37 38 40 43 47 50 53 50 46 45 48 52 51 47 46 44 41 38 37 36 37 37 40 37 30 34 38 42 44 42 46 45 45 49 45 42 42 37 35 37 41 37 34 30 32 35 41 42 40 37 39 39 37 41 40 36 30 25 26 28 29 28 30 27 27 30 27 29 30 31 28 28 28 28 31 35 36 33 30 31 35 31 30 34 37 44 37 37 37 36 38 40 38 38 40 39 40 43 39 38 34 30 30 32 37 34 36 36 41 37 33 30 32 30 33 34 35 36 34 33 33 30 28 27 26 28 28 28 27 27 25 27 28 29 30 31 33 28 28 30 34 35 33 31 29 30 24 28 34 35 33 37 37 37 35 32 34 29 28 27 28 27 25 25 25 22 18 19 21 20 20 20 22 22 20 19 18 19 20 22 19 22 26 29 29 29 29 30 33 37 34 32 31 32 34 33 27 27 27 27 28 27 29 27 28 23 31 37 46 36 36 40 30 30 30 32 33 31 30 29 29 29 30 29 28 28 29 33 37 37 29 31 30 31 30 28 30 32 31 29 27 28 27 26 28 30 35 36 36 34 31 29 28 28 32 29 27 30 29 29 29 32 36 34 31 29 29 32 37 38 37 41 35 34 31 31 30 30 36 40 40 41 39 40 34 36 33 32 32 32 36 35 33 31 34 36 33 32 31 32 32 32 39 41 44 39 36 36 36 35 37 38 45 46 48 54 59 66 60 61 59 55 55 56 61 58 58 58 58 51 44 44 47 45 44 38 40 41 40 49 67 70 69 60 57 62 57 58 52 49 63 60 53 57 59 53 52 53 53 45 47 53 50 46 45 39 34 34 38 41 42 43 43 38 42 41 43 38 35 36 31 32 36 37 44 44 41 38 35 36 36 41 49 49 46 40 39 42 42 42 46 45 42 39 38
38 44 46 50 50 47 45 48 47 45 50 46 46 46 46 45 47 48 46 46 50 51 53 64 74 59 53 47 46 49 48 48 49 43 45 42 40 40 39 38 42 42 44 48 45 43 43 42 43 39 39 42 44 42 45 48 39 41 40 46 46 43 49 51 48 49 51 46 47 45 44 35 34 35 37 37 40 43 43 44 42 44 44 43 45 47 49 40 35 35 33 34 30 28 31 32 29 28 26 27 29 33 34 33 31 32 34 37 38 40 36 33 32 34 34 36 35 35 38 40 39 37 38 36 36 41 42 43 42 32 23 23 27 30 29 27 27 27 27 29 31 31 30 30 29 30 30 30 31 30 28 24 25 26 25 25 24 26 26 29 30 33 40 42 40 40 37 39 37 32 31 30 33 36 36 32 34 36 39 37 31 30 27 30 30 30 28 28 32 36 32 35 38 33 36 37 32 33 32 34 41 29 26 29 29 29 30 33 28 28 27 28 30 34 34 36 37 36 29 28 26 25 22 27 28 27 27 35 39 45 37 31 33 31 25 28 30 21 20 17 16 18 18 18 18 20 20 20 25 23 20 20 19 20 20 20 22 25 24 25 24 29 31 27 27 28 28 28 29 32 32 30 29 28 27 26 26 24 22 24 27 27 30 29 28 30 30 29 32 34 30 29 28 25 27 29 30 31 27 24 23 25 25 23 23 25 23 22 23 23 25 27 28 31 27 26 29 33 27 25 27 27 30 30 36 35 30 30 33 29 29 30 30 30 30 28 27 32 37 35 32 33 32 31 32 32 34 35 37 35 32 32 32 31 39 32 39 37 36 35 34 32 32 31 31 32 32 31 29 32 37 30 28 28 29 29 29 28 31 37 40 38 37 37 38 36 36 37 43 44 47 46 53 61 63 55 55 54 55 56 60 60 56 54 55 55 53 46 47 51 51 47 45 44 42 41 52 71 70 70 64 62 68 62 61 57 57 55 53 55 53 56 65 62 51 49 50 46 44 43 40 41 41 44 49 44 52 47 45 45 47 48 52 54 46 45 43 35 35 37 45 48 44 42 37 36 36 36 39 43 50 51 50 50 48 49 48 55 49 39
48 45 48 47 49 46 44 46 48 47 49 46 45 46 49 46 54 55 51 51 56 67 67 58 50 52 53 57 52 47 45 42 43 42 41 42 43 44 46 46 51 51 47 39 42 43 38 40 42 49 50 48 49 49 38 34 35 39 39 37 39 42 43 47 47 46 50 47 37 32 32 36 36 38 40 41 40 39 42 40 40 42 48 52 50 42 39 36 36 33 32 34 40 42 31 31 29 29 32 33 33 37 35 39 41 41 43 41 37 36 34 37 38 35 35 33 35 36 38 42 42 38 35 37 40 43 41 34 26 24 28 31 28 27 25 27 26 29 30 26 27 28 33 35 31 31 29 28 25 27 28 28 29 28 26 27 27 26 27 28 28 31 38 35 46 47 42 42 37 36 34 38 38 39 34 35 34 33 31 30 30 29 28 29 26 27 28 31 32 34 35 30 32 32 30 30 29 30 32 28 28 26 28 28 31 34 38 34 30 30 29 30 34 35 30 29 26 26 26 26 26 26 24 24 26 26 26 31 32 32 30 29 27 28 28 25 23 20 19 20 20 19 18 18 20 22 22 24 26 24 22 22 23 24 25 24 25 24 25 23 21 22 19 22 23 23 26 27 28 28 28 30 29 28 28 27 24 25 23 25 24 24 24 27 29 31 28 32 28 24 30 28 27 22 23 22 22 20 19 19 23 24 22 22 25 24 23 24 21 21 22 28 24 25 25 25 27 31 33 30 29 27 27 32 31 31 31 28 32 35 34 31 29 28 29 33 33 32 36 37 38 38 39 39 36 35 38 30 35 35 35 40 41 33 29 26 26 26 25 23 23 26 31 31 33 33 33 34 33 29 29 35 33 28 31 32 31 29 29 32 33 37 40 39 43 44 41 39 39 32 37 33 36 41 47 49 56 58 55 50 52 60 72 71 65 61 56 56 54 57 52 48 42 34 33 32 31 38 57 69 61 51 56 54 51 49 46 50 54 53 56 55 52 49 47 46 43 40 40 49 47 45 40 37 37 46 48 43 39 36 34 33 34 37 39 40 48 43 40 35 34 36 48 48 46 43 43 40 40 41 38 39 40 40 41 35 39 41 44 51
46 47 44 45 48 46 42 44 42 40 42 44 50 52 54 53 56 55 58 54 56 56 49 51 56 50 48 49 49 49 54 48 40 35 42 42 44 42 45 39 38 43 42 49 47 42 49 50 55 49 43 40 36 34 34 34 36 35 35 38 43 43 44 36 36 35 36 30 32 33 28 34 37 42 45 47 38 39 44 44 47 43 36 31 32 33 32 32 31 33 32 27 26 27 30 31 35 45 44 43 46 43 44 49 46 46 44 43 45 42 36 34 35 38 40 44 46 50 50 48 45 42 43 42 38 35 29 25 25 29 28 28 31 29 27 31 32 31 32 31 33 33 34 34 31 32 29 30 32 33 30 30 29 26 27 30 32 31 31 31 30 30 27 27 29 30 33 35 37 35 40 40 40 35 29 34 33 34 31 32 32 31 33 30 29 28 34 30 31 34 36 36 38 29 25 26 27 31 30 35 39 37 43 40 40 29 29 29 28 29 29 31 31 29 27 32 31 31 34 29 31 30 29 29 27 25 25 23 25 25 28 29 29 26 22 22 21 21 21 21 22 23 23 21 22 23 22 21 25 23 23 23 24 26 25 28 27 22 20 22 24 25 23 22 21 23 24 25 23 25 26 28 27 24 26 27 25 28 30 25 24 26 21 22 21 21 20 20 19 20 20 21 25 26 25 26 25 24 23 19 21 22 25 24 27 26 27 30 30 27 25 24 25 26 24 24 23 24 25 28 28 29 30 30 33 37 39 40 36 36 35 33 32 33 30 31 30 26 28 31 34 33 37 39 39 44 41 41 43 41 37 37 40 41 38 34 31 29 27 27 28 25 25 25 29 29 31 36 37 36 34 30 33 33 29 28 32 33 28 32 32 31 36 39 36 34 37 35 31 31 30 34 32 32 31 29 36 50 45 47 51 47 46 51 49 60 65 68 59 50 55 62 58 55 54 52 43 38 44 47 54 56 54 56 60 57 47 49 41 43 43 44 44 42 41 43 46 47 40 39 46 44 39 36 34 33 32 33 43 44 37 34 32 34 33 32 33 32 33 34 38 38 38 41 43 44 45 47 48 41 43 47 45 45 43 44 45 43 39 40
52 53 48 49 43 43 42 44 46 46 47 50 53 56 60 64 61 56 57 59 53 52 52 50 47 47 48 48 47 43 39 39 44 45 42 40 40 38 40 40 45 47 48 45 44 48 45 38 38 33 32 31 32 32 34 37 38 40 40 41 38 37 37 38 36 35 33 36 34 38 39 43 49 48 42 37 36 37 37 33 28 25 26 27 28 27 27 30 29 30 29 30 34 37 40 41 43 44 43 41 42 39 32 37 35 36 37 36 38 32 31 35 33 37 39 44 43 42 47 41 40 43 38 35 30 28 26 26 32 30 32 30 25 27 29 35 34 31 29 28 31 33 32 32 31 32 30 33 28 28 25 26 27 27 30 33 34 36 37 38 35 32 33 35 33 31 32 34 34 34 38 35 27 28 30 35 35 32 31 28 27 28 28 28 28 29 28 30 28 29 31 28 27 31 32 31 29 32 31 30 31 33 30 31 28 31 31 28 28 27 29 31 27 30 30 32 34 37 33 30 30 29 29 29 26 26 25 24 24 27 25 26 23 26 28 25 25 24 25 24 25 25 26 26 25 25 23 21 22 23 26 26 26 24 22 21 22 22 22 22 22 22 23 25 26 24 22 21 20 21 21 20 19 23 26 29 26 23 24 25 24 22 22 19 18 18 17 17 17 17 18 18 20 18 22 24 25 25 27 25 24 27 27 27 26 26 27 28 33 31 30 27 28 29 31 31 32 30 29 32 31 27 27 29 26 27 32 36 40 36 35 33 31 33 33 35 35 31 28 28 29 28 29 28 23 27 30 28 30 27 33 32 31 32 34 33 32 31 28 24 26 24 27 28 26 29 33 40 36 33 36 32 31 29 28 29 30 30 29 27 27 29 28 26 26 27 26 28 26 26 24 23 28 31 31 32 35 33 37 43 46 46 44 43 46 44 43 44 46 48 55 54 54 54 55 46 46 47 45 47 56 58 56 57 61 66 65 64 55 52 42 44 50 44 44 46 41 42 43 41 41 41 43 43 37 36 35 35 35 39 40 39 34 33 31 34 32 33 35 34 33 35 36 39 39 37 36 38 44 47 47 44 45 47 52 54 56 53 49 44
50 48 49 43 46 45 45 48 56 58 62 58 48 51 48 45 44 38 41 41 40 42 41 40 39 37 39 43 43 45 45 45 44 43 45 48 46 48 49 50 51 46 40 39 35 35 34 33 35 34 36 35 36 37 38 39 39 38 40 36 37 36 37 35 35 37 37 47 50 49 51 50 42 36 36 42 42 36 35 30 26 26 29 31 32 33 34 32 32 30 34 39 42 44 45 37 34 39 40 40 35 30 32 34 33 33 34 37 36 33 41 44 45 44 40 40 40 37 37 37 33 28 28 28 29 30 33 33 32 24 28 26 27 29 32 31 30 28 27 30 30 28 31 31 34 33 32 28 27 27 27 26 30 34 33 35 34 35 34 35 36 38 36 35 34 33 30 32 30 33 32 29 29 28 31 34 30 29 29 29 29 30 30 31 32 30 31 30 31 27 28 31 33 35 38 36 32 29 28 28 29 28 29 31 31 32 29 27 29 28 27 28 28 24 26 26 24 26 29 30 28 28 29 30 28 26 24 25 22 23 24 26 28 25 30 30 33 30 31 29 26 26 24 23 24 23 24 24 25 25 25 29 27 26 24 25 22 20 23 23 25 26 23 24 25 27 22 21 22 19 20 21 22 20 18 23 25 32 27 23 25 24 20 22 23 21 20 19 19 20 19 18 18 20 20 23 25 26 24 23 25 24 24 24 23 23 24 21 23 24 24 28 25 22 24 26 26 30 26 27 28 29 28 26 23 22 22 23 26 26 24 28 31 28 27 25 26 25 29 30 31 30 30 32 29 29 29 28 29 29 25 23 22 23 23 25 28 32 33 32 31 28 24 27 27 25 27 29 35 36 30 34 35 32 30 28 29 27 29 29 32 29 25 28 27 25 27 25 26 26 27 28 31 32 33 35 34 35 32 32 30 42 52 44 44 47 46 43 41 41 44 43 47 50 49 49 47 47 43 39 44 57 64 64 59 63 60 58 54 58 61 55 48 49 54 48 45 42 48 45 43 43 46 51 55 43 43 39 40 39 39 43 48 44 40 36 34 30 30 30 32 32 34 30 42 43 45 44 34 34 37 38 38 33 34 38 37 50 54 56
54 51 52 49 56 60 57 58 61 59 54 51 47 46 46 44 43 41 41 38 34 32 40 41 38 39 40 48 51 45 44 43 44 46 51 48 49 48 47 48 51 45 39 38 39 41 40 39 39 40 41 45 44 44 43 47 39 39 42 39 40 39 39 41 42 47 54 49 45 46 44 41 42 44 42 42 41 35 36 34 37 39 40 41 38 36 34 34 37 40 39 42 40 42 36 36 38 39 38 36 31 32 36 34 34 35 37 37 42 43 40 41 39 38 36 37 39 37 34 29 33 32 31 29 30 32 32 34 32 32 32 32 34 32 29 29 28 31 33 32 29 32 31 31 29 27 28 31 30 32 34 34 38 40 40 40 41 40 37 33 31 32 31 33 37 39 38 32 32 29 29 32 30 27 25 27 28 28 30 30 29 29 27 30 31 31 30 29 27 28 31 32 31 33 31 32 27 27 29 32 33 31 37 37 43 35 29 30 30 31 30 31 29 26 27 26 25 28 29 31 34 34 30 30 29 28 29 26 23 29 28 25 30 33 30 37 37 34 38 33 30 37 30 30 28 24 26 28 27 24 23 25 29 31 27 27 24 24 26 26 27 25 23 23 23 23 23 24 24 23 22 19 20 21 22 22 22 23 24 24 26 25 23 23 23 25 23 24 25 22 24 22 22 21 20 23 23 21 23 24 24 23 21 22 23 24 25 24 21 21 24 24 22 21 21 22 23 25 30 29 26 25 25 24 24 24 26 24 22 25 26 27 28 26 25 25 26 29 31 26 29 33 34 36 41 36 34 32 30 32 32 29 27 27 26 28 28 28 35 35 33 32 32 29 29 31 31 28 28 30 29 31 35 36 35 36 39 34 33 32 31 30 29 27 29 28 29 30 30 30 29 29 29 28 28 29 32 37 34 35 35 33 30 32 41 42 45 46 45 45 45 48 44 43 54 54 48 44 41 43 42 41 48 59 64 63 56 58 66 66 71 68 61 59 53 54 58 58 56 56 55 53 49 47 54 59 53 52 53 49 46 42 40 45 46 41 42 42 41 38 33 29 30 33 34 36 37 43 43 44 42 37 39 43 40 36 41 42 39 38
49 54 55 65 60 57 57 54 44 44 41 42 42 39 39 38 38 36 32 36 39 38 41 39 42 46 47 43 41 45 44 43 43 39 44 44 45 53 53 49 42 40 42 39 39 35 33 39 43 45 39 40 42 41 36 39 42 43 46 42 44 41 46 46 49 44 50 60 53 50 47 43 44 41 42 33 34 36 36 40 42 42 39 37 38 34 34 34 36 40 42 37 38 37 39 41 42 41 36 36 38 37 35 34 34 37 38 37 39 38 41 43 41 46 46 38 34 29 29 30 27 28 31 33 30 28 31 31 32 30 29 29 29 28 31 30 33 29 27 28 27 29 27 28 29 30 33 41 41 44 41 36 35 36 38 41 37 36 36 39 36 36 40 44 41 40 30 28 29 28 31 27 25 25 24 27 30 30 27 26 29 27 28 29 30 33 29 24 27 28 29 29 29 28 29 35 32 33 32 32 37 36 37 35 35 34 33 29 30 29 31 33 33 31 32 33 31 29 31 41 35 26 30 28 30 32 31 27 24 27 26 26 24 25 34 35 34 32 31 26 25 29 30 28 26 30 27 25 27 27 26 26 29 29 26 24 24 20 20 24 23 23 22 21 21 21 22 18 21 20 17 22 24 24 23 22 22 22 23 22 24 22 21 23 23 27 25 26 28 30 29 26 29 25 23 21 22 23 23 25 23 23 25 24 23 22 23 25 24 26 25 27 28 26 26 24 24 23 23 27 30 29 27 27 26 26 23 24 24 21 22 23 27 27 25 24 24 24 29 33 34 31 30 30 33 31 35 39 36 36 42 36 30 29 29 27 28 28 27 29 29 31 32 30 27 27 28 35 38 38 37 33 30 32 36 35 38 39 41 38 34 32 34 37 36 32 31 36 38 35 32 27 31 33 29 29 31 32 35 36 41 40 35 36 34 37 40 50 52 48 47 45 48 46 46 49 63 57 52 47 44 43 40 43 66 69 60 57 60 63 61 56 66 74 65 63 61 77 76 64 67 65 65 66 56 49 58 57 53 54 50 50 50 51 45 42 43 47 50 46 44 38 39 39 36 34 35 33 34 34 38 41 42 40 39 45 48 48 37 39
55 52 53 47 45 43 39 35 37 39 39 39 40 37 36 36 33 34 35 40 43 45 43 44 39 40 42 39 41 41 41 43 48 48 48 49 47 48 42 40 38 36 37 39 42 42 39 38 35 34 40 40 37 41 39 36 37 44 43 41 44 39 43 39 39 38 35 35 33 32 35 34 38 35 30 27 27 30 30 26 26 29 36 35 31 32 34 39 41 41 39 39 41 43 46 45 45 42 42 43 41 43 40 36 39 41 43 44 41 46 50 47 46 40 37 36 30 29 27 26 28 29 27 25 27 28 30 31 31 31 29 28 27 26 28 27 26 29 28 26 27 29 30 31 36 42 40 43 42 37 37 34 37 36 36 32 30 34 38 41 41 40 39 37 33 28 23 27 28 31 31 28 29 31 32 32 31 29 31 32 32 33 36 32 30 29 28 26 24 23 21 21 22 23 27 35 36 38 35 38 40 38 33 34 31 27 30 31 31 30 27 25 24 25 27 30 32 33 33 30 28 30 28 25 29 28 25 27 27 28 27 26 24 26 26 29 35 34 31 32 32 33 33 31 33 29 30 28 28 26 26 24 22 25 28 26 23 22 22 21 23 24 25 24 25 29 25 22 21 22 21 22 20 23 24 25 28 29 26 28 27 26 22 21 21 23 25 21 22 22 20 19 22 23 26 27 25 24 22 21 19 20 18 23 27 26 25 25 26 25 25 25 26 30 29 31 30 31 26 24 30 29 27 28 30 29 26 23 24 24 23 23 20 23 26 27 28 26 25 24 24 28 29 35 36 37 38 33 34 35 35 38 37 37 32 28 26 25 24 27 27 26 28 34 31 29 28 26 25 27 27 29 31 30 26 25 27 27 26 29 26 26 29 34 30 32 31 30 32 35 34 36 30 27 30 30 27 28 30 30 35 40 32 29 30 32 31 32 37 44 50 48 43 44 47 56 49 44 46 49 47 45 41 41 40 60 71 76 63 61 66 75 78 68 61 62 68 61 65 63 63 63 69 75 69 66 59 55 60 54 53 48 49 49 55 56 56 50 44 51 54 50 45 43 44 44 43 45 42 42 41 38 37 41 43 43 44 41 38 41
38 39 37 32 35 35 32 34 36 42 41 39 37 38 39 38 38 38 40 43 45 45 45 44 45 44 43 43 41 43 49 51 51 51 52 52 47 34 31 30 36 40 37 42 37 33 33 31 34 40 40 43 48 45 41 47 49 40 32 36 34 32 31 31 33 32 27 25 30 34 36 30 27 25 27 30 29 25 27 30 32 34 35 33 33 36 36 40 44 41 43 37 40 43 48 48 50 47 43 40 40 41 51 43 43 48 48 45 50 50 44 40 36 29 25 21 22 25 27 27 25 21 23 27 28 29 31 30 26 25 23 24 26 25 26 26 25 26 29 32 37 37 36 34 40 38 33 34 38 43 45 39 35 34 35 35 35 34 35 39 41 36 37 38 28 29 29 32 33 31 32 31 32 31 31 29 27 28 32 32 31 30 35 36 27 25 29 30 24 24 25 29 28 22 24 27 27 28 37 32 37 28 23 27 27 29 26 24 28 28 26 24 26 31 24 23 25 24 25 28 34 38 33 36 38 36 38 32 30 26 26 24 25 26 31 30 37 36 40 39 41 41 41 37 39 42 40 30 25 27 26 26 25 26 29 26 22 22 23 23 21 22 21 22 23 20 24 30 29 29 23 20 22 23 25 22 22 25 23 28 30 31 26 24 20 22 22 18 18 20 20 22 20 22 22 22 24 23 19 21 22 23 22 24 24 28 29 27 22 23 25 27 27 27 31 31 32 31 29 26 22 25 28 28 30 32 31 28 27 28 27 26 27 25 21 22 23 26 28 28 25 24 25 26 25 27 25 26 25 25 26 25 26 25 29 29 29 29 27 29 29 29 26 26 28 23 21 24 24 26 29 32 32 34 39 30 29 28 28 29 29 28 26 26 28 26 23 25 26 24 24 28 27 25 25 28 30 32 27 26 28 32 33 39 40 35 36 30 29 28 31 34 43 47 47 45 55 54 57 57 52 54 55 44 39 37 49 65 58 59 55 59 61 83 81 71 68 58 66 69 61 62 62 54 56 54 72 66 50 50 50 50 53 50 54 51 63 62 59 52 51 58 52 52 44 44 43 43 39 39 43 41 41 42 42 41 52 51 49 45
35 32 30 32 37 41 43 43 44 39 40 38 35 33 34 38 39 42 44 42 41 39 37 39 42 38 41 43 45 49 50 51 52 50 48 35 32 33 35 38 38 35 34 33 36 37 39 40 41 45 45 45 45 44 37 33 32 33 35 34 34 33 33 34 31 30 32 34 34 34 30 29 30 31 30 29 30 31 33 35 34 34 32 33 35 36 37 36 39 42 43 43 54 64 48 44 40 33 34 41 39 41 44 45 46 42 41 42 45 37 27 25 26 24 24 27 29 29 27 27 25 27 27 27 26 30 27 27 28 28 30 32 28 29 26 28 26 27 29 27 31 38 39 38 35 35 37 36 36 34 36 35 36 38 38 37 32 34 38 41 37 36 35 28 28 30 33 32 32 30 30 32 32 35 36 32 31 30 32 36 39 40 29 26 24 25 23 27 29 27 27 25 25 25 24 26 28 27 28 29 29 25 27 26 25 24 23 24 24 24 22 24 24 23 24 23 25 25 24 25 32 32 33 33 40 38 42 38 32 34 34 31 32 30 27 26 28 28 28 29 29 30 35 31 34 36 35 30 29 27 27 26 26 24 24 24 23 23 23 24 22 22 23 24 23 26 26 22 21 23 26 28 27 27 29 28 28 27 26 24 24 24 24 23 21 21 24 21 23 23 24 25 23 23 22 23 18 21 23 24 24 23 24 23 25 24 25 22 24 24 25 24 23 23 25 24 25 25 24 22 24 22 23 25 26 30 31 32 31 31 30 29 29 29 25 25 25 26 30 32 30 27 25 28 28 25 26 29 28 25 26 25 26 30 25 28 30 31 30 28 28 28 26 25 24 27 25 22 21 23 25 28 33 34 34 30 33 30 30 31 34 37 35 32 32 30 30 29 29 31 26 24 30 27 24 22 25 28 31 29 28 28 36 39 38 38 38 34 35 37 33 30 29 34 38 40 39 50 61 60 60 53 51 48 48 47 47 48 53 57 54 46 44 60 65 74 70 57 61 60 57 69 62 56 48 50 53 57 64 61 54 56 56 52 50 51 52 57 62 57 57 55 53 55 51 47 48 46 46 45 45 50 49 42 39 37 37 37 38 44
37 38 46 44 38 38 36 39 43 46 39 35 39 40 40 43 43 45 47 44 44 45 48 47 44 42 43 43 45 48 47 44 40 34 30 32 35 35 40 38 34 36 41 39 44 44 45 48 46 39 38 42 37 33 35 36 35 35 33 34 38 37 40 33 33 35 35 33 33 33 32 34 32 31 31 31 32 34 37 35 34 31 33 33 34 39 40 39 41 41 48 57 52 41 39 34 33 36 42 31 38 31 28 32 30 28 28 29 25 25 25 24 23 25 30 30 31 30 29 30 27 28 29 29 29 27 28 27 31 32 32 31 32 33 28 27 28 29 27 29 33 31 34 37 36 35 36 39 34 33 36 38 33 32 32 38 39 38 39 38 36 33 28 27 26 28 25 24 23 23 24 26 26 29 29 27 28 28 32 33 31 26 25 23 23 26 25 27 26 24 25 28 26 25 27 27 30 29 29 28 25 25 30 32 30 23 24 25 27 26 26 27 28 26 27 30 28 25 22 23 25 26 27 28 24 27 24 26 26 31 31 34 43 40 34 29 25 25 28 28 31 31 30 30 30 29 30 27 24 26 31 31 29 28 25 28 33 32 27 29 28 25 28 29 28 31 29 28 26 25 25 24 24 25 24 24 27 23 21 20 20 23 25 27 25 23 24 24 24 25 24 23 24 24 21 23 22 21 20 18 19 18 21 21 22 22 21 20 21 18 22 23 23 24 23 24 22 24 22 24 26 23 22 26 24 29 26 26 26 29 29 31 32 36 36 36 33 25 25 27 28 30 33 32 29 28 28 29 32 27 33 30 29 32 30 30 30 32 30 35 34 30 28 28 29 29 28 27 33 28 29 26 25 28 32 36 38 39 36 32 34 36 32 38 32 34 33 38 35 34 31 29 27 28 32 33 27 25 23 27 28 28 29 34 30 39 38 41 39 42 40 39 42 39 33 30 36 38 34 42 46 51 54 51 46 47 43 45 53 56 52 61 66 61 56 67 68 59 63 61 54 54 53 51 55 58 59 62 60 58 63 59 60 61 66 72 62 56 56 62 60 54 52 54 58 52 48 45 52 53 54 51 47 48 45 40 35 32 41 45
39 41 40 39 39 41 48 47 43 36 37 38 41 40 43 46 51 55 52 51 53 53 46 43 44 50 48 50 48 49 50 42 37 39 40 39 36 35 38 39 40 43 40 39 39 40 39 38 41 42 41 38 33 36 35 34 35 36 37 37 33 34 33 35 35 36 36 35 34 33 33 33 34 33 34 39 39 34 33 34 32 37 37 35 33 33 36 39 38 37 35 34 27 26 26 28 31 28 27 29 29 29 29 28 30 31 30 30 27 28 27 28 29 29 28 30 33 32 32 32 35 33 31 31 28 26 26 29 31 29 28 33 34 34 34 37 38 38 36 34 32 30 35 33 33 30 30 28 31 33 36 35 34 34 33 26 26 25 28 25 24 24 23 23 23 25 24 23 26 26 25 25 24 23 27 28 31 30 30 26 23 24 23 22 25 23 22 22 24 24 23 24 25 25 24 26 30 31 31 29 25 25 28 32 35 38 36 30 27 28 26 28 26 28 30 32 30 26 27 26 29 27 29 26 27 27 26 25 27 30 27 29 32 28 28 26 21 23 23 23 25 26 25 27 30 26 28 29 27 26 24 27 26 27 26 24 28 29 34 38 33 29 28 27 26 29 29 29 28 26 26 25 24 24 26 27 29 26 23 23 23 22 24 24 25 25 23 24 26 24 22 23 22 24 23 20 21 21 22 21 21 20 19 18 20 21 23 22 24 26 24 23 25 26 24 21 22 23 22 23 25 26 24 24 24 24 27 29 30 33 31 31 31 32 34 34 33 30 27 26 24 26 28 27 29 32 28 30 35 35 28 27 28 29 27 25 25 23 30 34 35 31 32 29 29 31 31 33 35 34 31 29 28 27 29 34 38 41 42 45 37 37 37 33 34 33 32 30 32 32 29 29 29 29 30 30 29 29 27 27 26 28 28 28 34 36 34 35 36 38 39 38 37 36 35 36 34 35 37 37 44 44 40 39 37 39 39 37 34 43 52 55 55 56 62 64 55 57 54 56 55 49 50 55 52 53 55 59 72 67 67 69 68 64 63 72 76 80 74 68 68 67 62 60 60 63 62 58 55 54 59 54 52 55 58 57 52 44 39 36
41 41 39 41 49 48 42 39 40 42 44 44 45 52 55 53 53 56 55 50 41 45 49 50 47 50 44 49 45 41 41 41 44 44 35 34 39 40 39 41 42 38 41 39 40 45 49 49 46 49 39 33 32 34 35 30 35 36 39 38 37 39 33 35 34 36 33 37 38 35 32 33 32 37 38 33 37 39 34 33 37 33 35 36 37 42 41 38 36 35 30 24 22 25 27 27 30 33 30 30 27 30 28 31 31 33 31 27 23 27 26 29 28 33 36 37 30 30 32 34 33 29 26 25 29 29 33 37 35 35 38 40 38 36 41 45 42 36 38 39 39 41 39 34 32 26 23 28 27 20 20 22 21 21 27 29 27 28 28 26 26 27 24 21 23 24 30 30 27 28 28 29 32 32 30 32 32 27 24 22 22 20 21 21 21 22 25 27 23 23 25 24 26 20 23 25 27 27 27 27 33 35 37 30 35 34 37 35 41 34 28 22 23 25 27 27 29 30 29 30 35 33 34 37 37 34 28 34 33 35 32 30 24 24 29 28 31 29 27 28 32 33 32 28 27 25 26 27 28 26 26 28 29 26 25 25 25 23 25 28 32 31 30 31 28 29 29 25 25 27 28 26 24 23 21 25 30 30 34 33 29 29 25 30 28 30 29 27 26 27 26 24 20 20 23 23 27 22 23 27 27 26 25 25 23 22 24 23 26 26 29 28 29 24 24 22 24 22 20 21 23 25 25 28 29 30 33 28 31 37 42 40 42 38 36 37 35 33 40 39 36 35 33 29 30 30 32 34 38 41 41 39 37 33 35 33 32 30 29 29 31 29 29 34 37 34 28 28 29 31 30 33 35 38 32 30 29 36 37 37 36 33 35 32 32 31 35 34 35 32 39 39 37 34 33 33 33 32 34 37 33 27 30 33 33 31 32 39 39 37 34 40 41 38 39 41 39 35 35 35 46 57 53 57 45 40 40 37 35 34 35 35 38 41 47 53 60 60 55 56 58 60 58 57 59 58 55 55 48 58 65 70 69 56 68 71 68 59 60 63 67 71 71 71 61 55 53 50 62 59 57 52 52 51 45 44 49 57 57 53
42 40 42 42 41 45 44 46 44 47 48 54 60 57 57 59 47 42 42 42 42 41 47 46 41 42 41 43 43 43 44 39 38 35 37 38 42 46 44 40 41 41 40 43 43 38 40 43 44 38 36 37 34 38 36 39 41 43 43 38 40 42 41 42 41 42 36 32 33 32 37 36 36 37 37 37 40 36 36 37 40 43 44 44 41 42 43 38 29 24 23 27 29 30 26 25 24 24 24 27 30 29 28 28 27 26 24 25 27 30 28 33 31 30 30 30 31 31 28 29 29 27 28 28 28 29 31 35 36 33 32 25 36 38 38 38 36 37 39 36 30 27 26 20 19 20 22 24 24 24 25 24 25 23 21 25 26 27 26 25 24 23 22 23 23 24 21 21 25 27 26 29 24 26 28 27 25 25 24 25 24 24 25 25 24 25 27 26 22 24 25 24 22 24 27 30 30 26 28 30 31 32 29 33 33 32 32 33 32 30 28 30 30 30 25 25 28 29 28 34 40 38 37 35 32 37 42 41 37 34 33 32 29 30 33 34 31 34 35 38 34 30 30 27 26 26 28 29 32 29 25 25 24 22 25 25 22 24 24 23 24 25 29 30 31 26 27 28 27 28 28 27 25 25 26 23 19 19 23 23 23 24 26 22 22 23 22 24 28 25 24 24 21 22 24 25 25 27 28 28 28 31 28 30 28 27 27 22 20 20 21 22 23 21 21 23 24 23 23 23 21 20 19 21 24 27 26 31 31 34 39 42 41 38 38 37 36 32 33 35 37 36 39 37 36 36 31 28 36 33 32 32 34 33 37 39 34 33 30 29 28 27 28 30 31 31 35 36 34 34 34 32 32 33 33 38 38 33 31 33 31 30 32 37 34 32 32 35 35 33 35 35 40 39 38 39 38 38 35 39 43 44 44 38 39 39 38 38 40 48 43 39 42 47 43 40 41 42 39 41 39 37 45 50 50 46 45 39 32 33 35 36 36 36 35 37 44 59 68 65 62 60 57 56 59 60 60 55 55 52 54 58 65 69 62 61 63 61 55 58 49 48 48 57 62 58 57 54 52 46 43 58 62 60 57 55 56 53 53 53
41 41 44 47 49 49 44 42 49 55 54 61 54 50 44 41 43 42 39 42 46 48 40 37 39 43 44 50 51 42 39 33 39 41 45 47 54 45 44 43 46 42 39 39 38 44 43 45 40 31 34 37 39 45 42 42 44 40 39 43 44 43 41 46 43 38 36 35 35 36 38 38 32 34 37 34 38 38 39 41 39 44 43 42 38 38 27 24 23 24 26 27 24 23 25 25 25 24 24 25 25 25 26 28 26 24 28 27 25 24 25 27 29 28 22 22 22 27 27 28 28 27 30 28 29 29 27 27 23 24 25 26 29 29 29 31 28 28 29 29 27 22 19 21 22 23 25 27 27 26 26 28 29 29 32 30 32 30 27 26 21 20 23 28 27 27 26 26 27 26 27 28 29 28 25 23 22 22 25 29 29 28 27 28 26 27 27 27 27 24 23 25 25 27 29 32 30 30 29 27 26 28 26 23 28 32 32 30 29 31 33 31 29 29 27 27 28 25 27 27 24 21 22 21 22 23 25 32 36 36 33 36 35 35 36 34 32 40 39 34 30 31 33 32 32 32 30 34 35 31 31 30 25 21 24 27 27 29 32 32 31 26 25 29 32 33 31 30 30 29 26 25 26 25 21 22 21 20 21 22 25 27 25 27 26 26 22 25 28 26 29 24 27 27 25 26 28 25 21 25 26 24 23 22 22 23 20 21 19 18 22 23 23 24 25 25 23 23 23 22 24 24 27 24 23 24 29 32 32 31 33 36 36 31 32 32 31 32 34 36 34 36 47 46 36 32 36 35 32 47 46 42 38 35 37 41 41 38 41 43 37 36 36 31 33 35 37 34 35 32 33 36 37 37 35 35 38 38 35 35 33 30 29 30 36 36 35 34 36 36 31 31 33 35 40 39 37 41 45 40 38 35 37 38 37 37 38 38 39 36 37 38 39 41 44 43 39 34 38 36 37 37 37 36 49 56 52 54 49 45 35 33 45 44 43 38 35 36 43 50 72 71 62 65 67 67 66 73 73 45 55 52 57 65 56 45 41 46 44 42 36 37 37 39 42 39 37 47 45 48 53 54 51 53 58 53 56 58 60 55
48 47 52 51 44 43 47 47 53 56 51 44 38 39 41 41 39 37 41 46 44 41 48 49 45 43 44 39 37 36 39 45 42 46 43 38 39 40 43 43 40 38 41 38 39 43 42 37 35 35 38 41 42 37 35 34 33 31 28 23 26 27 32 31 30 30 32 34 34 36 36 30 30 30 29 34 36 35 35 39 41 41 39 35 32 23 21 25 28 28 27 25 26 26 23 23 25 24 26 27 25 27 30 27 28 28 28 24 23 28 27 24 22 21 22 24 27 29 28 29 28 29 31 31 32 33 32 28 27 30 30 30 29 29 24 19 21 24 22 21 23 25 24 27 30 27 25 23 23 22 25 27 29 30 27 26 22 24 23 21 21 20 20 21 22 22 26 27 30 31 31 26 25 25 25 24 23 22 23 23 24 26 27 24 22 24 25 27 29 24 29 35 35 30 30 32 29 34 34 37 33 28 27 27 28 29 28 30 32 33 35 34 31 30 29 29 28 26 26 24 24 25 24 24 25 23 25 22 20 23 24 26 28 33 37 31 32 31 29 35 38 38 34 32 33 34 39 37 34 34 32 32 30 29 33 31 27 28 27 29 30 28 27 26 24 23 22 23 20 22 21 21 21 21 22 21 22 22 23 25 27 28 29 24 25 29 29 27 28 23 29 34 31 26 26 25 24 22 22 24 26 24 23 21 20 21 21 21 21 20 18 18 21 22 22 25 27 24 24 24 23 24 26 27 28 27 27 29 29 31 23 22 22 25 27 29 27 29 26 27 28 30 33 39 42 39 33 36 31 33 43 44 37 36 38 34 35 41 41 42 43 45 42 39 38 38 40 40 39 36 37 37 39 40 43 39 37 35 38 33 31 33 35 30 32 33 36 38 33 31 31 28 26 27 29 31 31 30 31 28 31 33 37 40 38 36 33 36 33 33 34 34 33 33 37 46 54 53 48 48 42 43 42 39 41 48 56 55 56 54 50 43 41 42 44 49 48 45 46 43 38 39 42 43 45 44 40 37 45 52 49 42 42 44 45 48 41 38 41 42 47 48 45 44 39 38 41 46 41 40 40 40 38 37 42 45 45 45 47 50
46 49 46 44 48 48 51 50 38 40 39 43 45 47 43 35 37 44 45 47 45 47 41 40 39 38 39 38 32 35 36 37 39 34 32 40 43 46 39 34 38 36 37 42 40 37 36 35 38 40 39 36 29 32 32 33 29 25 26 29 31 32 30 31 29 33 36 36 34 31 29 30 36 35 39 33 34 39 41 45 41 32 27 21 24 26 28 26 24 23 22 23 25 20 21 24 29 30 32 36 37 37 30 26 32 32 28 26 25 26 25 25 26 26 29 28 26 29 27 28 33 35 36 37 30 30 28 29 31 36 32 28 26 25 25 20 21 24 26 27 28 28 26 27 29 25 23 23 25 27 28 26 24 25 29 27 26 26 28 27 22 21 22 25 26 26 25 24 26 24 26 24 22 21 22 22 24 31 30 23 26 26 23 24 22 22 21 23 24 29 29 26 28 33 32 30 30 28 25 24 27 26 26 29 34 32 29 32 30 33 35 40 40 37 42 42 38 37 35 36 31 31 32 36 32 27 24 26 25 25 33 30 33 28 31 36 37 40 36 37 43 45 42 39 34 31 31 31 35 36 35 26 29 29 32 30 31 30 28 27 30 28 30 32 32 36 31 32 27 23 28 26 27 27 27 23 24 23 22 21 20 24 21 25 27 29 30 27 27 25 25 26 34 28 26 24 25 23 21 21 23 22 26 27 25 23 23 23 23 24 25 22 22 24 22 22 21 20 24 24 24 24 23 24 26 25 22 21 18 21 21 21 23 24 27 33 30 29 29 28 30 25 29 32 29 31 32 39 32 29 36 41 43 47 37 41 38 41 46 41 34 39 39 43 43 42 40 40 39 48 46 44 42 46 39 36 42 41 33 34 33 32 30 28 29 32 33 40 46 46 44 42 35 31 27 28 32 35 32 30 23 24 25 27 29 33 33 33 33 38 39 40 42 41 36 35 35 39 37 42 40 44 50 50 45 46 47 64 54 54 66 62 46 39 44 42 47 47 43 44 47 46 43 43 37 42 42 45 40 38 43 43 42 40 46 46 51 52 46 45 39 44 47 45 44 40 38 35 42 44 39 38 37 40 44 40 41 48 44 41
50 48 52 49 48 49 45 49 52 52 51 51 46 39 37 40 44 43 45 42 43 41 45 49 46 43 36 34 37 34 31 34 35 31 28 31 31 34 34 33 33 38 37 37 40 39 35 32 34 31 31 33 30 31 30 29 34 38 35 35 35 31 29 35 39 41 42 34 31 31 35 31 30 30 35 39 40 41 38 33 27 24 24 25 25 22 23 23 22 23 21 20 22 26 32 29 29 32 34 41 33 30 31 31 31 30 30 30 26 24 25 27 26 29 29 30 30 28 27 26 29 30 30 33 31 33 32 34 36 34 29 29 32 30 27 34 30 30 27 31 28 25 23 23 25 26 24 26 27 28 28 26 26 26 28 27 25 24 22 22 24 27 28 30 30 27 26 24 21 19 18 17 19 17 17 18 19 20 21 21 22 22 23 23 24 27 28 25 27 28 31 36 37 36 30 28 23 25 28 29 33 33 31 29 28 29 30 37 36 43 40 39 40 38 38 38 36 36 29 32 37 42 38 39 41 34 34 35 40 45 38 36 35 33 29 32 33 35 33 33 36 39 43 38 35 36 36 27 35 35 32 36 37 37 34 34 38 40 33 31 39 38 32 34 35 38 40 39 38 38 35 32 31 32 32 29 27 26 28 30 25 27 29 30 32 30 30 26 23 25 23 27 25 24 25 24 25 21 21 20 22 22 24 25 25 27 27 25 23 26 26 22 21 21 21 21 22 21 20 20 22 25 23 22 21 21 20 20 20 20 21 23 24 24 23 22 23 31 32 36 30 29 28 30 32 33 32 36 51 45 37 38 45 43 43 44 40 41 42 46 46 41 35 40 43 40 45 51 46 43 38 36 35 36 37 36 38 35 36 44 39 40 35 35 31 30 29 34 36 41 42 47 49 53 49 42 29 30 34 36 34 30 30 29 27 30 31 35 32 33 32 32 30 30 31 28 28 30 31 32 33 29 30 32 32 40 40 46 49 52 53 57 59 58 50 49 46 44 47 46 44 46 42 51 50 50 45 48 48 46 46 44 46 43 41 44 46 49 49 51 49 51 50 43 42 42 43 43 41 39 39 40 45 45 43 43 40 41 45 49
54 50 51 56 52 54 57 51 43 45 42 35 38 39 43 43 47 45 45 43 45 45 47 45 36 35 37 36 33 37 38 37 30 29 33 37 38 33 39 39 35 36 40 40 37 32 29 33 36 36 34 32 29 30 33 32 34 36 34 28 31 38 38 44 38 32 27 29 32 31 32 31 38 37 42 38 31 26 24 21 21 20 22 19 17 20 19 19 18 22 26 27 28 29 32 34 40 38 37 35 34 33 34 33 34 32 28 26 30 29 28 29 31 31 30 27 27 27 30 30 31 32 28 29 32 32 38 40 30 28 27 26 32 28 30 31 33 41 29 24 23 25 25 25 25 27 26 32 33 30 26 23 23 26 27 23 22 22 23 26 26 29 30 27 23 20 22 20 18 20 19 20 21 22 26 24 23 22 22 23 23 25 25 27 29 32 34 34 35 37 40 38 30 28 23 24 23 26 29 31 36 35 31 29 29 30 31 31 33 29 30 31 31 31 38 38 29 30 32 32 29 30 29 32 32 36 36 28 28 30 25 25 24 24 30 32 34 37 37 37 35 34 36 36 33 32 31 34 39 42 49 42 43 44 34 38 38 31 46 46 35 31 31 31 28 30 28 28 40 49 36 31 28 33 32 32 28 28 29 28 26 24 28 27 37 34 26 28 28 25 25 25 24 28 26 25 22 20 22 23 21 25 25 26 24 30 29 28 27 27 24 23 23 21 21 22 24 20 22 22 22 21 23 20 20 27 25 24 26 23 22 21 23 26 25 21 25 22 28 38 34 36 32 29 34 37 31 31 33 35 40 42 49 52 48 46 42 40 49 40 38 44 36 34 32 35 38 43 42 41 41 37 36 38 41 38 38 40 38 44 49 55 58 44 44 49 37 33 36 37 35 35 38 40 43 48 48 42 35 34 33 42 36 28 27 32 29 32 41 43 33 34 31 29 27 27 28 29 26 29 33 30 30 27 27 28 29 34 38 43 41 42 47 52 53 59 65 52 46 52 54 53 53 59 55 55 54 51 46 47 53 56 56 52 52 58 46 46 52 53 51 52 51 45 50 50 50 41 40 41 40 43 42 39 44 50 53 51 46 42
53 51 48 52 46 48 47 49 51 47 43 43 45 50 47 48 48 46 46 46 42 45 42 35 37 37 40 39 37 37 36 36 37 39 44 43 42 41 38 39 40 47 42 33 32 35 37 38 39 31 30 30 31 32 34 38 37 32 36 37 37 35 34 33 29 28 28 30 32 34 34 38 33 25 28 31 28 26 20 20 21 22 21 23 24 21 21 23 25 28 29 31 33 31 39 39 37 34 32 30 30 30 33 36 31 28 27 29 24 24 25 24 25 26 24 27 27 32 35 33 29 27 26 25 24 25 23 18 18 19 21 19 19 20 23 20 25 23 24 24 25 25 30 28 26 28 31 26 29 26 25 25 25 26 25 24 23 23 23 22 23 24 23 22 23 23 23 24 22 23 24 24 24 28 29 27 27 30 27 23 23 24 28 31 33 31 35 36 39 39 35 30 26 24 28 30 30 25 21 26 28 32 32 33 33 30 28 27 27 29 29 34 33 34 38 42 39 36 36 33 32 29 29 29 33 36 38 39 35 34 33 35 34 35 34 33 31 34 42 37 36 34 32 38 35 38 40 39 38 37 31 32 37 41 45 47 48 40 41 36 32 34 31 27 26 24 24 23 24 23 30 30 26 25 32 26 34 37 30 30 30 28 25 26 27 27 27 29 27 25 23 24 27 26 25 26 24 25 25 24 26 26 32 31 34 31 28 30 28 26 26 27 25 22 21 22 23 24 25 27 22 21 21 18 20 19 23 25 24 24 26 24 24 23 28 26 27 26 26 26 31 34 33 34 32 33 36 38 39 39 35 32 34 39 45 48 43 39 38 37 38 35 38 38 37 34 35 35 40 42 37 37 39 41 38 37 36 39 38 36 36 45 59 56 57 47 44 41 36 43 45 47 41 42 42 44 42 39 39 45 39 39 37 33 35 31 30 31 32 34 34 36 36 38 38 37 34 31 31 30 28 28 31 30 29 26 29 28 25 28 30 38 44 48 53 47 50 59 63 62 54 55 57 59 60 61 63 63 67 65 58 58 54 52 54 54 55 60 61 59 54 54 49 51 48 48 54 56 54 47 48 47 45 44 44 42 42 47 50 53
46 50 52 56 55 49 46 46 42 42 46 42 46 50 54 56 58 42 35 40 38 29 30 35 37 34 38 38 36 34 38 38 41 42 33 34 40 40 40 38 37 34 30 34 36 36 31 29 29 29 31 30 34 31 28 24 24 23 26 27 27 25 28 26 24 26 29 29 29 29 27 30 33 30 27 22 19 23 23 24 25 25 24 23 24 25 28 32 32 30 30 29 33 35 39 31 28 30 32 33 34 33 25 21 21 22 22 22 23 26 26 30 29 27 29 37 40 33 29 29 26 27 23 24 21 19 20 20 21 21 23 19 21 22 23 23 23 24 22 24 26 29 30 30 32 29 32 38 27 24 29 27 25 26 25 23 22 24 23 22 22 21 20 21 20 21 23 22 22 24 24 26 22 20 19 21 24 28 21 22 26 24 29 33 37 36 35 39 38 37 31 24 21 21 21 22 27 26 28 27 26 28 32 29 28 26 30 34 29 26 25 22 23 21 18 22 25 29 27 31 27 30 30 32 34 36 31 30 32 34 35 40 47 44 39 34 39 41 38 33 33 35 29 28 30 30 31 32 33 35 35 33 37 38 41 49 44 49 51 46 38 34 30 33 34 31 30 29 28 25 26 27 28 25 27 32 31 27 29 28 28 24 27 26 27 29 25 24 24 23 24 25 27 26 25 25 24 23 24 24 24 29 29 24 25 22 20 22 20 21 20 22 21 22 22 21 21 21 22 24 25 25 26 20 20 21 20 20 22 28 29 29 27 25 22 22 26 25 23 22 24 29 36 31 29 30 31 34 35 40 40 36 35 32 38 37 41 42 41 41 42 43 41 41 38 40 38 36 34 33 30 34 36 39 40 39 41 38 39 38 38 32 35 41 57 68 52 48 42 41 43 38 44 41 41 41 41 45 39 36 41 46 42 49 41 32 29 26 26 29 30 29 30 33 32 31 29 31 31 30 32 32 33 29 29 31 31 32 35 30 30 31 33 30 28 32 33 34 46 51 65 60 54 57 60 62 62 67 58 55 57 57 50 53 61 57 50 48 48 50 57 47 52 59 58 56 51 50 59 66 52 56 53 55 49 47 41 40 39 32
54 48 48 45 42 45 49 50 45 46 51 56 53 55 51 42 38 38 37 36 33 32 31 32 33 33 33 34 34 33 31 34 38 41 36 32 33 34 35 36 33 33 32 39 36 33 32 31 33 33 33 32 30 27 25 25 28 28 26 26 25 24 24 23 26 29 30 29 29 30 31 31 29 26 23 24 24 27 29 28 29 28 29 27 29 32 37 34 35 32 34 38 37 36 27 27 32 29 27 24 24 24 23 22 24 27 25 29 33 33 31 32 33 36 41 39 31 28 27 26 26 26 27 24 22 20 23 22 24 27 28 27 28 27 26 25 23 26 28 27 28 23 18 25 26 25 28 30 29 29 31 30 29 22 24 22 25 26 22 20 19 18 19 20 20 22 21 23 23 23 23 24 25 23 24 24 23 22 22 28 29 32 33 37 31 32 34 31 28 28 25 27 27 27 29 30 28 28 29 28 29 31 32 34 36 32 31 31 31 32 30 27 24 25 24 21 20 20 24 29 28 36 36 32 32 31 32 31 35 37 33 35 33 42 41 34 38 38 35 31 33 30 29 30 33 30 30 32 29 30 33 29 34 33 35 36 31 34 31 27 31 34 31 33 30 35 36 36 38 33 27 29 26 29 30 26 24 27 26 26 29 36 31 29 24 24 31 32 30 30 27 28 29 29 31 27 29 31 29 29 28 25 24 21 21 20 19 22 18 17 19 19 22 23 22 23 23 24 25 26 26 28 26 28 26 23 24 22 21 20 23 26 29 26 28 29 27 27 27 28 27 27 27 28 29 31 29 29 34 32 37 34 31 35 38 39 37 38 45 45 49 45 48 46 48 48 52 42 40 43 40 43 43 42 41 41 38 34 31 32 31 33 35 31 29 36 56 64 58 48 44 42 41 40 36 34 37 34 37 43 42 44 50 46 41 43 41 30 28 26 27 29 30 29 32 36 32 31 35 33 35 38 36 36 37 34 32 30 32 31 32 29 29 31 29 30 28 27 30 32 28 36 38 32 33 33 41 45 49 55 55 59 62 57 49 53 57 53 51 47 53 53 54 52 54 56 56 47 48 51 53 50 42 36 40 36 39 40 38 39
44 44 46 46 46 50 43 40 35 35 38 37 42 44 41 38 39 31 30 31 35 32 32 34 34 31 32 32 32 30 28 32 33 33 35 37 35 35 33 32 35 36 36 32 31 29 28 32 33 33 31 25 22 27 32 29 29 26 28 25 27 23 26 29 28 29 27 28 30 31 31 25 26 26 20 21 20 21 27 24 22 25 25 28 27 33 35 32 32 34 32 30 30 27 30 31 27 24 25 26 25 24 25 30 30 31 33 37 37 34 34 40 38 36 24 23 26 28 29 27 27 31 26 26 27 26 27 29 29 29 26 24 24 21 24 19 24 25 24 20 19 17 21 23 25 28 29 29 29 33 28 25 27 30 27 28 27 21 22 22 23 21 21 22 26 20 18 18 20 24 24 22 22 24 24 21 22 21 20 21 21 19 25 18 21 26 28 28 25 25 31 27 28 28 27 27 26 28 26 26 26 29 28 28 28 30 27 28 29 26 23 22 22 25 22 25 21 22 25 24 23 24 26 29 25 24 35 35 34 37 35 33 29 24 22 29 25 31 32 33 34 32 35 32 33 28 28 28 29 32 28 25 25 23 25 27 30 26 22 20 22 21 20 20 23 23 29 30 41 44 37 32 30 30 27 27 25 23 25 22 19 23 23 18 22 21 26 35 38 34 31 30 28 29 29 29 28 30 37 31 26 29 24 21 21 20 20 21 20 20 21 19 20 19 21 22 19 21 19 18 20 22 26 27 29 30 28 26 23 23 23 22 24 30 27 28 27 27 29 29 29 30 32 29 26 27 28 29 25 25 36 36 29 29 32 35 43 42 42 49 51 54 48 51 48 43 43 39 41 41 45 44 44 41 37 37 32 32 30 30 31 30 32 35 38 33 30 34 47 57 54 50 46 48 47 44 40 38 41 39 36 29 29 30 36 30 32 38 39 30 26 23 28 28 29 31 38 38 38 37 37 32 32 43 31 33 33 28 28 26 28 29 30 32 37 33 31 28 27 26 25 27 26 29 35 36 40 34 30 35 36 41 47 45 48 45 46 44 46 51 50 52 52 48 51 53 42 45 42 35 39 42 50 47 36 36 46 40 42 41
48 49 42 37 35 36 37 35 38 41 42 42 39 37 36 35 34 35 36 33 30 30 32 29 27 29 27 30 30 33 34 34 32 36 36 36 38 38 39 41 39 33 29 28 28 26 29 28 27 25 26 28 32 35 34 32 27 29 29 27 28 28 28 29 29 31 31 31 30 25 23 24 23 24 24 24 23 23 23 24 26 27 28 29 32 31 31 29 31 32 34 32 31 32 28 26 28 29 29 28 27 28 29 31 32 31 29 30 30 34 32 35 28 28 31 34 34 30 29 29 28 25 25 25 24 22 24 25 25 24 25 24 25 25 25 26 25 23 24 24 23 23 24 25 25 26 23 23 25 25 27 28 28 26 26 25 26 27 28 24 22 24 28 24 21 22 21 23 22 25 25 23 23 26 23 22 23 24 23 23 24 21 21 22 26 25 23 23 23 24 24 25 23 24 24 24 25 25 23 24 27 27 25 27 32 27 25 29 27 29 30 33 25 24 24 27 26 26 26 22 23 22 22 20 20 23 24 25 29 27 28 27 23 22 21 21 26 31 34 27 28 29 33 32 24 27 33 28 31 31 28 29 26 24 29 23 20 19 19 23 22 21 24 26 30 31 30 30 31 33 33 36 30 29 25 25 24 27 21 20 18 17 20 21 20 19 19 21 24 29 26 26 25 24 25 26 26 26 22 19 19 19 21 22 19 18 19 19 22 19 19 24 24 24 22 22 23 22 22 23 25 23 24 24 24 28 26 22 21 21 21 22 20 19 21 24 24 23 22 22 26 25 26 28 28 26 25 28 31 25 26 30 33 35 29 29 34 39 43 43 40 42 41 41 38 42 41 42 47 46 48 45 35 30 28 34 34 35 35 33 34 38 35 36 33 29 35 38 34 30 43 52 70 67 51 48 49 45 40 43 45 40 33 33 41 43 42 34 35 37 34 32 28 27 28 30 32 35 35 35 32 34 35 36 43 36 32 30 31 29 28 29 29 29 30 36 35 32 31 31 29 28 28 26 26 31 32 30 31 32 34 36 38 41 41 40 42 43 49 45 48 47 48 54 54 57 61 68 52 46 42 39 37 45 54 49 47 48 54 49
38 44 41 39 40 39 42 44 45 45 42 42 40 40 38 39 34 34 33 31 28 31 32 32 31 31 35 37 29 31 37 38 37 37 42 47 44 47 48 36 27 28 28 25 23 26 28 28 28 32 32 33 32 33 31 33 33 36 31 31 34 32 34 32 29 30 29 24 28 29 28 27 24 25 24 26 30 31 32 32 32 32 32 32 32 29 30 32 31 36 32 32 32 29 26 28 29 31 30 34 31 29 30 30 31 28 29 28 27 26 26 27 28 34 35 30 27 29 28 28 24 26 25 25 25 24 22 25 22 24 22 23 24 21 22 20 21 23 23 23 21 20 22 22 22 24 24 27 29 28 28 24 20 24 19 20 20 23 25 26 27 25 23 24 24 24 26 27 27 26 27 24 24 25 26 23 27 23 23 22 24 24 25 27 25 30 28 27 25 23 23 23 22 23 23 23 24 21 21 21 20 22 21 25 27 27 26 28 27 27 25 23 22 23 24 22 20 21 21 25 24 29 28 27 26 25 23 23 24 26 25 25 30 31 27 27 25 24 29 29 31 37 29 28 27 32 28 30 28 25 26 33 37 33 30 26 27 23 22 20 25 29 30 25 22 23 27 28 22 26 27 30 28 29 27 33 29 25 24 25 21 19 20 22 20 22 22 22 22 23 23 23 22 22 21 23 16 20 25 21 20 19 20 21 21 20 18 20 22 26 23 20 23 22 21 22 21 20 23 22 22 26 29 29 29 27 24 26 24 22 22 22 23 24 24 22 23 23 21 21 19 24 21 23 27 23 22 19 22 30 28 26 28 28 27 30 28 28 30 33 34 36 33 32 32 37 37 32 34 39 43 42 40 40 34 36 40 42 41 42 39 34 40 38 39 32 30 31 31 35 31 31 38 43 56 55 49 46 48 45 38 35 37 29 26 42 41 41 36 38 36 40 41 39 35 33 29 29 32 39 41 35 36 35 35 34 49 58 48 37 32 32 33 30 29 31 34 37 32 32 32 30 33 31 27 29 29 29 29 32 35 36 37 41 42 42 45 49 50 46 46 45 50 51 44 47 52 57 63 73 66 54 47 45 43 42 47 48 43 42
40 41 39 39 47 50 48 43 44 46 36 34 34 31 32 31 28 28 30 32 33 32 32 36 38 36 35 35 35 33 37 37 40 43 43 44 43 34 30 33 35 29 28 28 31 30 32 32 35 37 36 34 32 31 32 35 36 35 39 42 37 38 36 34 33 30 28 28 29 28 27 28 29 35 32 33 36 40 42 40 38 34 32 32 29 31 33 32 32 33 34 35 31 30 33 35 35 34 33 32 36 37 32 27 26 27 27 28 28 29 33 36 34 31 31 33 29 26 24 23 24 24 23 23 21 22 24 25 22 22 21 22 22 24 26 25 25 23 21 21 22 22 26 24 22 21 22 22 22 22 21 22 23 24 24 25 25 23 25 24 24 21 22 27 30 28 27 28 28 26 25 25 26 23 24 24 23 22 22 25 24 23 23 24 25 23 23 23 24 26 27 27 29 27 30 27 27 26 25 27 25 23 26 26 24 25 24 23 22 25 29 27 29 26 27 27 24 26 23 26 31 33 29 30 34 31 26 26 26 27 27 33 32 31 30 27 24 23 26 26 28 26 27 26 26 29 28 29 28 31 30 30 31 32 28 29 30 32 33 36 35 30 28 25 26 24 24 23 24 27 35 30 35 37 37 30 26 26 29 24 23 22 23 23 23 23 23 23 23 22 24 25 22 21 21 20 20 18 20 19 19 20 21 19 20 22 20 21 18 19 20 19 17 20 21 20 20 22 23 27 24 22 20 22 20 21 25 27 27 29 33 26 26 26 25 23 26 24 24 24 24 22 23 25 24 22 22 23 23 22 22 24 26 27 27 28 28 27 32 32 33 31 36 36 37 39 41 44 37 36 34 32 39 42 43 42 43 41 45 43 45 41 37 38 40 38 38 33 34 36 38 36 29 32 38 39 45 52 52 47 43 44 40 39 34 29 26 31 40 44 37 35 38 42 40 38 38 35 34 35 39 46 42 39 38 40 43 50 48 47 48 41 35 34 31 32 31 40 40 33 31 32 32 29 30 29 28 30 30 29 31 32 34 35 37 39 40 42 43 44 42 37 39 45 49 45 45 51 61 62 58 64 70 69 61 55 44 55 58 55
43 38 40 43 40 40 42 39 42 41 35 36 37 33 30 31 35 32 30 30 30 29 32 33 38 38 34 33 32 34 37 38 37 35 29 29 27 30 30 34 33 33 32 34 34 36 40 38 34 37 33 32 30 32 36 34 33 37 37 40 41 37 33 31 33 33 31 33 32 31 33 35 38 39 41 42 37 34 38 37 36 35 35 32 33 37 38 35 38 38 38 35 34 35 28 26 24 26 28 30 34 33 32 31 30 29 31 31 31 34 33 35 28 23 24 27 25 20 21 24 22 23 22 22 28 28 27 28 24 22 23 22 24 25 23 21 22 21 23 24 25 25 23 23 22 23 23 25 19 22 22 21 22 22 27 25 24 29 25 24 23 26 26 26 22 20 20 22 21 18 19 21 20 20 20 20 21 26 26 26 24 23 21 23 19 20 20 20 18 22 22 26 25 22 27 31 29 31 32 29 27 34 26 24 24 24 25 25 23 23 27 27 27 28 29 30 34 33 28 28 33 37 41 36 27 27 35 38 32 29 29 29 24 26 26 26 29 23 24 24 28 29 32 31 29 26 26 27 27 31 33 32 31 29 32 30 32 30 34 37 29 27 24 27 29 23 24 24 22 24 24 22 28 33 27 24 24 24 25 25 25 25 20 23 25 24 21 20 18 19 21 24 21 20 20 20 22 22 21 18 19 19 22 20 21 19 20 21 20 18 16 17 17 17 17 23 23 21 22 24 25 23 22 22 23 25 26 24 23 22 22 22 23 23 24 24 25 26 29 23 23 21 20 20 26 27 26 22 23 24 22 22 26 31 32 31 30 34 34 34 33 34 39 36 37 33 37 31 29 31 33 31 37 40 43 39 39 41 39 40 37 41 47 42 43 44 49 46 40 35 37 40 41 42 41 41 37 37 49 65 58 53 46 42 45 44 41 37 31 34 44 51 47 46 42 39 38 42 42 41 35 33 39 51 53 44 37 36 53 54 55 45 44 40 38 33 35 31 40 41 40 37 37 35 33 33 31 29 31 34 33 37 34 32 32 36 44 41 36 40 46 54 54 45 45 51 43 39 40 45 54 70 59 58 63 63 57 60 53 52
39 42 37 38 40 44 39 43 40 32 31 31 31 29 29 32 32 28 29 32 33 37 40 36 29 30 34 35 40 42 36 32 29 30 30 30 30 30 30 31 29 33 34 36 34 34 37 36 33 33 34 37 38 39 36 33 31 33 32 34 31 29 30 35 35 33 32 34 34 34 33 37 40 34 35 38 38 38 35 33 34 34 34 36 37 38 40 47 46 39 31 27 26 25 23 28 30 30 28 31 29 28 29 27 30 35 31 31 34 35 36 33 29 28 28 24 23 25 28 24 24 29 32 31 28 29 30 29 28 25 23 24 27 27 23 21 20 24 25 28 27 23 22 23 24 26 28 26 25 23 27 28 26 26 26 26 28 28 25 23 24 25 23 22 22 24 24 23 21 20 22 24 21 21 21 22 24 24 25 22 21 23 21 22 24 23 22 20 21 22 22 22 23 23 27 25 29 31 29 23 18 18 20 21 21 21 26 26 29 26 26 30 32 32 34 35 36 35 36 31 35 37 32 35 39 40 36 35 29 27 24 25 29 31 30 33 32 34 31 32 31 27 25 25 24 24 24 24 26 25 26 28 28 26 32 30 35 34 36 32 31 31 29 25 24 24 25 26 23 22 22 22 22 20 20 21 22 22 24 25 23 24 23 22 24 23 21 19 19 18 19 21 23 22 22 20 19 21 22 19 18 16 16 19 22 23 21 20 18 20 21 22 21 20 22 22 24 24 23 25 27 26 25 29 27 24 22 21 21 21 21 20 20 19 19 20 22 21 22 22 22 22 23 22 28 28 32 28 25 26 24 24 24 21 23 29 30 30 29 30 33 33 30 33 34 34 34 37 35 37 38 32 38 45 45 39 38 37 37 45 47 40 44 47 47 47 47 47 47 48 39 41 47 49 45 47 49 54 45 43 52 53 48 51 47 46 47 42 42 38 39 41 45 49 45 43 42 40 40 39 40 41 38 36 39 45 51 42 38 43 44 50 55 60 53 42 39 39 39 42 47 45 43 42 42 39 36 36 35 34 35 35 38 36 32 31 31 33 37 40 37 36 40 45 45 45 42 45 50 46 43 40 51 57 60 68 60 57 56 55
40 38 42 43 41 41 40 34 30 28 34 33 30 33 33 29 33 36 38 40 47 47 31 30 36 35 32 30 33 30 31 36 39 35 35 36 33 33 33 31 33 34 38 31 33 34 42 40 34 34 39 42 40 38 31 31 28 24 23 23 29 30 31 36 34 37 35 30 27 28 27 25 24 26 31 32 30 32 35 33 33 31 32 33 38 41 44 53 29 24 24 26 25 30 33 30 31 34 36 33 29 30 31 33 41 35 39 38 34 33 33 28 28 32 26 26 26 26 25 24 26 29 30 31 31 30 24 23 23 24 29 28 32 21 19 20 23 22 21 21 21 24 24 26 26 23 23 20 21 24 24 22 23 24 25 32 26 26 26 28 28 29 26 25 22 22 24 23 23 23 22 21 21 23 26 23 21 22 23 23 25 26 22 22 21 22 22 20 22 22 26 25 24 26 24 23 23 18 17 19 19 20 18 20 18 16 19 25 27 24 21 22 27 28 23 29 27 32 34 40 36 43 41 36 40 35 28 26 31 32 33 31 32 33 30 28 32 35 39 30 27 30 28 26 28 27 28 30 28 25 24 25 29 29 25 27 28 24 25 29 31 35 32 30 28 29 31 29 29 27 22 18 20 19 18 22 23 22 22 22 27 23 23 22 21 17 19 20 19 17 17 18 20 24 23 22 21 20 20 24 22 18 16 15 16 21 22 27 26 25 24 24 23 24 20 21 22 21 20 22 21 21 21 22 22 23 23 24 23 21 19 17 16 16 18 19 19 16 17 18 18 18 20 21 18 17 18 22 26 24 24 25 22 21 21 19 24 28 29 26 28 29 31 31 28 33 32 29 32 30 35 41 40 41 48 49 47 40 41 41 37 44 45 46 51 46 49 44 44 52 61 54 46 48 52 44 45 53 54 50 43 50 47 39 37 45 40 35 42 42 41 41 39 42 53 51 46 48 44 44 38 34 36 33 32 36 39 45 50 46 51 53 49 47 54 55 51 45 46 42 41 44 49 49 50 52 42 37 39 39 42 40 33 35 38 35 36 33 35 36 37 37 35 35 36 50 60 50 40 38 37 42 39 36 41 44 45 50 54 69
45 43 44 43 38 32 26 27 31 29 27 28 33 31 35 34 40 41 36 32 31 27 27 27 31 33 35 34 36 40 42 42 45 43 37 34 33 33 35 33 33 36 33 37 48 44 39 41 43 42 41 46 35 28 29 28 28 27 29 34 35 34 36 39 29 28 27 28 28 27 27 28 32 33 31 31 33 37 34 30 32 35 37 38 40 43 30 25 25 26 29 29 31 31 31 32 34 33 32 29 32 32 33 29 28 30 28 28 30 27 28 29 29 25 26 26 27 28 27 30 30 30 27 25 23 22 24 23 21 25 26 25 24 20 22 23 23 26 25 25 26 27 27 28 24 21 23 21 22 22 23 26 29 31 28 27 30 32 28 28 29 32 31 26 28 34 32 28 28 29 26 28 29 30 26 26 25 24 22 25 26 24 21 22 21 20 23 25 29 27 26 27 29 29 27 25 22 22 20 22 20 22 22 20 19 21 20 20 20 20 20 21 22 22 25 26 24 24 22 24 24 21 27 27 25 26 28 26 32 37 39 32 29 32 35 34 32 32 31 30 27 29 29 28 26 24 27 29 30 28 28 29 27 26 23 25 23 23 25 21 21 20 26 24 26 27 27 24 25 25 23 23 20 21 22 24 22 23 23 22 22 23 21 22 23 22 21 21 22 21 20 18 20 21 22 26 24 24 22 23 21 19 20 20 19 19 20 24 27 24 22 24 25 24 22 21 21 19 22 20 22 22 20 21 20 18 19 20 20 19 19 18 17 18 17 17 15 16 15 16 18 18 17 17 17 20 21 20 21 20 22 23 23 23 22 22 20 20 24 29 30 28 28 26 29 29 27 29 26 28 27 25 30 30 28 38 47 51 49 45 42 40 38 41 46 38 35 36 40 35 35 34 34 34 35 38 40 43 47 43 40 38 38 42 42 43 48 46 39 34 35 34 34 35 34 39 42 43 45 43 41 42 40 38 36 36 37 36 36 47 50 49 52 52 51 53 62 56 49 45 48 47 48 41 46 49 51 52 45 43 40 40 37 35 37 37 32 32 28 28 32 35 36 35 33 35 38 45 51 42 38 41 44 38 40 40 42 49 47 47
35 36 32 29 28 26 28 27 29 30 31 31 30 32 33 32 29 25 25 24 28 30 29 30 34 35 40 43 44 43 34 23 28 34 32 42 38 35 34 35 38 38 45 43 37 35 37 33 35 35 31 27 29 32 33 31 34 39 41 44 34 41 37 26 29 27 26 25 25 26 26 31 26 29 30 33 32 30 29 31 33 38 40 47 45 31 28 26 28 29 30 29 34 35 38 35 35 35 31 27 29 29 29 29 28 27 28 29 26 32 30 25 26 29 28 35 32 28 28 30 29 23 23 24 21 19 20 20 20 22 19 19 21 23 26 25 26 25 25 28 24 22 21 21 22 24 24 24 25 27 31 39 37 37 32 27 24 23 28 29 33 28 35 41 36 35 26 30 30 32 32 34 33 28 30 28 26 24 26 23 23 24 28 28 24 31 34 31 28 26 29 28 27 24 22 22 22 25 26 27 28 29 30 27 22 20 21 21 20 22 21 19 22 24 23 22 23 21 21 21 20 18 19 20 20 21 25 26 27 26 27 25 25 25 25 30 27 27 23 25 26 30 27 28 28 28 28 31 32 31 34 28 26 28 28 30 32 33 30 25 26 26 25 25 25 29 33 32 32 33 32 29 29 29 29 30 30 24 28 26 24 22 22 24 23 26 26 21 24 29 24 19 16 21 21 21 23 28 24 26 25 28 24 25 27 24 22 22 26 24 23 23 20 22 25 26 24 18 18 20 21 23 26 25 22 20 20 22 24 24 21 23 21 22 21 20 22 22 21 19 21 21 20 21 18 18 20 22 23 24 20 21 23 23 25 24 22 21 21 22 25 27 27 27 29 32 35 36 31 28 27 25 26 26 29 29 29 29 32 39 36 35 32 30 34 31 39 36 38 38 40 37 37 34 32 36 31 30 35 36 42 42 42 42 49 45 43 44 47 46 40 42 41 38 32 29 30 35 32 40 43 40 37 38 46 41 39 46 48 40 39 42 46 61 57 58 50 60 49 54 49 48 47 48 53 53 44 45 49 50 43 42 41 40 40 38 40 35 34 34 32 31 39 34 35 35 35 35 43 43 45 45 39 41 34 40 44 39 44 55
